; G-Code generated by Simplify3D(R) Version 4.1.2
; Jun 17, 2021 at 1:49:12 AM
; Settings Summary
;   processName,Color1
;   applyToModels,Dual_Head_Calibration_0_2mm_T0
;   profileName,blv_triple_head (modified)
;   profileVersion,2021-06-17 01:43:00
;   baseProfile,Default
;   printMaterial,PLA
;   printQuality,Medium
;   printExtruders,All Extruders
;   extruderName,Extruder 1,Extruder 2,Extruder 3
;   extruderToolheadNumber,0,1,2
;   extruderDiameter,0.4,0.4,0.4
;   extruderAutoWidth,0,0,0
;   extruderWidth,0.4,0.4,0.4
;   extrusionMultiplier,0.9,0.9,0.9
;   extruderUseRetract,1,1,1
;   extruderRetractionDistance,1,1,1
;   extruderExtraRestartDistance,0,0,0
;   extruderRetractionZLift,0,0,0
;   extruderRetractionSpeed,1800,1800,1800
;   extruderUseCoasting,0,0,0
;   extruderCoastingDistance,0.2,0.2,0.2
;   extruderUseWipe,0,0,0
;   extruderWipeDistance,5,5,5
;   primaryExtruder,2
;   layerHeight,0.2
;   topSolidLayers,3
;   bottomSolidLayers,3
;   perimeterOutlines,2
;   printPerimetersInsideOut,1
;   startPointOption,2
;   startPointOriginX,0
;   startPointOriginY,0
;   sequentialIslands,0
;   spiralVaseMode,0
;   firstLayerHeightPercentage,100
;   firstLayerWidthPercentage,100
;   firstLayerUnderspeed,0.5
;   useRaft,0
;   raftExtruder,2
;   raftTopLayers,3
;   raftBaseLayers,2
;   raftOffset,3
;   raftSeparationDistance,0.14
;   raftTopInfill,100
;   aboveRaftSpeedMultiplier,0.3
;   useSkirt,0
;   skirtExtruder,0
;   skirtLayers,1
;   skirtOutlines,2
;   skirtOffset,4
;   usePrimePillar,0
;   primePillarExtruder,999
;   primePillarWidth,12
;   primePillarLocation,7
;   primePillarSpeedMultiplier,1
;   useOozeShield,1
;   oozeShieldExtruder,999
;   oozeShieldOffset,2
;   oozeShieldOutlines,1
;   oozeShieldSidewallShape,1
;   oozeShieldSidewallAngle,30
;   oozeShieldSpeedMultiplier,1
;   infillExtruder,2
;   internalInfillPattern,Rectilinear
;   externalInfillPattern,Rectilinear
;   infillPercentage,20
;   outlineOverlapPercentage,15
;   infillExtrusionWidthPercentage,100
;   minInfillLength,5
;   infillLayerInterval,1
;   internalInfillAngles,45,-45
;   overlapInternalInfillAngles,0
;   externalInfillAngles,45,-45
;   generateSupport,0
;   supportExtruder,2
;   supportInfillPercentage,30
;   supportExtraInflation,0
;   supportBaseLayers,0
;   denseSupportExtruder,2
;   denseSupportLayers,0
;   denseSupportInfillPercentage,70
;   supportLayerInterval,1
;   supportHorizontalPartOffset,0.3
;   supportUpperSeparationLayers,1
;   supportLowerSeparationLayers,1
;   supportType,0
;   supportGridSpacing,4
;   maxOverhangAngle,45
;   supportAngles,0
;   temperatureName,Extruder 1,Extruder 2,Extruder 3,Heated Bed
;   temperatureNumber,0,1,2,0
;   temperatureSetpointCount,1,1,1,1
;   temperatureSetpointLayers,1,1,1,1
;   temperatureSetpointTemperatures,215,215,215,60
;   temperatureStabilizeAtStartup,1,1,1,1
;   temperatureHeatedBed,0,0,0,1
;   fanLayers,1,2
;   fanSpeeds,0,100
;   blipFanToFullPower,0
;   adjustSpeedForCooling,1
;   minSpeedLayerTime,15
;   minCoolingSpeedSlowdown,20
;   increaseFanForCooling,0
;   minFanLayerTime,45
;   maxCoolingFanSpeed,100
;   increaseFanForBridging,0
;   bridgingFanSpeed,100
;   use5D,1
;   relativeEdistances,0
;   allowEaxisZeroing,1
;   independentExtruderAxes,0
;   includeM10123,0
;   stickySupport,1
;   applyToolheadOffsets,0
;   gcodeXoffset,0
;   gcodeYoffset,0
;   gcodeZoffset,0
;   overrideMachineDefinition,1
;   machineTypeOverride,0
;   strokeXoverride,310
;   strokeYoverride,310
;   strokeZoverride,355
;   originOffsetXoverride,0
;   originOffsetYoverride,0
;   originOffsetZoverride,0
;   homeXdirOverride,-1
;   homeYdirOverride,-1
;   homeZdirOverride,-1
;   flipXoverride,1
;   flipYoverride,-1
;   flipZoverride,1
;   toolheadOffsets,0,0|0,0|0,0|0,0|0,0|0,0
;   overrideFirmwareConfiguration,1
;   firmwareTypeOverride,RepRap (Marlin/Repetier/Sprinter)
;   GPXconfigOverride,r2
;   baudRateOverride,115200
;   overridePrinterModels,0
;   printerModelsOverride
;   startingGcode,M291 P"Homing all axis" R"Printing.." S1 T2,G21		; metric values,G28		; home all,M98 P"/sys/load_meshbed.g"	; load mesh bed corresponding to the temp,,G92 E0 F100		; reset extruder,G1 Z10 F3000 		; move z up little to prevent scratching of surface,G92 E0 		; reset extruder,M291 P"Printing started !" R"Printing.." S1 T3
;   layerChangeGcode,
;   retractionGcode,
;   toolChangeGcode,T[new_tool],M98 P"/macros/set_baby_step"	; set baby step,M98 P"/macros/purge"; purge and do the prime line,
;   endingGcode,M104 S0 ; turn off extruder,M140 S0 ; turn off bed,M98 P"/macros/remove_baby_step"	; unset baby step,M98 P"/macros/rise30mm",T-1,G1 X0 Y300 F1000 ; prepare for part removal,M84 ; disable motors,M106 S0 ;turn off part cooling fan,;M81 ; shutdown,; play song,M300 S294 P200 ;D4: 294,M300 S588 P200 ;D5: 588,M300 S440 P200 ;A4: 440,M300 S392 P200 ;G4: 392,M300 S784 P200 ;G5: 784,M300 S440 P200 ;A4: 440,M300 S740 P200 ;F#5: 740,M300 S440 P200 ;A4: 440,M291 P"Printing finished !" R"Printing.." S1 T0,
;   exportFileFormat,gcode
;   celebration,0
;   celebrationSong,Random Song
;   postProcessing,
;   defaultSpeed,3600
;   outlineUnderspeed,0.5
;   solidInfillUnderspeed,0.8
;   supportUnderspeed,0.8
;   rapidXYspeed,4800
;   rapidZspeed,1002
;   minBridgingArea,50
;   bridgingExtraInflation,0
;   bridgingExtrusionMultiplier,1
;   bridgingSpeedMultiplier,1
;   useFixedBridgingAngle,0
;   fixedBridgingAngle,0
;   applyBridgingToPerimeters,0
;   filamentDiameters,1.75|1.75|1.75|1.75|1.75|1.75
;   filamentPricesPerKg,46|46|46|46|46|46
;   filamentDensities,1.25|1.25|1.25|1.25|1.25|1.25
;   useMinPrintHeight,0
;   minPrintHeight,0
;   useMaxPrintHeight,0
;   maxPrintHeight,0
;   useDiaphragm,0
;   diaphragmLayerInterval,20
;   robustSlicing,1
;   mergeAllIntoSolid,0
;   onlyRetractWhenCrossingOutline,1
;   retractBetweenLayers,1
;   useRetractionMinTravel,0
;   retractionMinTravel,3
;   retractWhileWiping,0
;   onlyWipeOutlines,1
;   avoidCrossingOutline,0
;   maxMovementDetourFactor,3
;   toolChangeRetractionDistance,12
;   toolChangeExtraRestartDistance,-0.5
;   toolChangeRetractionSpeed,600
;   externalThinWallType,0
;   internalThinWallType,2
;   thinWallAllowedOverlapPercentage,10
;   singleExtrusionMinLength,1
;   singleExtrusionMinPrintingWidthPercentage,50
;   singleExtrusionMaxPrintingWidthPercentage,200
;   singleExtrusionEndpointExtension,0.2
;   horizontalSizeCompensation,0
G90
M82
M106 S0
M140 S60
M190 S60
;M104 S215 T0
;M104 S215 T1
;M104 S215 T2
;M109 S215 T0
;M109 S215 T1
;M109 S215 T2

M291 P"Homing all axis" R"Printing.." S1 T2
G21		; metric values
G28		; home all

T-1
M400

G10 S215 R150 P1
G10 S215 R150 P2

M98 P"/sys/load_meshbed.g"	; load mesh bed corresponding to the temp
;G92 E0 F100		; reset extruder
G1 Z10 F3000 		; move z up little to prevent scratching of surface
G92 E0 		; reset extruder
M291 P"Printing started !" R"Printing.." S1 T3
; process Color2
; layer 1, Z = 0.200
T2
M98 P"/macros/set_baby_step"	; set baby step
M98 P"/macros/purge_wipe"; purge and do the prime line
G92 E0.0000
G1 E-1.0000 F1800
; feature ooze shield
; tool H0.200 W0.400
G1 Z0.200 F1002
G1 X119.932 Y121.975 F4800
G1 E0.0000 F1800
G92 E0.0000
G1 X120.459 Y121.533 E0.0206 F1800
G1 X120.747 Y121.350 E0.0308
G1 X121.214 Y121.132 E0.0462
G1 X121.539 Y121.029 E0.0564
G1 X122.160 Y120.920 E0.0753
G1 X122.386 Y120.900 E0.0821
G1 X150.588 Y120.900 E0.9263
G1 X153.088 Y118.900 E1.0221
G1 X154.912 Y118.900 E1.0767
G1 X157.412 Y120.900 E1.1726
G1 X185.614 Y120.900 E2.0168
G1 X185.840 Y120.920 E2.0236
G1 X186.517 Y121.039 E2.0442
G1 X186.945 Y121.195 E2.0578
G1 X187.640 Y121.596 E2.0818
G1 X187.988 Y121.888 E2.0954
G1 X188.467 Y122.459 E2.1177
G1 X188.650 Y122.747 E2.1279
G1 X188.868 Y123.214 E2.1433
G1 X188.971 Y123.539 E2.1535
G1 X189.080 Y124.160 E2.1724
G1 X189.100 Y124.386 E2.1792
G1 X189.100 Y152.588 E3.0234
G1 X191.100 Y155.088 E3.1193
G1 X191.100 Y156.912 E3.1739
G1 X189.100 Y159.412 E3.2697
G1 X189.100 Y187.614 E4.1139
G1 X189.080 Y187.840 E4.1207
G1 X188.971 Y188.461 E4.1396
G1 X188.868 Y188.786 E4.1498
G1 X188.650 Y189.253 E4.1652
G1 X188.467 Y189.541 E4.1754
G1 X187.988 Y190.112 E4.1977
G1 X187.640 Y190.404 E4.2113
G1 X186.945 Y190.805 E4.2353
G1 X186.518 Y190.961 E4.2490
G1 X185.840 Y191.080 E4.2696
G1 X185.614 Y191.100 E4.2764
G1 X169.443 Y191.100 E4.7604
G1 X169.330 Y191.095 E4.7638
G1 X168.639 Y191.035 E4.7845
G1 X168.416 Y190.995 E4.7913
G1 X167.691 Y190.801 E4.8138
G1 X167.478 Y190.723 E4.8206
G1 X166.798 Y190.407 E4.8430
G1 X166.602 Y190.293 E4.8498
G1 X165.987 Y189.863 E4.8723
G1 X165.813 Y189.717 E4.8791
G1 X165.283 Y189.187 E4.9015
G1 X165.137 Y189.013 E4.9083
G1 X164.707 Y188.398 E4.9308
G1 X164.593 Y188.202 E4.9376
G1 X164.277 Y187.522 E4.9600
G1 X164.199 Y187.309 E4.9668
G1 X164.005 Y186.584 E4.9893
G1 X163.965 Y186.361 E4.9961
G1 X163.905 Y185.670 E5.0168
G1 X163.900 Y185.557 E5.0202
G1 X163.900 Y182.443 E5.1134
G1 X163.905 Y182.330 E5.1168
G1 X163.965 Y181.639 E5.1375
G1 X164.005 Y181.416 E5.1443
G1 X164.199 Y180.691 E5.1668
G1 X164.277 Y180.478 E5.1736
G1 X164.593 Y179.798 E5.1960
G1 X164.707 Y179.602 E5.2028
G1 X165.137 Y178.987 E5.2253
G1 X165.283 Y178.813 E5.2321
G1 X165.813 Y178.283 E5.2545
G1 X165.987 Y178.137 E5.2613
G1 X166.602 Y177.707 E5.2838
G1 X166.798 Y177.594 E5.2906
G1 X167.478 Y177.277 E5.3130
G1 X167.691 Y177.199 E5.3198
G1 X168.416 Y177.005 E5.3423
G1 X168.639 Y176.965 E5.3491
G1 X169.330 Y176.905 E5.3698
G1 X169.443 Y176.900 E5.3732
G1 X175.386 Y176.900 E5.5511
G1 X175.568 Y176.884 E5.5566
G1 X175.633 Y176.867 E5.5586
G1 X175.695 Y176.838 E5.5606
G1 X175.751 Y176.799 E5.5627
G1 X175.799 Y176.751 E5.5647
G1 X175.838 Y176.695 E5.5667
G1 X175.867 Y176.633 E5.5688
G1 X175.884 Y176.568 E5.5708
G1 X175.900 Y176.386 E5.5763
G1 X175.900 Y141.614 E6.6172
G1 X175.884 Y141.432 E6.6226
G1 X175.867 Y141.367 E6.6246
G1 X175.838 Y141.305 E6.6267
G1 X175.799 Y141.249 E6.6287
G1 X175.751 Y141.201 E6.6307
G1 X175.695 Y141.162 E6.6328
G1 X175.634 Y141.133 E6.6348
G1 X175.568 Y141.116 E6.6369
G1 X175.386 Y141.100 E6.6423
G1 X157.443 Y141.100 E7.1794
G1 X157.330 Y141.095 E7.1828
G1 X156.639 Y141.035 E7.2036
G1 X156.416 Y140.995 E7.2104
G1 X155.691 Y140.801 E7.2328
G1 X155.478 Y140.723 E7.2396
G1 X154.798 Y140.406 E7.2621
G1 X154.602 Y140.293 E7.2688
G1 X153.987 Y139.863 E7.2913
G1 X153.813 Y139.717 E7.2981
G1 X153.283 Y139.187 E7.3205
G1 X153.137 Y139.013 E7.3273
G1 X152.707 Y138.398 E7.3498
G1 X152.593 Y138.202 E7.3566
G1 X152.277 Y137.522 E7.3790
G1 X152.199 Y137.309 E7.3858
G1 X152.005 Y136.584 E7.4083
G1 X151.965 Y136.361 E7.4151
G1 X151.905 Y135.670 E7.4358
G1 X151.900 Y135.557 E7.4392
G1 X151.900 Y134.614 E7.4675
G1 X151.884 Y134.432 E7.4729
G1 X151.867 Y134.367 E7.4749
G1 X151.838 Y134.305 E7.4770
G1 X151.799 Y134.249 E7.4790
G1 X151.751 Y134.201 E7.4810
G1 X151.695 Y134.162 E7.4831
G1 X151.633 Y134.133 E7.4851
G1 X151.568 Y134.116 E7.4871
G1 X151.387 Y134.100 E7.4926
G1 X136.613 Y134.100 E7.9348
G1 X136.432 Y134.116 E7.9403
G1 X136.367 Y134.133 E7.9423
G1 X136.305 Y134.162 E7.9443
G1 X136.249 Y134.201 E7.9464
G1 X136.201 Y134.249 E7.9484
G1 X136.162 Y134.305 E7.9504
G1 X136.133 Y134.367 E7.9525
G1 X136.116 Y134.432 E7.9545
G1 X136.100 Y134.614 E7.9600
G1 X136.100 Y135.557 E7.9882
G1 X136.095 Y135.670 E7.9916
G1 X136.035 Y136.361 E8.0123
G1 X135.995 Y136.584 E8.0191
G1 X135.801 Y137.309 E8.0416
G1 X135.723 Y137.522 E8.0484
G1 X135.406 Y138.202 E8.0708
G1 X135.293 Y138.398 E8.0776
G1 X134.863 Y139.013 E8.1001
G1 X134.717 Y139.187 E8.1069
G1 X134.187 Y139.717 E8.1293
G1 X134.013 Y139.863 E8.1361
G1 X133.398 Y140.293 E8.1586
G1 X133.202 Y140.406 E8.1654
G1 X132.522 Y140.723 E8.1878
G1 X132.309 Y140.801 E8.1946
G1 X131.584 Y140.995 E8.2171
G1 X131.361 Y141.035 E8.2238
G1 X130.670 Y141.095 E8.2446
G1 X130.557 Y141.100 E8.2480
G1 X124.443 Y141.100 E8.4310
G1 X124.330 Y141.095 E8.4344
G1 X123.639 Y141.035 E8.4551
G1 X123.416 Y140.995 E8.4619
G1 X122.691 Y140.801 E8.4844
G1 X122.478 Y140.723 E8.4912
G1 X121.798 Y140.406 E8.5136
G1 X121.602 Y140.293 E8.5204
G1 X120.987 Y139.863 E8.5429
G1 X120.813 Y139.717 E8.5497
G1 X120.283 Y139.187 E8.5721
G1 X120.137 Y139.013 E8.5789
G1 X119.707 Y138.398 E8.6014
G1 X119.594 Y138.202 E8.6082
G1 X119.277 Y137.522 E8.6306
G1 X119.199 Y137.309 E8.6374
G1 X119.005 Y136.584 E8.6599
G1 X118.965 Y136.361 E8.6667
G1 X118.905 Y135.670 E8.6874
G1 X118.900 Y135.557 E8.6908
G1 X118.900 Y124.386 E9.0252
G1 X118.920 Y124.160 E9.0320
G1 X119.029 Y123.539 E9.0509
G1 X119.132 Y123.214 E9.0611
G1 X119.326 Y122.798 E9.0748
G1 X119.439 Y122.602 E9.0816
G1 X119.702 Y122.226 E9.0953
G1 X119.932 Y121.975 E9.1055
G92 E0.0000
G1 E-1.0000 F1800
G1 X120.209 Y122.265 F4800
G1 E0.0000 F1800
G92 E0.0000
G1 X120.696 Y121.856 E0.0190 F1800
G1 X120.940 Y121.701 E0.0277
G1 X121.359 Y121.505 E0.0415
G1 X121.634 Y121.419 E0.0501
G1 X122.213 Y121.317 E0.0677
G1 X122.404 Y121.300 E0.0735
G1 X150.728 Y121.300 E0.9213
G1 X153.228 Y119.300 E1.0172
G1 X154.772 Y119.300 E1.0634
G1 X157.272 Y121.300 E1.1592
G1 X185.596 Y121.300 E2.0071
G1 X185.787 Y121.317 E2.0128
G1 X186.414 Y121.427 E2.0319
G1 X186.775 Y121.559 E2.0434
G1 X187.409 Y121.925 E2.0653
G1 X187.704 Y122.172 E2.0768
G1 X188.144 Y122.696 E2.0973
G1 X188.299 Y122.940 E2.1059
G1 X188.494 Y123.359 E2.1198
G1 X188.581 Y123.634 E2.1284
G1 X188.683 Y124.213 E2.1460
G1 X188.700 Y124.404 E2.1518
G1 X188.700 Y152.728 E2.9996
G1 X190.700 Y155.228 E3.0955
G1 X190.700 Y156.772 E3.1417
G1 X188.700 Y159.272 E3.2375
G1 X188.700 Y187.596 E4.0854
G1 X188.683 Y187.787 E4.0911
G1 X188.581 Y188.366 E4.1087
G1 X188.495 Y188.641 E4.1173
G1 X188.299 Y189.060 E4.1312
G1 X188.144 Y189.304 E4.1398
G1 X187.704 Y189.828 E4.1603
G1 X187.410 Y190.075 E4.1718
G1 X186.775 Y190.441 E4.1937
G1 X186.414 Y190.573 E4.2053
G1 X185.787 Y190.683 E4.2243
G1 X185.596 Y190.700 E4.2300
G1 X169.452 Y190.700 E4.7133
G1 X169.356 Y190.696 E4.7162
G1 X168.692 Y190.638 E4.7361
G1 X168.502 Y190.604 E4.7419
G1 X167.812 Y190.419 E4.7633
G1 X167.631 Y190.354 E4.7690
G1 X166.983 Y190.051 E4.7904
G1 X166.817 Y189.955 E4.7962
G1 X166.231 Y189.545 E4.8176
G1 X166.084 Y189.422 E4.8234
G1 X165.578 Y188.916 E4.8448
G1 X165.455 Y188.769 E4.8505
G1 X165.045 Y188.183 E4.8719
G1 X164.949 Y188.017 E4.8777
G1 X164.646 Y187.369 E4.8991
G1 X164.581 Y187.188 E4.9048
G1 X164.396 Y186.498 E4.9262
G1 X164.362 Y186.308 E4.9320
G1 X164.304 Y185.644 E4.9519
G1 X164.300 Y185.548 E4.9548
G1 X164.300 Y182.452 E5.0475
G1 X164.304 Y182.356 E5.0504
G1 X164.362 Y181.692 E5.0703
G1 X164.396 Y181.502 E5.0761
G1 X164.581 Y180.812 E5.0975
G1 X164.646 Y180.631 E5.1032
G1 X164.949 Y179.983 E5.1246
G1 X165.045 Y179.817 E5.1304
G1 X165.455 Y179.231 E5.1518
G1 X165.578 Y179.084 E5.1575
G1 X166.084 Y178.578 E5.1789
G1 X166.231 Y178.455 E5.1847
G1 X166.817 Y178.045 E5.2061
G1 X166.983 Y177.949 E5.2119
G1 X167.631 Y177.646 E5.2333
G1 X167.812 Y177.581 E5.2390
G1 X168.503 Y177.396 E5.2604
G1 X168.692 Y177.362 E5.2662
G1 X169.356 Y177.304 E5.2861
G1 X169.452 Y177.300 E5.2890
G1 X175.404 Y177.300 E5.4672
G1 X175.637 Y177.280 E5.4742
G1 X175.771 Y177.244 E5.4783
G1 X175.896 Y177.186 E5.4824
G1 X176.009 Y177.106 E5.4866
G1 X176.106 Y177.009 E5.4907
G1 X176.186 Y176.896 E5.4948
G1 X176.244 Y176.771 E5.4990
G1 X176.280 Y176.637 E5.5031
G1 X176.300 Y176.404 E5.5101
G1 X176.300 Y141.596 E6.5521
G1 X176.280 Y141.363 E6.5591
G1 X176.244 Y141.229 E6.5632
G1 X176.186 Y141.104 E6.5673
G1 X176.106 Y140.991 E6.5715
G1 X176.009 Y140.894 E6.5756
G1 X175.896 Y140.814 E6.5797
G1 X175.771 Y140.756 E6.5839
G1 X175.637 Y140.720 E6.5880
G1 X175.404 Y140.700 E6.5950
G1 X157.452 Y140.700 E7.1324
G1 X157.356 Y140.696 E7.1353
G1 X156.692 Y140.638 E7.1552
G1 X156.502 Y140.604 E7.1610
G1 X155.812 Y140.419 E7.1824
G1 X155.631 Y140.354 E7.1881
G1 X154.983 Y140.051 E7.2095
G1 X154.817 Y139.955 E7.2153
G1 X154.231 Y139.545 E7.2367
G1 X154.084 Y139.422 E7.2424
G1 X153.578 Y138.916 E7.2638
G1 X153.455 Y138.769 E7.2696
G1 X153.045 Y138.183 E7.2910
G1 X152.949 Y138.017 E7.2967
G1 X152.646 Y137.369 E7.3181
G1 X152.581 Y137.188 E7.3239
