; G-Code generated by Simplify3D(R) Version 4.1.2
; Jun 19, 2021 at 3:11:18 PM
; Settings Summary
;   processName,Color1
;   applyToModels,Cube_1
;   profileName,blv_triple_head (modified)
;   profileVersion,2021-06-17 01:43:00
;   baseProfile,Default
;   printMaterial,PLA
;   printQuality,Medium
;   printExtruders,All Extruders
;   extruderName,Extruder 1,Extruder 2,Extruder 3
;   extruderToolheadNumber,0,1,2
;   extruderDiameter,0.4,0.4,0.4
;   extruderAutoWidth,0,0,0
;   extruderWidth,0.4,0.4,0.4
;   extrusionMultiplier,0.9,0.9,0.9
;   extruderUseRetract,1,1,1
;   extruderRetractionDistance,1,1,1
;   extruderExtraRestartDistance,0,0,0
;   extruderRetractionZLift,0,0,0
;   extruderRetractionSpeed,1800,1800,1800
;   extruderUseCoasting,0,0,0
;   extruderCoastingDistance,0.2,0.2,0.2
;   extruderUseWipe,0,0,0
;   extruderWipeDistance,5,5,5
;   primaryExtruder,2
;   layerHeight,0.2
;   topSolidLayers,3
;   bottomSolidLayers,3
;   perimeterOutlines,2
;   printPerimetersInsideOut,1
;   startPointOption,2
;   startPointOriginX,0
;   startPointOriginY,0
;   sequentialIslands,0
;   spiralVaseMode,0
;   firstLayerHeightPercentage,100
;   firstLayerWidthPercentage,100
;   firstLayerUnderspeed,0.5
;   useRaft,0
;   raftExtruder,2
;   raftTopLayers,3
;   raftBaseLayers,2
;   raftOffset,3
;   raftSeparationDistance,0.14
;   raftTopInfill,100
;   aboveRaftSpeedMultiplier,0.3
;   useSkirt,0
;   skirtExtruder,0
;   skirtLayers,1
;   skirtOutlines,2
;   skirtOffset,4
;   usePrimePillar,0
;   primePillarExtruder,999
;   primePillarWidth,12
;   primePillarLocation,7
;   primePillarSpeedMultiplier,1
;   useOozeShield,1
;   oozeShieldExtruder,999
;   oozeShieldOffset,2
;   oozeShieldOutlines,1
;   oozeShieldSidewallShape,1
;   oozeShieldSidewallAngle,30
;   oozeShieldSpeedMultiplier,1
;   infillExtruder,2
;   internalInfillPattern,Rectilinear
;   externalInfillPattern,Rectilinear
;   infillPercentage,20
;   outlineOverlapPercentage,15
;   infillExtrusionWidthPercentage,100
;   minInfillLength,5
;   infillLayerInterval,1
;   internalInfillAngles,45,-45
;   overlapInternalInfillAngles,0
;   externalInfillAngles,45,-45
;   generateSupport,0
;   supportExtruder,2
;   supportInfillPercentage,30
;   supportExtraInflation,0
;   supportBaseLayers,0
;   denseSupportExtruder,2
;   denseSupportLayers,0
;   denseSupportInfillPercentage,70
;   supportLayerInterval,1
;   supportHorizontalPartOffset,0.3
;   supportUpperSeparationLayers,1
;   supportLowerSeparationLayers,1
;   supportType,0
;   supportGridSpacing,4
;   maxOverhangAngle,45
;   supportAngles,0
;   temperatureName,Extruder 1,Extruder 2,Extruder 3,Heated Bed
;   temperatureNumber,0,1,2,0
;   temperatureSetpointCount,1,1,1,1
;   temperatureSetpointLayers,1,1,1,1
;   temperatureSetpointTemperatures,190,190,190,60
;   temperatureStabilizeAtStartup,1,1,1,1
;   temperatureHeatedBed,0,0,0,1
;   fanLayers,1,2
;   fanSpeeds,0,100
;   blipFanToFullPower,0
;   adjustSpeedForCooling,1
;   minSpeedLayerTime,15
;   minCoolingSpeedSlowdown,20
;   increaseFanForCooling,0
;   minFanLayerTime,45
;   maxCoolingFanSpeed,100
;   increaseFanForBridging,0
;   bridgingFanSpeed,100
;   use5D,1
;   relativeEdistances,0
;   allowEaxisZeroing,1
;   independentExtruderAxes,0
;   includeM10123,0
;   stickySupport,1
;   applyToolheadOffsets,0
;   gcodeXoffset,0
;   gcodeYoffset,0
;   gcodeZoffset,0
;   overrideMachineDefinition,1
;   machineTypeOverride,0
;   strokeXoverride,310
;   strokeYoverride,310
;   strokeZoverride,355
;   originOffsetXoverride,0
;   originOffsetYoverride,0
;   originOffsetZoverride,0
;   homeXdirOverride,-1
;   homeYdirOverride,-1
;   homeZdirOverride,-1
;   flipXoverride,1
;   flipYoverride,-1
;   flipZoverride,1
;   toolheadOffsets,0,0|0,0|0,0|0,0|0,0|0,0
;   overrideFirmwareConfiguration,1
;   firmwareTypeOverride,RepRap (Marlin/Repetier/Sprinter)
;   GPXconfigOverride,r2
;   baudRateOverride,115200
;   overridePrinterModels,0
;   printerModelsOverride
;   startingGcode,M291 P"Homing all axis" R"Printing.." S1 T2,G21		; metric values,;G28		; home all,,T-1,M400,M98 P"/sys/load_meshbed.g"	; load mesh bed corresponding to the temp,M400,M98 P"/macros/prime_all_active_tools.g"
;   layerChangeGcode,
;   retractionGcode,
;   toolChangeGcode,T[new_tool],M98 P"/macros/set_baby_step"	; set baby step,M98 P"/macros/purge_wipe"; purge and wipe,M98 P"/macros/restore_tool_change_start_position" ; go back to the position right before the tool change
;   endingGcode,M568 P0 S0 R0 A0                                                   ; turn off tools,M568 P1 S0 R0 A0,M568 P2 S0 R0 A0,M140 S-273                                                             ; switch off bed,M98 P"/macros/remove_baby_step"	; unset baby step,M98 P"/macros/rise30mm",M98 P"/macros/rise30mm",T-1,G1 X0 Y310 F1000 ; prepare for part removal,M84 ; disable motors,M106 S0 ;turn off part cooling fan
;   exportFileFormat,gcode
;   celebration,0
;   celebrationSong,Random Song
;   postProcessing,
;   defaultSpeed,3600
;   outlineUnderspeed,0.5
;   solidInfillUnderspeed,0.8
;   supportUnderspeed,0.8
;   rapidXYspeed,4800
;   rapidZspeed,1002
;   minBridgingArea,50
;   bridgingExtraInflation,0
;   bridgingExtrusionMultiplier,1
;   bridgingSpeedMultiplier,1
;   useFixedBridgingAngle,0
;   fixedBridgingAngle,0
;   applyBridgingToPerimeters,0
;   filamentDiameters,1.75|1.75|1.75|1.75|1.75|1.75
;   filamentPricesPerKg,46|46|46|46|46|46
;   filamentDensities,1.25|1.25|1.25|1.25|1.25|1.25
;   useMinPrintHeight,0
;   minPrintHeight,0
;   useMaxPrintHeight,0
;   maxPrintHeight,0
;   useDiaphragm,0
;   diaphragmLayerInterval,20
;   robustSlicing,1
;   mergeAllIntoSolid,0
;   onlyRetractWhenCrossingOutline,1
;   retractBetweenLayers,1
;   useRetractionMinTravel,0
;   retractionMinTravel,3
;   retractWhileWiping,0
;   onlyWipeOutlines,1
;   avoidCrossingOutline,0
;   maxMovementDetourFactor,3
;   toolChangeRetractionDistance,12
;   toolChangeExtraRestartDistance,-0.5
;   toolChangeRetractionSpeed,600
;   externalThinWallType,0
;   internalThinWallType,2
;   thinWallAllowedOverlapPercentage,10
;   singleExtrusionMinLength,1
;   singleExtrusionMinPrintingWidthPercentage,50
;   singleExtrusionMaxPrintingWidthPercentage,200
;   singleExtrusionEndpointExtension,0.2
;   horizontalSizeCompensation,0
G90
M82
M106 S0
M140 S60
M190 S60

G10 S215 R150 P1
G10 S215 R150 P2

M291 P"Homing all axis" R"Printing.." S1 T2
G21		; metric values
;G28		; home all
T-1
M400
M98 P"/sys/load_meshbed.g"	; load mesh bed corresponding to the temp
M400
M98 P"/macros/prime_all_active_tools.g"
; process Color1
; layer 1, Z = 0.200
T2
M98 P"/macros/set_baby_step"	; set baby step
M98 P"/macros/purge_wipe"; purge and wipe
M98 P"/macros/restore_tool_change_start_position" ; go back to the position right before the tool change
G92 E0.0000
G1 E-1.0000 F1800
; feature ooze shield
; tool H0.200 W0.400
G1 Z0.200 F1002
G1 X142.400 Y133.923 F4800
G1 E0.0000 F1800
G92 E0.0000
G1 X143.923 Y132.400 E0.0645 F1800
G1 X166.077 Y132.400 E0.7276
G1 X167.600 Y133.923 E0.7921
G1 X167.600 Y156.077 E1.4553
G1 X166.077 Y157.600 E1.5197
G1 X143.923 Y157.600 E2.1829
G1 X142.400 Y156.077 E2.2474
G1 X142.400 Y133.923 E2.9105
G92 E0.0000
G1 E-1.0000 F1800
G1 X142.800 Y134.089 F4800
G1 E0.0000 F1800
G92 E0.0000
G1 X144.089 Y132.800 E0.0546 F1800
G1 X165.911 Y132.800 E0.7078
G1 X167.200 Y134.089 E0.7624
G1 X167.200 Y155.911 E1.4156
G1 X165.911 Y157.200 E1.4701
G1 X144.089 Y157.200 E2.1234
G1 X142.800 Y155.911 E2.1779
G1 X142.800 Y134.089 E2.8312
G92 E0.0000
G1 E-1.0000 F1800
; feature inner perimeter
G1 X145.600 Y135.600 F4800
G1 E0.0000 F1800
G92 E0.0000
G1 X164.400 Y135.600 E0.5628 F1350
G1 X164.400 Y154.400 E1.1255
G1 X145.600 Y154.400 E1.6883
G1 X145.600 Y135.600 E2.2510
; feature outer perimeter
G1 X145.200 Y135.200 F4800
G92 E0.0000
G1 X164.800 Y135.200 E0.5867 F900
G1 X164.800 Y154.800 E1.1734
G1 X145.200 Y154.800 E1.7601
G1 X145.200 Y135.200 E2.3468
; feature solid layer
G1 X164.042 Y135.940 F4800
G92 E0.0000
G1 X164.060 Y135.958 E0.0008 F1440
G1 X164.060 Y136.524 E0.0177
G1 X163.476 Y135.940 E0.0424
G1 X162.911 Y135.940 E0.0593
G1 X164.060 Y137.089 E0.1080
G1 X164.060 Y137.655 E0.1249
G1 X162.345 Y135.940 E0.1975
G1 X161.779 Y135.940 E0.2145
G1 X164.060 Y138.221 E0.3110
G1 X164.060 Y138.786 E0.3280
G1 X161.214 Y135.940 E0.4485
G1 X160.648 Y135.940 E0.4654
G1 X164.060 Y139.352 E0.6098
G1 X164.060 Y139.918 E0.6268
G1 X160.082 Y135.940 E0.7952
G1 X159.516 Y135.940 E0.8121
G1 X164.060 Y140.484 E1.0044
G1 X164.060 Y141.049 E1.0214
G1 X158.951 Y135.940 E1.2377
G1 X158.385 Y135.940 E1.2546
G1 X164.060 Y141.615 E1.4948
G1 X164.060 Y142.181 E1.5118
G1 X157.819 Y135.940 E1.7760
G1 X157.254 Y135.940 E1.7929
G1 X164.060 Y142.746 E2.0810
G1 X164.060 Y143.312 E2.0980
G1 X156.688 Y135.940 E2.4100
G1 X156.122 Y135.940 E2.4270
G1 X164.060 Y143.878 E2.7630
G1 X164.060 Y144.443 E2.7799
G1 X155.557 Y135.940 E3.1399
G1 X154.991 Y135.940 E3.1568
G1 X164.060 Y145.009 E3.5408
G1 X164.060 Y145.575 E3.5577
G1 X154.425 Y135.940 E3.9656
G1 X153.860 Y135.940 E3.9825
G1 X164.060 Y146.140 E4.4143
G1 X164.060 Y146.706 E4.4312
G1 X153.294 Y135.940 E4.8870
G1 X152.728 Y135.940 E4.9039
G1 X164.060 Y147.272 E5.3836
G1 X164.060 Y147.837 E5.4006
G1 X152.163 Y135.940 E5.9042
G1 X151.597 Y135.940 E5.9212
G1 X164.060 Y148.403 E6.4488
G1 X164.060 Y148.969 E6.4657
G1 X151.031 Y135.940 E7.0173
G1 X150.465 Y135.940 E7.0342
G1 X164.060 Y149.535 E7.6097
G1 X164.060 Y150.100 E7.6266
G1 X149.900 Y135.940 E8.2261
G1 X149.334 Y135.940 E8.2430
G1 X164.060 Y150.666 E8.8664
G1 X164.060 Y151.232 E8.8833
G1 X148.768 Y135.940 E9.5307
G1 X148.203 Y135.940 E9.5476
G1 X164.060 Y151.797 E10.2189
G1 X164.060 Y152.363 E10.2358
G1 X147.637 Y135.940 E10.9311
G1 X147.071 Y135.940 E10.9480
G1 X164.060 Y152.929 E11.6672
G1 X164.060 Y153.494 E11.6841
G1 X146.506 Y135.940 E12.4272
G1 X145.940 Y135.940 E12.4442
G1 X164.060 Y154.060 E13.2113
G1 X163.494 Y154.060 E13.2282
G1 X145.940 Y136.506 E13.9713
G1 X145.940 Y137.071 E13.9883
G1 X162.929 Y154.060 E14.7074
G1 X162.363 Y154.060 E14.7244
G1 X145.940 Y137.637 E15.4196
G1 X145.940 Y138.203 E15.4365
G1 X161.797 Y154.060 E16.1078
G1 X161.232 Y154.060 E16.1248
G1 X145.940 Y138.768 E16.7721
G1 X145.940 Y139.334 E16.7890
G1 X160.666 Y154.060 E17.4124
G1 X160.100 Y154.060 E17.4294
G1 X145.940 Y139.900 E18.0288
G1 X145.940 Y140.465 E18.0458
G1 X159.535 Y154.060 E18.6213
G1 X158.969 Y154.060 E18.6382
G1 X145.940 Y141.031 E19.1897
G1 X145.940 Y141.597 E19.2067
G1 X158.403 Y154.060 E19.7343
G1 X157.837 Y154.060 E19.7512
G1 X145.940 Y142.163 E20.2549
G1 X145.940 Y142.728 E20.2718
G1 X157.272 Y154.060 E20.7515
G1 X156.706 Y154.060 E20.7684
G1 X145.940 Y143.294 E21.2242
G1 X145.940 Y143.860 E21.2411
G1 X156.140 Y154.060 E21.6730
G1 X155.575 Y154.060 E21.6899
G1 X145.940 Y144.425 E22.0978
G1 X145.940 Y144.991 E22.1147
G1 X155.009 Y154.060 E22.4986
G1 X154.443 Y154.060 E22.5156
G1 X145.940 Y145.557 E22.8755
G1 X145.940 Y146.122 E22.8925
G1 X153.878 Y154.060 E23.2285
G1 X153.312 Y154.060 E23.2454
G1 X145.940 Y146.688 E23.5575
G1 X145.940 Y147.254 E23.5744
G1 X152.746 Y154.060 E23.8626
G1 X152.181 Y154.060 E23.8795
G1 X145.940 Y147.819 E24.1437
G1 X145.940 Y148.385 E24.1606
G1 X151.615 Y154.060 E24.4009
G1 X151.049 Y154.060 E24.4178
G1 X145.940 Y148.951 E24.6341
G1 X145.940 Y149.516 E24.6510
G1 X150.484 Y154.060 E24.8434
G1 X149.918 Y154.060 E24.8603
G1 X145.940 Y150.082 E25.0287
G1 X145.940 Y150.648 E25.0456
G1 X149.352 Y154.060 E25.1901
G1 X148.787 Y154.060 E25.2070
G1 X145.940 Y151.213 E25.3275
G1 X145.940 Y151.779 E25.3444
G1 X148.221 Y154.060 E25.4410
G1 X147.655 Y154.060 E25.4579
G1 X145.940 Y152.345 E25.5305
G1 X145.940 Y152.911 E25.5475
G1 X147.089 Y154.060 E25.5961
G1 X146.524 Y154.060 E25.6131
G1 X145.940 Y153.476 E25.6378
G1 X145.940 Y154.042 E25.6547
G1 X145.958 Y154.060 E25.6555
G92 E0.0000
G1 E-1.0000 F1800
; layer 2, Z = 0.400
M106 S255
; feature ooze shield
G1 Z0.400 F1002
G1 X143.923 Y157.600 F4800
G1 E0.0000 F1800
G92 E0.0000
G1 X142.400 Y156.077 E0.0645 F3600
G1 X142.400 Y133.923 E0.7276
G1 X143.923 Y132.400 E0.7921
G1 X166.077 Y132.400 E1.4553
G1 X167.600 Y133.923 E1.5197
G1 X167.600 Y156.077 E2.1829
G1 X166.077 Y157.600 E2.2474
G1 X143.923 Y157.600 E2.9105
G92 E0.0000
G1 E-1.0000 F1800
G1 X144.089 Y157.200 F4800
G1 E0.0000 F1800
G92 E0.0000
G1 X142.800 Y155.911 E0.0546 F3600
G1 X142.800 Y134.089 E0.7078
G1 X144.089 Y132.800 E0.7624
G1 X165.911 Y132.800 E1.4156
G1 X167.200 Y134.089 E1.4701
G1 X167.200 Y155.911 E2.1234
G1 X165.911 Y157.200 E2.1779
G1 X144.089 Y157.200 E2.8312
G92 E0.0000
G1 E-1.0000 F1800
; feature inner perimeter
G1 X145.600 Y154.400 F4800
G1 E0.0000 F1800
G92 E0.0000
G1 X145.600 Y135.600 E0.5628 F2700
G1 X164.400 Y135.600 E1.1255
G1 X164.400 Y154.400 E1.6883
G1 X145.600 Y154.400 E2.2510
; feature outer perimeter
G1 X145.200 Y154.800 F4800
G92 E0.0000
G1 X145.200 Y135.200 E0.5867 F1800
G1 X164.800 Y135.200 E1.1734
G1 X164.800 Y154.800 E1.7601
G1 X145.200 Y154.800 E2.3468
; feature solid layer
G1 X145.940 Y135.958 F4800
G92 E0.0000
G1 X145.958 Y135.940 E0.0008 F2880
G1 X146.524 Y135.940 E0.0177
G1 X145.940 Y136.524 E0.0424
G1 X145.940 Y137.089 E0.0593
G1 X147.089 Y135.940 E0.1080
G1 X147.655 Y135.940 E0.1249
G1 X145.940 Y137.655 E0.1975
G1 X145.940 Y138.221 E0.2145
G1 X148.221 Y135.940 E0.3110
G1 X148.787 Y135.940 E0.3280
G1 X145.940 Y138.787 E0.4485
G1 X145.940 Y139.352 E0.4654
G1 X149.352 Y135.940 E0.6099
G1 X149.918 Y135.940 E0.6268
G1 X145.940 Y139.918 E0.7952
G1 X145.940 Y140.484 E0.8121
G1 X150.484 Y135.940 E1.0045
G1 X151.049 Y135.940 E1.0214
G1 X145.940 Y141.049 E1.2377
G1 X145.940 Y141.615 E1.2546
G1 X151.615 Y135.940 E1.4949
G1 X152.181 Y135.940 E1.5118
G1 X145.940 Y142.181 E1.7760
G1 X145.940 Y142.746 E1.7929
G1 X152.746 Y135.940 E2.0810
G1 X153.312 Y135.940 E2.0980
G1 X145.940 Y143.312 E2.4101
G1 X145.940 Y143.878 E2.4270
G1 X153.878 Y135.940 E2.7630
G1 X154.443 Y135.940 E2.7800
G1 X145.940 Y144.443 E3.1399
G1 X145.940 Y145.009 E3.1569
G1 X155.009 Y135.940 E3.5408
G1 X155.575 Y135.940 E3.5577
G1 X145.940 Y145.575 E3.9656
G1 X145.940 Y146.140 E3.9825
G1 X156.140 Y135.940 E4.4143
G1 X156.706 Y135.940 E4.4313
G1 X145.940 Y146.706 E4.8870
G1 X145.940 Y147.272 E4.9040
G1 X157.272 Y135.940 E5.3837
G1 X157.837 Y135.940 E5.4006
G1 X145.940 Y147.837 E5.9043
G1 X145.940 Y148.403 E5.9212
G1 X158.403 Y135.940 E6.4488
G1 X158.969 Y135.940 E6.4658
G1 X145.940 Y148.969 E7.0173
G1 X145.940 Y149.535 E7.0342
G1 X159.535 Y135.940 E7.6097
G1 X160.100 Y135.940 E7.6267
G1 X145.940 Y150.100 E8.2261
G1 X145.940 Y150.666 E8.2431
G1 X160.666 Y135.940 E8.8665
G1 X161.232 Y135.940 E8.8834
G1 X145.940 Y151.232 E9.5307
G1 X145.940 Y151.797 E9.5477
G1 X161.797 Y135.940 E10.2190
G1 X162.363 Y135.940 E10.2359
G1 X145.940 Y152.363 E10.9311
G1 X145.940 Y152.929 E10.9481
G1 X162.929 Y135.940 E11.6672
G1 X163.494 Y135.940 E11.6842
G1 X145.940 Y153.494 E12.4273
G1 X145.940 Y154.060 E12.4442
G1 X164.060 Y135.940 E13.2113
G1 X164.060 Y136.506 E13.2283
G1 X146.506 Y154.060 E13.9714
G1 X147.071 Y154.060 E13.9883
G1 X164.060 Y137.071 E14.7075
G1 X164.060 Y137.637 E14.7244
G1 X147.637 Y154.060 E15.4197
G1 X148.203 Y154.060 E15.4366
G1 X164.060 Y138.203 E16.1079
G1 X164.060 Y138.768 E16.1248
G1 X148.768 Y154.060 E16.7722
G1 X149.334 Y154.060 E16.7891
G1 X164.060 Y139.334 E17.4125
G1 X164.060 Y139.900 E17.4294
G1 X149.900 Y154.060 E18.0289
G1 X150.466 Y154.060 E18.0458
G1 X164.060 Y140.466 E18.6213
G1 X164.060 Y141.031 E18.6382
G1 X151.031 Y154.060 E19.1898
G1 X151.597 Y154.060 E19.2067
