; G-Code generated by Simplify3D(R) Version 4.1.2
; Apr 8, 2021 at 3:28:07 PM
; Settings Summary
;   processName,Process1
;   applyToModels,Catan_Border_Straight_Magnetic_fixed(2),Catan_Border_Magnetic_fixed(3)
;   profileName,BLV mgn Cube-  Simplify3D Profile (modified)
;   profileVersion,2021-04-02 01:52:57
;   baseProfile,Anet A8
;   printMaterial,PLA
;   printQuality,Medium
;   printExtruders,
;   extruderName,Primary Extruder
;   extruderToolheadNumber,0
;   extruderDiameter,0.4
;   extruderAutoWidth,1
;   extruderWidth,0.48
;   extrusionMultiplier,1
;   extruderUseRetract,1
;   extruderRetractionDistance,1.5
;   extruderExtraRestartDistance,0
;   extruderRetractionZLift,0
;   extruderRetractionSpeed,5100
;   extruderUseCoasting,1
;   extruderCoastingDistance,0.2
;   extruderUseWipe,1
;   extruderWipeDistance,4
;   primaryExtruder,0
;   layerHeight,0.2
;   topSolidLayers,3
;   bottomSolidLayers,2
;   perimeterOutlines,2
;   printPerimetersInsideOut,0
;   startPointOption,3
;   startPointOriginX,0
;   startPointOriginY,500
;   sequentialIslands,0
;   spiralVaseMode,0
;   firstLayerHeightPercentage,150
;   firstLayerWidthPercentage,100
;   firstLayerUnderspeed,0.4
;   useRaft,0
;   raftExtruder,0
;   raftTopLayers,3
;   raftBaseLayers,2
;   raftOffset,3
;   raftSeparationDistance,0.14
;   raftTopInfill,100
;   aboveRaftSpeedMultiplier,0.3
;   useSkirt,1
;   skirtExtruder,0
;   skirtLayers,1
;   skirtOutlines,2
;   skirtOffset,6
;   usePrimePillar,0
;   primePillarExtruder,999
;   primePillarWidth,12
;   primePillarLocation,7
;   primePillarSpeedMultiplier,1
;   useOozeShield,0
;   oozeShieldExtruder,999
;   oozeShieldOffset,2
;   oozeShieldOutlines,1
;   oozeShieldSidewallShape,1
;   oozeShieldSidewallAngle,30
;   oozeShieldSpeedMultiplier,1
;   infillExtruder,0
;   internalInfillPattern,Rectilinear
;   externalInfillPattern,Rectilinear
;   infillPercentage,15
;   outlineOverlapPercentage,15
;   infillExtrusionWidthPercentage,100
;   minInfillLength,5
;   infillLayerInterval,1
;   internalInfillAngles,45,-45
;   overlapInternalInfillAngles,0
;   externalInfillAngles,45,-45
;   generateSupport,1
;   supportExtruder,0
;   supportInfillPercentage,30
;   supportExtraInflation,0
;   supportBaseLayers,0
;   denseSupportExtruder,0
;   denseSupportLayers,0
;   denseSupportInfillPercentage,70
;   supportLayerInterval,1
;   supportHorizontalPartOffset,0.4
;   supportUpperSeparationLayers,1
;   supportLowerSeparationLayers,1
;   supportType,0
;   supportGridSpacing,1
;   maxOverhangAngle,45
;   supportAngles,45,-45
;   temperatureName,Primary Extruder,Heated Bed
;   temperatureNumber,0,0
;   temperatureSetpointCount,2,1
;   temperatureSetpointLayers,1,2,1
;   temperatureSetpointTemperatures,215,210,60
;   temperatureStabilizeAtStartup,1,1
;   temperatureHeatedBed,0,1
;   fanLayers,1,2
;   fanSpeeds,0,100
;   blipFanToFullPower,1
;   adjustSpeedForCooling,1
;   minSpeedLayerTime,15
;   minCoolingSpeedSlowdown,20
;   increaseFanForCooling,0
;   minFanLayerTime,45
;   maxCoolingFanSpeed,100
;   increaseFanForBridging,1
;   bridgingFanSpeed,100
;   use5D,1
;   relativeEdistances,0
;   allowEaxisZeroing,1
;   independentExtruderAxes,0
;   includeM10123,0
;   stickySupport,1
;   applyToolheadOffsets,0
;   gcodeXoffset,24
;   gcodeYoffset,22
;   gcodeZoffset,0
;   overrideMachineDefinition,1
;   machineTypeOverride,0
;   strokeXoverride,310
;   strokeYoverride,310
;   strokeZoverride,334
;   originOffsetXoverride,0
;   originOffsetYoverride,0
;   originOffsetZoverride,0
;   homeXdirOverride,-1
;   homeYdirOverride,-1
;   homeZdirOverride,-1
;   flipXoverride,1
;   flipYoverride,-1
;   flipZoverride,1
;   toolheadOffsets,0,0|0,0|0,0|0,0|0,0|0,0
;   overrideFirmwareConfiguration,1
;   firmwareTypeOverride,RepRap (Marlin/Repetier/Sprinter)
;   GPXconfigOverride,r2
;   baudRateOverride,115200
;   overridePrinterModels,1
;   printerModelsOverride,Blvfull.stl
;   startingGcode,M291 P"Homing all axis" R"Printing.." S1 T2,G21		; metric values,G28		; home all,M98 P"/macros/load_meshbed"	; load mesh bed corresponding to the temp,M98 P"/macros/set_baby_step"	; set baby step,M98 P"/macros/purge_and_prime"; purge and do the prime line,,G92 E0 F100		; reset extruder,G1 Z10 F3000 		; move z up little to prevent scratching of surface,G92 E0 		; reset extruder,M291 P"Printing started !" R"Printing.." S1 T3
;   layerChangeGcode,
;   retractionGcode,
;   toolChangeGcode,
;   endingGcode,M104 S0 ; turn off extruder,M140 S0 ; turn off bed,M98 P"/macros/remove_baby_step"	; unset baby step,M98 P"/macros/rise30mm",G1 X0 Y300 F1000 ; prepare for part removal,M84 ; disable motors,M106 S0 ;turn off part cooling fan,;M81 ; shutdown,; play song,M300 S294 P200 ;D4: 294,M300 S588 P200 ;D5: 588,M300 S440 P200 ;A4: 440,M300 S392 P200 ;G4: 392,M300 S784 P200 ;G5: 784,M300 S440 P200 ;A4: 440,M300 S740 P200 ;F#5: 740,M300 S440 P200 ;A4: 440,M291 P"Printing finished !" R"Printing.." S1 T0,
;   exportFileFormat,gcode
;   celebration,0
;   celebrationSong,Star Wars
;   postProcessing,
;   defaultSpeed,6000
;   outlineUnderspeed,0.66
;   solidInfillUnderspeed,0.8
;   supportUnderspeed,0.8
;   rapidXYspeed,7200
;   rapidZspeed,1002
;   minBridgingArea,50
;   bridgingExtraInflation,0
;   bridgingExtrusionMultiplier,1
;   bridgingSpeedMultiplier,1
;   useFixedBridgingAngle,0
;   fixedBridgingAngle,0
;   applyBridgingToPerimeters,1
;   filamentDiameters,1.75|1.75|1.75|1.75|1.75|1.75
;   filamentPricesPerKg,30|110|110|110|110|110
;   filamentDensities,1.25|1.25|1.25|1.25|1.25|1.25
;   useMinPrintHeight,0
;   minPrintHeight,0
;   useMaxPrintHeight,0
;   maxPrintHeight,0
;   useDiaphragm,0
;   diaphragmLayerInterval,20
;   robustSlicing,1
;   mergeAllIntoSolid,0
;   onlyRetractWhenCrossingOutline,0
;   retractBetweenLayers,1
;   useRetractionMinTravel,1
;   retractionMinTravel,3
;   retractWhileWiping,1
;   onlyWipeOutlines,1
;   avoidCrossingOutline,1
;   maxMovementDetourFactor,3
;   toolChangeRetractionDistance,12
;   toolChangeExtraRestartDistance,-0.5
;   toolChangeRetractionSpeed,600
;   externalThinWallType,1
;   internalThinWallType,2
;   thinWallAllowedOverlapPercentage,15
;   singleExtrusionMinLength,1
;   singleExtrusionMinPrintingWidthPercentage,50
;   singleExtrusionMaxPrintingWidthPercentage,200
;   singleExtrusionEndpointExtension,0.2
;   horizontalSizeCompensation,0
G90
M82
M106 S0
M140 S60
M190 S60
M104 S215 T0
M109 S215 T0
M291 P"Homing all axis" R"Printing.." S1 T2
G21		; metric values
G28		; home all
M98 P"/macros/load_meshbed"	; load mesh bed corresponding to the temp
M98 P"/macros/set_baby_step"	; set baby step
M98 P"/macros/purge_and_prime"; purge and do the prime line
G92 E0 F100		; reset extruder
G1 Z10 F3000 		; move z up little to prevent scratching of surface
G92 E0 		; reset extruder
M291 P"Printing started !" R"Printing.." S1 T3
; process Process1
; layer 1, Z = 0.300
T0
G92 E0.0000
G1 E-1.5000 F5100
; feature skirt
; tool H0.300 W0.480
G1 Z0.300 F1002
G1 X195.429 Y183.909 F7200
G1 E0.0000 F5100
G92 E0.0000
G1 X194.033 Y183.077 E0.0973 F2400
G1 X192.873 Y181.935 E0.1948
G1 X192.143 Y180.870 E0.2721
G1 X191.629 Y179.685 E0.3494
G1 X191.373 Y178.745 E0.4077
G1 X191.240 Y177.644 E0.4741
G1 X191.216 Y177.210 E0.5002
G1 X191.223 Y176.467 E0.5446
G1 X191.233 Y176.233 E0.5587
G1 X194.415 Y135.954 E2.9776
G1 X162.751 Y114.180 E5.2782
G1 X135.192 Y127.316 E7.1059
G1 X132.004 Y130.505 E7.3759
G1 X128.502 Y130.505 E7.5855
G1 X126.277 Y131.566 E7.7331
G1 X126.062 Y131.659 E7.7471
G1 X125.371 Y131.931 E7.7916
G1 X124.958 Y132.064 E7.8176
G1 X123.823 Y132.348 E7.8876
G1 X122.731 Y132.439 E7.9532
G1 X121.314 Y132.326 E8.0383
G1 X120.010 Y131.951 E8.1195
G1 X118.773 Y131.304 E8.2031
G1 X117.846 Y130.591 E8.2731
G1 X116.998 Y129.665 E8.3483
G1 X116.407 Y128.767 E8.4126
G1 X115.901 Y127.642 E8.4865
G1 X115.616 Y126.546 E8.5543
G1 X115.531 Y125.574 E8.6127
G1 X115.529 Y125.019 E8.6460
G1 X116.476 Y113.015 E9.3669
G1 X115.761 Y112.682 E9.4141
G1 X114.849 Y112.058 E9.4803
G1 X113.887 Y111.137 E9.5600
G1 X113.176 Y110.158 E9.6324
G1 X112.587 Y108.933 E9.7138
G1 X112.271 Y107.814 E9.7834
G1 X112.162 Y106.755 E9.8471
G1 X112.155 Y106.142 E9.8839
G1 X112.796 Y98.103 E10.3667
G1 X113.174 Y96.796 E10.4481
G1 X113.918 Y95.379 E10.5439
G1 X114.771 Y94.332 E10.6248
G1 X115.944 Y93.371 E10.7156
G1 X117.151 Y92.735 E10.7972
G1 X118.102 Y92.460 E10.8565
G1 X119.090 Y79.938 E11.6085
G1 X119.164 Y79.454 E11.6378
G1 X119.370 Y78.552 E11.6932
G1 X119.791 Y77.525 E11.7596
G1 X120.484 Y76.405 E11.8385
G1 X121.348 Y75.466 E11.9149
G1 X122.544 Y74.579 E12.0040
G1 X123.755 Y74.010 E12.0841
G1 X125.055 Y73.690 E12.1642
G1 X126.128 Y73.603 E12.2287
G1 X202.841 Y79.654 E16.8356
G1 X203.108 Y79.686 E16.8518
G1 X204.238 Y79.867 E16.9203
G1 X204.717 Y79.980 E16.9497
G1 X205.875 Y80.345 E17.0224
G1 X206.323 Y80.522 E17.0513
G1 X207.432 Y81.055 E17.1249
G1 X207.879 Y81.314 E17.1559
G1 X208.925 Y82.033 E17.2319
G1 X209.311 Y82.343 E17.2615
G1 X210.218 Y83.186 E17.3357
G1 X210.563 Y83.560 E17.3661
G1 X211.346 Y84.547 E17.4415
G1 X211.627 Y84.961 E17.4715
G1 X212.189 Y85.940 E17.5391
G1 X212.309 Y86.168 E17.5545
G1 X245.329 Y155.445 E22.1490
G1 X245.586 Y156.207 E22.1971
G1 X245.865 Y157.542 E22.2788
G1 X245.828 Y159.091 E22.3715
G1 X245.388 Y160.791 E22.4767
G1 X244.634 Y162.205 E22.5726
G1 X243.527 Y163.447 E22.6722
G1 X242.454 Y164.253 E22.7526
G1 X223.822 Y173.139 E23.9884
G1 X223.042 Y173.400 E24.0376
G1 X221.740 Y173.665 E24.1172
G1 X221.094 Y173.665 E24.1559
G1 X220.163 Y174.633 E24.2362
G1 X219.180 Y175.342 E24.3088
G1 X201.070 Y183.985 E25.5102
G1 X200.279 Y184.248 E25.5601
G1 X198.861 Y184.531 E25.6467
G1 X197.195 Y184.449 E25.7466
G1 X195.429 Y183.909 E25.8571
G1 X195.625 Y183.467 F7200
G92 E0.0000
G1 X194.328 Y182.695 E0.0904 F2400
G1 X193.243 Y181.625 E0.1816
G1 X192.565 Y180.637 E0.2533
G1 X192.083 Y179.526 E0.3258
G1 X191.846 Y178.653 E0.3800
G1 X191.719 Y177.601 E0.4434
G1 X191.696 Y177.199 E0.4676
G1 X191.703 Y176.480 E0.5106
G1 X191.712 Y176.262 E0.5236
G1 X194.915 Y135.716 E2.9586
G1 X162.794 Y113.628 E5.2925
G1 X134.911 Y126.918 E7.1417
G1 X131.805 Y130.025 E7.4047
G1 X128.394 Y130.025 E7.6089
G1 X126.078 Y131.129 E7.7625
G1 X125.878 Y131.215 E7.7755
G1 X125.210 Y131.479 E7.8186
G1 X124.826 Y131.602 E7.8427
G1 X123.744 Y131.873 E7.9095
G1 X122.730 Y131.958 E7.9704
G1 X121.400 Y131.852 E8.0503
G1 X120.190 Y131.503 E8.1257
G1 X119.033 Y130.898 E8.2038
G1 X118.172 Y130.236 E8.2689
G1 X117.378 Y129.369 E8.3392
G1 X116.829 Y128.536 E8.3990
G1 X116.355 Y127.482 E8.4681
G1 X116.090 Y126.464 E8.5311
G1 X116.011 Y125.552 E8.5859
G1 X116.009 Y125.037 E8.6168
G1 X116.981 Y112.720 E9.3564
G1 X115.999 Y112.263 E9.4212
G1 X115.152 Y111.684 E9.4827
G1 X114.250 Y110.820 E9.5575
G1 X113.590 Y109.911 E9.6247
G1 X113.038 Y108.762 E9.7010
G1 X112.744 Y107.723 E9.7657
G1 X112.641 Y106.728 E9.8256
G1 X112.635 Y106.158 E9.8597
G1 X113.271 Y98.189 E10.3383
G1 X113.622 Y96.976 E10.4139
G1 X114.320 Y95.645 E10.5039
G1 X115.113 Y94.672 E10.5790
G1 X116.210 Y93.773 E10.6640
G1 X117.331 Y93.183 E10.7398
G1 X118.554 Y92.828 E10.8160
G1 X119.567 Y79.994 E11.5868
G1 X119.636 Y79.544 E11.6141
G1 X119.829 Y78.697 E11.6660
G1 X120.220 Y77.744 E11.7277
G1 X120.868 Y76.697 E11.8015
G1 X121.670 Y75.824 E11.8724
G1 X122.792 Y74.993 E11.9560
G1 X123.916 Y74.464 E12.0304
G1 X125.132 Y74.165 E12.1053
G1 X126.129 Y74.084 E12.1652
G1 X202.793 Y80.132 E16.7692
G1 X203.041 Y80.161 E16.7842
G1 X204.145 Y80.338 E16.8511
G1 X204.589 Y80.443 E16.8784
G1 X205.715 Y80.797 E16.9491
G1 X206.131 Y80.962 E16.9758
G1 X207.207 Y81.480 E17.0474
G1 X207.623 Y81.720 E17.0761
G1 X208.639 Y82.419 E17.1499
G1 X208.997 Y82.706 E17.1774
G1 X209.878 Y83.525 E17.2495
G1 X210.198 Y83.872 E17.2777
G1 X210.959 Y84.831 E17.3510
G1 X211.220 Y85.216 E17.3788
G1 X211.768 Y86.171 E17.4448
G1 X211.879 Y86.383 E17.4591
G1 X244.883 Y155.626 E22.0513
G1 X245.122 Y156.333 E22.0960
G1 X245.383 Y157.586 E22.1727
G1 X245.350 Y159.024 E22.2588
G1 X244.938 Y160.616 E22.3572
G1 X244.237 Y161.928 E22.4463
G1 X243.200 Y163.092 E22.5396
G1 X242.204 Y163.840 E22.6142
G1 X223.642 Y172.693 E23.8454
G1 X222.918 Y172.936 E23.8911
G1 X221.691 Y173.185 E23.9660
G1 X220.863 Y173.185 E24.0156
G1 X220.817 Y173.260 E24.0209
G1 X219.847 Y174.269 E24.1046
G1 X218.935 Y174.927 E24.1720
G1 X200.890 Y183.539 E25.3690
G1 X200.155 Y183.783 E25.4154
G1 X198.825 Y184.049 E25.4966
G1 X197.278 Y183.972 E25.5893
G1 X195.625 Y183.467 E25.6928
G92 E0.0000
G1 E-1.5000 F5100
G1 X158.132 Y183.130 F7200
G1 X179.946 Y220.913
G1 X158.149 Y272.970
G1 X158.211 Y273.282
G1 X158.264 Y273.374
G1 X158.289 Y273.393
G1 X155.323 Y279.719
G1 E0.0000 F5100
G92 E0.0000
G1 X153.874 Y278.850 E0.1011 F2400
G1 X152.656 Y277.599 E0.2057
G1 X151.869 Y276.204 E0.3016
G1 X151.498 Y275.205 E0.3654
G1 X151.273 Y274.080 E0.4341
G1 X151.217 Y273.669 E0.4589
G1 X151.163 Y272.933 E0.5031
G1 X151.154 Y272.685 E0.5180
G1 X151.154 Y232.274 E2.9373
G1 X116.174 Y212.075 E5.3555
G1 X115.994 Y211.964 E5.3682
G1 X115.338 Y211.528 E5.4153
G1 X114.910 Y211.190 E5.4480
G1 X113.901 Y210.252 E5.5305
G1 X113.148 Y209.225 E5.6068
G1 X112.552 Y207.972 E5.6898
G1 X112.235 Y206.784 E5.7634
G1 X112.122 Y205.352 E5.8494
G1 X112.281 Y204.027 E5.9293
G1 X112.756 Y202.580 E6.0204
G1 X113.433 Y201.397 E6.1021
G1 X114.333 Y200.374 E6.1836
G1 X115.180 Y199.680 E6.2492
G1 X125.885 Y193.494 E6.9894
G1 X125.794 Y193.159 E7.0102
G1 X125.735 Y191.622 E7.1023
G1 X126.020 Y190.141 E7.1926
G1 X126.411 Y189.090 E7.2597
G1 X127.065 Y187.954 E7.3382
G1 X127.812 Y187.059 E7.4080
G1 X128.616 Y186.379 E7.4710
G1 X129.108 Y186.033 E7.5070
G1 X135.786 Y182.177 E7.9687
G1 X136.535 Y181.859 E8.0174
G1 X137.699 Y181.522 E8.0900
G1 X138.827 Y181.393 E8.1580
G1 X140.155 Y181.467 E8.2375
G1 X141.421 Y181.790 E8.3158
G1 X142.945 Y182.513 E8.4167
G1 X143.764 Y183.165 E8.4794
G1 X154.885 Y176.751 E9.2480
G1 X155.883 Y176.370 E9.3120
G1 X157.530 Y176.026 E9.4127
G1 X159.334 Y176.137 E9.5209
G1 X161.132 Y176.750 E9.6346
G1 X162.496 Y177.622 E9.7316
G1 X163.463 Y178.634 E9.8154
G1 X163.945 Y179.277 E9.8635
G1 X203.472 Y247.741 E14.5964
G1 X203.815 Y248.579 E14.6506
G1 X204.208 Y250.091 E14.7441
G1 X204.186 Y251.896 E14.8522
G1 X203.632 Y253.825 E14.9723
G1 X202.727 Y255.334 E15.0777
G1 X201.662 Y256.368 E15.1665
G1 X200.999 Y256.869 E15.2163
G1 X183.477 Y266.984 E16.4276
G1 X182.905 Y267.246 E16.4652
G1 X181.888 Y267.602 E16.5297
G1 X180.732 Y267.791 E16.5999
G1 X180.679 Y267.790 E16.6030
G1 X180.602 Y267.912 E16.6117
G1 X180.141 Y268.493 E16.6560
G1 X179.502 Y269.136 E16.7103
G1 X178.795 Y269.681 E16.7638
G1 X161.524 Y279.656 E17.9578
G1 X160.657 Y280.007 E18.0138
G1 X159.302 Y280.347 E18.0974
G1 X157.889 Y280.398 E18.1821
G1 X156.482 Y280.151 E18.2676
G1 X155.323 Y279.719 E18.3416
G1 X155.532 Y279.285 F7200
G92 E0.0000
G1 X154.175 Y278.471 E0.0948 F2400
G1 X153.043 Y277.309 E0.1918
G1 X152.306 Y276.002 E0.2817
G1 X151.961 Y275.074 E0.3410
G1 X151.747 Y274.000 E0.4065
G1 X151.695 Y273.619 E0.4296
G1 X151.642 Y272.906 E0.4724
G1 X151.634 Y272.676 E0.4861
G1 X151.634 Y231.997 E2.9215
G1 X116.420 Y211.663 E5.3559
G1 X116.253 Y211.560 E5.3677
G1 X115.620 Y211.139 E5.4132
G1 X115.222 Y210.825 E5.4435
G1 X114.261 Y209.932 E5.5221
G1 X113.562 Y208.977 E5.5929
G1 X113.005 Y207.805 E5.6706
G1 X112.710 Y206.702 E5.7390
G1 X112.604 Y205.362 E5.8194
G1 X112.752 Y204.131 E5.8937
G1 X113.197 Y202.776 E5.9790
G1 X113.825 Y201.677 E6.0548
G1 X114.667 Y200.720 E6.1311
G1 X115.454 Y200.076 E6.1920
G1 X126.445 Y193.724 E6.9520
G1 X126.271 Y193.086 E6.9917
