; G-Code generated by Simplify3D(R) Version 4.1.2
; Apr 8, 2021 at 11:52:44 PM
; Settings Summary
;   processName,Process1
;   applyToModels,Catan_Border_Straight_Magnetic_fixed,Catan_Border_Straight_Magnetic_fixed(2),Catan_Border_Straight_Magnetic_fixed(3),Catan_Border_Straight_Magnetic_fixed(4)
;   profileName,BLV mgn Cube-  Simplify3D Profile (modified)
;   profileVersion,2021-04-02 01:52:57
;   baseProfile,Anet A8
;   printMaterial,PLA
;   printQuality,Medium
;   printExtruders,
;   extruderName,Primary Extruder
;   extruderToolheadNumber,0
;   extruderDiameter,0.4
;   extruderAutoWidth,1
;   extruderWidth,0.48
;   extrusionMultiplier,1
;   extruderUseRetract,1
;   extruderRetractionDistance,1.5
;   extruderExtraRestartDistance,0
;   extruderRetractionZLift,0
;   extruderRetractionSpeed,5100
;   extruderUseCoasting,1
;   extruderCoastingDistance,0.2
;   extruderUseWipe,1
;   extruderWipeDistance,4
;   primaryExtruder,0
;   layerHeight,0.2
;   topSolidLayers,3
;   bottomSolidLayers,2
;   perimeterOutlines,2
;   printPerimetersInsideOut,0
;   startPointOption,3
;   startPointOriginX,0
;   startPointOriginY,500
;   sequentialIslands,0
;   spiralVaseMode,0
;   firstLayerHeightPercentage,150
;   firstLayerWidthPercentage,100
;   firstLayerUnderspeed,0.4
;   useRaft,0
;   raftExtruder,0
;   raftTopLayers,3
;   raftBaseLayers,2
;   raftOffset,3
;   raftSeparationDistance,0.14
;   raftTopInfill,100
;   aboveRaftSpeedMultiplier,0.3
;   useSkirt,1
;   skirtExtruder,0
;   skirtLayers,1
;   skirtOutlines,2
;   skirtOffset,6
;   usePrimePillar,0
;   primePillarExtruder,999
;   primePillarWidth,12
;   primePillarLocation,7
;   primePillarSpeedMultiplier,1
;   useOozeShield,0
;   oozeShieldExtruder,999
;   oozeShieldOffset,2
;   oozeShieldOutlines,1
;   oozeShieldSidewallShape,1
;   oozeShieldSidewallAngle,30
;   oozeShieldSpeedMultiplier,1
;   infillExtruder,0
;   internalInfillPattern,Rectilinear
;   externalInfillPattern,Rectilinear
;   infillPercentage,15
;   outlineOverlapPercentage,15
;   infillExtrusionWidthPercentage,100
;   minInfillLength,5
;   infillLayerInterval,1
;   internalInfillAngles,45,-45
;   overlapInternalInfillAngles,0
;   externalInfillAngles,45,-45
;   generateSupport,1
;   supportExtruder,0
;   supportInfillPercentage,30
;   supportExtraInflation,0
;   supportBaseLayers,0
;   denseSupportExtruder,0
;   denseSupportLayers,0
;   denseSupportInfillPercentage,70
;   supportLayerInterval,1
;   supportHorizontalPartOffset,0.4
;   supportUpperSeparationLayers,1
;   supportLowerSeparationLayers,1
;   supportType,0
;   supportGridSpacing,1
;   maxOverhangAngle,45
;   supportAngles,45,-45
;   temperatureName,Primary Extruder,Heated Bed
;   temperatureNumber,0,0
;   temperatureSetpointCount,2,1
;   temperatureSetpointLayers,1,2,1
;   temperatureSetpointTemperatures,215,210,60
;   temperatureStabilizeAtStartup,1,1
;   temperatureHeatedBed,0,1
;   fanLayers,1,2
;   fanSpeeds,0,100
;   blipFanToFullPower,1
;   adjustSpeedForCooling,1
;   minSpeedLayerTime,15
;   minCoolingSpeedSlowdown,20
;   increaseFanForCooling,0
;   minFanLayerTime,45
;   maxCoolingFanSpeed,100
;   increaseFanForBridging,1
;   bridgingFanSpeed,100
;   use5D,1
;   relativeEdistances,0
;   allowEaxisZeroing,1
;   independentExtruderAxes,0
;   includeM10123,0
;   stickySupport,1
;   applyToolheadOffsets,0
;   gcodeXoffset,24
;   gcodeYoffset,22
;   gcodeZoffset,0
;   overrideMachineDefinition,1
;   machineTypeOverride,0
;   strokeXoverride,310
;   strokeYoverride,310
;   strokeZoverride,334
;   originOffsetXoverride,0
;   originOffsetYoverride,0
;   originOffsetZoverride,0
;   homeXdirOverride,-1
;   homeYdirOverride,-1
;   homeZdirOverride,-1
;   flipXoverride,1
;   flipYoverride,-1
;   flipZoverride,1
;   toolheadOffsets,0,0|0,0|0,0|0,0|0,0|0,0
;   overrideFirmwareConfiguration,1
;   firmwareTypeOverride,RepRap (Marlin/Repetier/Sprinter)
;   GPXconfigOverride,r2
;   baudRateOverride,115200
;   overridePrinterModels,1
;   printerModelsOverride,Blvfull.stl
;   startingGcode,M291 P"Homing all axis" R"Printing.." S1 T2,G21		; metric values,G28		; home all,M98 P"/macros/load_meshbed"	; load mesh bed corresponding to the temp,M98 P"/macros/set_baby_step"	; set baby step,M98 P"/macros/purge_and_prime"; purge and do the prime line,,G92 E0 F100		; reset extruder,G1 Z10 F3000 		; move z up little to prevent scratching of surface,G92 E0 		; reset extruder,M291 P"Printing started !" R"Printing.." S1 T3
;   layerChangeGcode,
;   retractionGcode,
;   toolChangeGcode,
;   endingGcode,M104 S0 ; turn off extruder,M140 S0 ; turn off bed,M98 P"/macros/remove_baby_step"	; unset baby step,M98 P"/macros/rise30mm",G1 X0 Y300 F1000 ; prepare for part removal,M84 ; disable motors,M106 S0 ;turn off part cooling fan,;M81 ; shutdown,; play song,M300 S294 P200 ;D4: 294,M300 S588 P200 ;D5: 588,M300 S440 P200 ;A4: 440,M300 S392 P200 ;G4: 392,M300 S784 P200 ;G5: 784,M300 S440 P200 ;A4: 440,M300 S740 P200 ;F#5: 740,M300 S440 P200 ;A4: 440,M291 P"Printing finished !" R"Printing.." S1 T0,
;   exportFileFormat,gcode
;   celebration,0
;   celebrationSong,Star Wars
;   postProcessing,
;   defaultSpeed,6000
;   outlineUnderspeed,0.66
;   solidInfillUnderspeed,0.8
;   supportUnderspeed,0.8
;   rapidXYspeed,7200
;   rapidZspeed,1002
;   minBridgingArea,50
;   bridgingExtraInflation,0
;   bridgingExtrusionMultiplier,1
;   bridgingSpeedMultiplier,1
;   useFixedBridgingAngle,0
;   fixedBridgingAngle,0
;   applyBridgingToPerimeters,1
;   filamentDiameters,1.75|1.75|1.75|1.75|1.75|1.75
;   filamentPricesPerKg,30|110|110|110|110|110
;   filamentDensities,1.25|1.25|1.25|1.25|1.25|1.25
;   useMinPrintHeight,0
;   minPrintHeight,0
;   useMaxPrintHeight,0
;   maxPrintHeight,0
;   useDiaphragm,0
;   diaphragmLayerInterval,20
;   robustSlicing,1
;   mergeAllIntoSolid,0
;   onlyRetractWhenCrossingOutline,0
;   retractBetweenLayers,1
;   useRetractionMinTravel,1
;   retractionMinTravel,3
;   retractWhileWiping,1
;   onlyWipeOutlines,1
;   avoidCrossingOutline,1
;   maxMovementDetourFactor,3
;   toolChangeRetractionDistance,12
;   toolChangeExtraRestartDistance,-0.5
;   toolChangeRetractionSpeed,600
;   externalThinWallType,1
;   internalThinWallType,2
;   thinWallAllowedOverlapPercentage,15
;   singleExtrusionMinLength,1
;   singleExtrusionMinPrintingWidthPercentage,50
;   singleExtrusionMaxPrintingWidthPercentage,200
;   singleExtrusionEndpointExtension,0.2
;   horizontalSizeCompensation,0
G90
M82
M106 S0
M140 S60
M190 S60
M104 S215 T0
M109 S215 T0
M291 P"Homing all axis" R"Printing.." S1 T2
G21		; metric values
G28		; home all
M98 P"/macros/load_meshbed"	; load mesh bed corresponding to the temp
M98 P"/macros/set_baby_step"	; set baby step
M98 P"/macros/purge_and_prime"; purge and do the prime line
G92 E0 F100		; reset extruder
G1 Z10 F3000 		; move z up little to prevent scratching of surface
G92 E0 		; reset extruder
M291 P"Printing started !" R"Printing.." S1 T3
; process Process1
; layer 1, Z = 0.300
T0
G92 E0.0000
G1 E-1.5000 F5100
; feature skirt
; tool H0.300 W0.480
G1 Z0.300 F1002
G1 X134.345 Y276.433 F7200
G1 E0.0000 F5100
G92 E0.0000
G1 X132.896 Y275.563 E0.1012 F2400
G1 X131.678 Y274.312 E0.2057
G1 X130.891 Y272.918 E0.3016
G1 X130.520 Y271.919 E0.3654
G1 X130.296 Y270.793 E0.4341
G1 X130.240 Y270.382 E0.4589
G1 X130.185 Y269.646 E0.5031
G1 X130.176 Y269.398 E0.5180
G1 X130.176 Y228.987 E2.9373
G1 X95.196 Y208.789 E5.3555
G1 X95.016 Y208.677 E5.3682
G1 X94.361 Y208.241 E5.4153
G1 X93.932 Y207.903 E5.4480
G1 X92.924 Y206.966 E5.5304
G1 X92.171 Y205.939 E5.6067
G1 X91.575 Y204.686 E5.6897
G1 X91.257 Y203.496 E5.7635
G1 X91.144 Y202.064 E5.8494
G1 X91.303 Y200.741 E5.9293
G1 X91.778 Y199.294 E6.0204
G1 X92.455 Y198.110 E6.1021
G1 X93.355 Y197.087 E6.1836
G1 X94.202 Y196.393 E6.2492
G1 X104.907 Y190.207 E6.9894
G1 X104.816 Y189.872 E7.0102
G1 X104.758 Y188.336 E7.1023
G1 X105.042 Y186.854 E7.1926
G1 X105.433 Y185.804 E7.2597
G1 X106.088 Y184.667 E7.3382
G1 X106.834 Y183.773 E7.4079
G1 X107.638 Y183.092 E7.4710
G1 X108.130 Y182.747 E7.5070
G1 X114.808 Y178.891 E7.9687
G1 X115.557 Y178.572 E8.0174
G1 X116.721 Y178.235 E8.0899
G1 X117.850 Y178.107 E8.1579
G1 X119.177 Y178.181 E8.2375
G1 X120.443 Y178.503 E8.3157
G1 X121.967 Y179.226 E8.4167
G1 X122.787 Y179.878 E8.4794
G1 X130.407 Y175.483 E9.0061
G1 X130.296 Y174.923 E9.0403
G1 X130.240 Y174.512 E9.0651
G1 X130.185 Y173.776 E9.1093
G1 X130.176 Y173.528 E9.1242
G1 X130.176 Y133.117 E11.5435
G1 X95.196 Y112.919 E13.9617
G1 X95.016 Y112.807 E13.9744
G1 X94.361 Y112.371 E14.0215
G1 X93.932 Y112.033 E14.0542
G1 X92.924 Y111.096 E14.1366
G1 X92.171 Y110.069 E14.2129
G1 X91.575 Y108.816 E14.2959
G1 X91.257 Y107.627 E14.3696
G1 X91.144 Y106.195 E14.4556
G1 X91.303 Y104.870 E14.5355
G1 X91.778 Y103.424 E14.6266
G1 X92.455 Y102.240 E14.7083
G1 X93.355 Y101.217 E14.7898
G1 X94.202 Y100.523 E14.8554
G1 X104.907 Y94.337 E15.5956
G1 X104.816 Y94.002 E15.6164
G1 X104.758 Y92.466 E15.7085
G1 X105.042 Y90.984 E15.7988
G1 X105.433 Y89.933 E15.8659
G1 X106.088 Y88.797 E15.9444
G1 X106.834 Y87.903 E16.0141
G1 X107.638 Y87.222 E16.0772
G1 X108.130 Y86.877 E16.1132
G1 X114.808 Y83.021 E16.5749
G1 X115.557 Y82.702 E16.6236
G1 X116.721 Y82.365 E16.6961
G1 X117.850 Y82.237 E16.7641
G1 X119.177 Y82.311 E16.8437
G1 X120.443 Y82.633 E16.9219
G1 X121.967 Y83.356 E17.0229
G1 X122.787 Y84.008 E17.0856
G1 X133.907 Y77.594 E17.8542
G1 X134.906 Y77.213 E17.9182
G1 X136.553 Y76.869 E18.0189
G1 X138.356 Y76.980 E18.1271
G1 X140.154 Y77.593 E18.2408
G1 X141.518 Y78.465 E18.3377
G1 X142.485 Y79.477 E18.4216
G1 X142.967 Y80.120 E18.4697
G1 X182.494 Y148.584 E23.2025
G1 X182.838 Y149.422 E23.2568
G1 X183.231 Y150.934 E23.3503
G1 X183.208 Y152.739 E23.4584
G1 X182.654 Y154.668 E23.5785
G1 X181.750 Y156.177 E23.6838
G1 X180.684 Y157.211 E23.7727
G1 X180.021 Y157.712 E23.8225
G1 X162.499 Y167.827 E25.0338
G1 X161.926 Y168.090 E25.0715
G1 X160.910 Y168.445 E25.1359
G1 X159.755 Y168.634 E25.2060
G1 X159.701 Y168.634 E25.2092
G1 X159.624 Y168.757 E25.2179
G1 X159.163 Y169.336 E25.2623
G1 X158.524 Y169.980 E25.3165
G1 X157.817 Y170.524 E25.3699
G1 X144.314 Y178.323 E26.3035
G1 X182.494 Y244.454 E30.8752
G1 X182.838 Y245.292 E30.9294
G1 X183.231 Y246.804 E31.0229
G1 X183.208 Y248.609 E31.1310
G1 X182.654 Y250.538 E31.2511
G1 X181.750 Y252.047 E31.3565
G1 X180.684 Y253.081 E31.4453
G1 X180.021 Y253.582 E31.4951
G1 X162.499 Y263.697 E32.7064
G1 X161.926 Y263.960 E32.7441
G1 X160.910 Y264.315 E32.8085
G1 X159.754 Y264.504 E32.8787
G1 X159.701 Y264.504 E32.8818
G1 X159.624 Y264.627 E32.8905
G1 X159.163 Y265.206 E32.9348
G1 X158.524 Y265.849 E32.9891
G1 X157.817 Y266.394 E33.0425
G1 X140.546 Y276.369 E34.2366
G1 X139.679 Y276.720 E34.2926
G1 X138.325 Y277.060 E34.3762
G1 X136.914 Y277.111 E34.4607
G1 X135.505 Y276.865 E34.5463
G1 X134.345 Y276.433 E34.6205
G1 X134.554 Y275.998 F7200
G92 E0.0000
G1 X133.196 Y275.184 E0.0948 F2400
G1 X132.066 Y274.022 E0.1919
G1 X131.328 Y272.715 E0.2817
G1 X130.984 Y271.787 E0.3409
G1 X130.769 Y270.714 E0.4065
G1 X130.717 Y270.332 E0.4296
G1 X130.664 Y269.619 E0.4724
G1 X130.656 Y269.389 E0.4861
G1 X130.656 Y228.710 E2.9215
G1 X95.443 Y208.377 E5.3559
G1 X95.276 Y208.273 E5.3677
G1 X94.643 Y207.852 E5.4132
G1 X94.244 Y207.538 E5.4435
G1 X93.284 Y206.645 E5.5221
G1 X92.584 Y205.691 E5.5928
G1 X92.027 Y204.519 E5.6706
G1 X91.732 Y203.415 E5.7390
G1 X91.627 Y202.074 E5.8195
G1 X91.774 Y200.845 E5.8936
G1 X92.219 Y199.490 E5.9790
G1 X92.847 Y198.391 E6.0548
G1 X93.690 Y197.434 E6.1311
G1 X94.476 Y196.789 E6.1920
G1 X105.468 Y190.438 E6.9520
G1 X105.294 Y189.799 E6.9917
G1 X105.239 Y188.372 E7.0771
G1 X105.506 Y186.984 E7.1618
G1 X105.869 Y186.008 E7.2241
G1 X106.483 Y184.943 E7.2977
G1 X107.176 Y184.112 E7.3625
G1 X107.932 Y183.472 E7.4218
G1 X108.388 Y183.151 E7.4552
G1 X115.023 Y179.321 E7.9138
G1 X115.718 Y179.025 E7.9591
G1 X116.816 Y178.707 E8.0275
G1 X117.864 Y178.588 E8.0906
G1 X119.104 Y178.657 E8.1650
G1 X120.279 Y178.957 E8.2376
G1 X121.712 Y179.636 E8.3325
G1 X122.744 Y180.457 E8.4115
G1 X130.946 Y175.726 E8.9783
G1 X130.769 Y174.844 E9.0322
G1 X130.717 Y174.462 E9.0553
G1 X130.664 Y173.749 E9.0981
G1 X130.656 Y173.519 E9.1118
G1 X130.656 Y132.840 E11.5472
G1 X95.443 Y112.507 E13.9816
G1 X95.276 Y112.403 E13.9934
G1 X94.643 Y111.982 E14.0389
G1 X94.245 Y111.668 E14.0692
G1 X93.284 Y110.775 E14.1478
G1 X92.585 Y109.822 E14.2186
G1 X92.027 Y108.649 E14.2963
G1 X91.732 Y107.545 E14.3647
G1 X91.627 Y106.205 E14.4452
G1 X91.774 Y104.975 E14.5194
G1 X92.219 Y103.620 E14.6047
G1 X92.847 Y102.521 E14.6805
G1 X93.690 Y101.564 E14.7568
G1 X94.476 Y100.919 E14.8177
G1 X105.468 Y94.568 E15.5777
G1 X105.294 Y93.929 E15.6174
G1 X105.239 Y92.502 E15.7029
G1 X105.506 Y91.114 E15.7875
G1 X105.869 Y90.138 E15.8498
G1 X106.483 Y89.073 E15.9234
G1 X107.176 Y88.242 E15.9882
G1 X107.932 Y87.603 E16.0475
G1 X108.388 Y87.282 E16.0809
G1 X115.023 Y83.451 E16.5395
G1 X115.718 Y83.155 E16.5848
G1 X116.815 Y82.837 E16.6532
G1 X117.863 Y82.718 E16.7163
G1 X119.104 Y82.787 E16.7907
G1 X120.279 Y83.087 E16.8633
G1 X121.711 Y83.766 E16.9582
G1 X122.744 Y84.587 E17.0372
G1 X134.114 Y78.029 E17.8230
G1 X135.041 Y77.675 E17.8824
G1 X136.588 Y77.352 E17.9770
G1 X138.262 Y77.455 E18.0775
G1 X139.944 Y78.029 E18.1838
G1 X141.211 Y78.838 E18.2739
G1 X142.118 Y79.788 E18.3525
G1 X142.566 Y80.385 E18.3972
G1 X182.062 Y148.796 E23.1264
G1 X182.381 Y149.575 E23.1767
G1 X182.750 Y150.993 E23.2645
G1 X182.729 Y152.669 E23.3648
G1 X182.210 Y154.475 E23.4773
G1 X181.370 Y155.877 E23.5751
G1 X180.371 Y156.846 E23.6585
G1 X179.756 Y157.311 E23.7047
G1 X162.278 Y167.400 E24.9129
G1 X161.746 Y167.644 E24.9479
G1 X160.791 Y167.978 E25.0085
G1 X159.718 Y168.154 E25.0736
G1 X159.438 Y168.151 E25.0903
G1 X159.232 Y168.479 E25.1135
G1 X158.804 Y169.017 E25.1547
G1 X158.206 Y169.619 E25.2055
G1 X157.550 Y170.124 E25.2551
G1 X143.658 Y178.147 E26.2155
G1 X182.062 Y244.666 E30.8139
G1 X182.381 Y245.445 E30.8643
G1 X182.750 Y246.863 E30.9520
G1 X182.729 Y248.539 E31.0523
G1 X182.210 Y250.345 E31.1649
G1 X181.370 Y251.747 E31.2627
G1 X180.371 Y252.716 E31.3460
G1 X179.756 Y253.181 E31.3922
G1 X162.278 Y263.270 E32.6004
G1 X161.747 Y263.514 E32.6354
G1 X160.791 Y263.848 E32.6960
G1 X159.718 Y264.024 E32.7611
G1 X159.438 Y264.021 E32.7779
G1 X159.232 Y264.349 E32.8011
G1 X158.804 Y264.887 E32.8422
G1 X158.206 Y265.488 E32.8930
G1 X157.550 Y265.994 E32.9426
G1 X140.335 Y275.937 E34.1328
G1 X139.530 Y276.263 E34.1848
G1 X138.257 Y276.582 E34.2633
G1 X136.946 Y276.630 E34.3419
G1 X135.631 Y276.400 E34.4218
G1 X134.554 Y275.998 E34.4906
G92 E0.0000
G1 E-1.5000 F5100
G1 X216.502 Y275.563 F7200
G1 E0.0000 F5100
G92 E0.0000
G1 X215.284 Y274.312 E0.1045 F2400
G1 X214.497 Y272.918 E0.2004
G1 X214.127 Y271.919 E0.2642
G1 X213.902 Y270.793 E0.3329
G1 X213.846 Y270.382 E0.3577
G1 X213.791 Y269.646 E0.4019
G1 X213.782 Y269.398 E0.4168
G1 X213.782 Y228.987 E2.8361
G1 X178.802 Y208.789 E5.2543
G1 X178.622 Y208.677 E5.2670
G1 X177.967 Y208.241 E5.3141
G1 X177.538 Y207.903 E5.3468
G1 X176.530 Y206.965 E5.4293
G1 X175.777 Y205.939 E5.5055
G1 X175.181 Y204.686 E5.5886
G1 X174.863 Y203.496 E5.6623
G1 X174.750 Y202.065 E5.7482
G1 X174.909 Y200.741 E5.8280
G1 X175.384 Y199.295 E5.9192
G1 X176.061 Y198.110 E6.0009
G1 X176.962 Y197.087 E6.0825
G1 X177.808 Y196.393 E6.1480
G1 X188.513 Y190.207 E6.8882
G1 X188.422 Y189.872 E6.9090
G1 X188.364 Y188.336 E7.0011
G1 X188.648 Y186.854 E7.0914
G1 X189.039 Y185.804 E7.1585
G1 X189.694 Y184.667 E7.2370
G1 X190.440 Y183.773 E7.3068
G1 X191.244 Y183.092 E7.3698
