; G-Code generated by Simplify3D(R) Version 4.1.2
; Apr 8, 2021 at 3:28:33 PM
; Settings Summary
;   processName,Process1
;   applyToModels,Catan_Border_Magnetic_fixed(3)
;   profileName,BLV mgn Cube-  Simplify3D Profile (modified)
;   profileVersion,2021-04-02 01:52:57
;   baseProfile,Anet A8
;   printMaterial,PLA
;   printQuality,Medium
;   printExtruders,
;   extruderName,Primary Extruder
;   extruderToolheadNumber,0
;   extruderDiameter,0.4
;   extruderAutoWidth,1
;   extruderWidth,0.48
;   extrusionMultiplier,1
;   extruderUseRetract,1
;   extruderRetractionDistance,1.5
;   extruderExtraRestartDistance,0
;   extruderRetractionZLift,0
;   extruderRetractionSpeed,5100
;   extruderUseCoasting,1
;   extruderCoastingDistance,0.2
;   extruderUseWipe,1
;   extruderWipeDistance,4
;   primaryExtruder,0
;   layerHeight,0.2
;   topSolidLayers,3
;   bottomSolidLayers,2
;   perimeterOutlines,2
;   printPerimetersInsideOut,0
;   startPointOption,3
;   startPointOriginX,0
;   startPointOriginY,500
;   sequentialIslands,0
;   spiralVaseMode,0
;   firstLayerHeightPercentage,150
;   firstLayerWidthPercentage,100
;   firstLayerUnderspeed,0.4
;   useRaft,0
;   raftExtruder,0
;   raftTopLayers,3
;   raftBaseLayers,2
;   raftOffset,3
;   raftSeparationDistance,0.14
;   raftTopInfill,100
;   aboveRaftSpeedMultiplier,0.3
;   useSkirt,1
;   skirtExtruder,0
;   skirtLayers,1
;   skirtOutlines,2
;   skirtOffset,6
;   usePrimePillar,0
;   primePillarExtruder,999
;   primePillarWidth,12
;   primePillarLocation,7
;   primePillarSpeedMultiplier,1
;   useOozeShield,0
;   oozeShieldExtruder,999
;   oozeShieldOffset,2
;   oozeShieldOutlines,1
;   oozeShieldSidewallShape,1
;   oozeShieldSidewallAngle,30
;   oozeShieldSpeedMultiplier,1
;   infillExtruder,0
;   internalInfillPattern,Rectilinear
;   externalInfillPattern,Rectilinear
;   infillPercentage,15
;   outlineOverlapPercentage,15
;   infillExtrusionWidthPercentage,100
;   minInfillLength,5
;   infillLayerInterval,1
;   internalInfillAngles,45,-45
;   overlapInternalInfillAngles,0
;   externalInfillAngles,45,-45
;   generateSupport,1
;   supportExtruder,0
;   supportInfillPercentage,30
;   supportExtraInflation,0
;   supportBaseLayers,0
;   denseSupportExtruder,0
;   denseSupportLayers,0
;   denseSupportInfillPercentage,70
;   supportLayerInterval,1
;   supportHorizontalPartOffset,0.4
;   supportUpperSeparationLayers,1
;   supportLowerSeparationLayers,1
;   supportType,0
;   supportGridSpacing,1
;   maxOverhangAngle,45
;   supportAngles,45,-45
;   temperatureName,Primary Extruder,Heated Bed
;   temperatureNumber,0,0
;   temperatureSetpointCount,2,1
;   temperatureSetpointLayers,1,2,1
;   temperatureSetpointTemperatures,215,210,60
;   temperatureStabilizeAtStartup,1,1
;   temperatureHeatedBed,0,1
;   fanLayers,1,2
;   fanSpeeds,0,100
;   blipFanToFullPower,1
;   adjustSpeedForCooling,1
;   minSpeedLayerTime,15
;   minCoolingSpeedSlowdown,20
;   increaseFanForCooling,0
;   minFanLayerTime,45
;   maxCoolingFanSpeed,100
;   increaseFanForBridging,1
;   bridgingFanSpeed,100
;   use5D,1
;   relativeEdistances,0
;   allowEaxisZeroing,1
;   independentExtruderAxes,0
;   includeM10123,0
;   stickySupport,1
;   applyToolheadOffsets,0
;   gcodeXoffset,24
;   gcodeYoffset,22
;   gcodeZoffset,0
;   overrideMachineDefinition,1
;   machineTypeOverride,0
;   strokeXoverride,310
;   strokeYoverride,310
;   strokeZoverride,334
;   originOffsetXoverride,0
;   originOffsetYoverride,0
;   originOffsetZoverride,0
;   homeXdirOverride,-1
;   homeYdirOverride,-1
;   homeZdirOverride,-1
;   flipXoverride,1
;   flipYoverride,-1
;   flipZoverride,1
;   toolheadOffsets,0,0|0,0|0,0|0,0|0,0|0,0
;   overrideFirmwareConfiguration,1
;   firmwareTypeOverride,RepRap (Marlin/Repetier/Sprinter)
;   GPXconfigOverride,r2
;   baudRateOverride,115200
;   overridePrinterModels,1
;   printerModelsOverride,Blvfull.stl
;   startingGcode,M291 P"Homing all axis" R"Printing.." S1 T2,G21		; metric values,G28		; home all,M98 P"/macros/load_meshbed"	; load mesh bed corresponding to the temp,M98 P"/macros/set_baby_step"	; set baby step,M98 P"/macros/purge_and_prime"; purge and do the prime line,,G92 E0 F100		; reset extruder,G1 Z10 F3000 		; move z up little to prevent scratching of surface,G92 E0 		; reset extruder,M291 P"Printing started !" R"Printing.." S1 T3
;   layerChangeGcode,
;   retractionGcode,
;   toolChangeGcode,
;   endingGcode,M104 S0 ; turn off extruder,M140 S0 ; turn off bed,M98 P"/macros/remove_baby_step"	; unset baby step,M98 P"/macros/rise30mm",G1 X0 Y300 F1000 ; prepare for part removal,M84 ; disable motors,M106 S0 ;turn off part cooling fan,;M81 ; shutdown,; play song,M300 S294 P200 ;D4: 294,M300 S588 P200 ;D5: 588,M300 S440 P200 ;A4: 440,M300 S392 P200 ;G4: 392,M300 S784 P200 ;G5: 784,M300 S440 P200 ;A4: 440,M300 S740 P200 ;F#5: 740,M300 S440 P200 ;A4: 440,M291 P"Printing finished !" R"Printing.." S1 T0,
;   exportFileFormat,gcode
;   celebration,0
;   celebrationSong,Star Wars
;   postProcessing,
;   defaultSpeed,6000
;   outlineUnderspeed,0.66
;   solidInfillUnderspeed,0.8
;   supportUnderspeed,0.8
;   rapidXYspeed,7200
;   rapidZspeed,1002
;   minBridgingArea,50
;   bridgingExtraInflation,0
;   bridgingExtrusionMultiplier,1
;   bridgingSpeedMultiplier,1
;   useFixedBridgingAngle,0
;   fixedBridgingAngle,0
;   applyBridgingToPerimeters,1
;   filamentDiameters,1.75|1.75|1.75|1.75|1.75|1.75
;   filamentPricesPerKg,30|110|110|110|110|110
;   filamentDensities,1.25|1.25|1.25|1.25|1.25|1.25
;   useMinPrintHeight,0
;   minPrintHeight,0
;   useMaxPrintHeight,0
;   maxPrintHeight,0
;   useDiaphragm,0
;   diaphragmLayerInterval,20
;   robustSlicing,1
;   mergeAllIntoSolid,0
;   onlyRetractWhenCrossingOutline,0
;   retractBetweenLayers,1
;   useRetractionMinTravel,1
;   retractionMinTravel,3
;   retractWhileWiping,1
;   onlyWipeOutlines,1
;   avoidCrossingOutline,1
;   maxMovementDetourFactor,3
;   toolChangeRetractionDistance,12
;   toolChangeExtraRestartDistance,-0.5
;   toolChangeRetractionSpeed,600
;   externalThinWallType,1
;   internalThinWallType,2
;   thinWallAllowedOverlapPercentage,15
;   singleExtrusionMinLength,1
;   singleExtrusionMinPrintingWidthPercentage,50
;   singleExtrusionMaxPrintingWidthPercentage,200
;   singleExtrusionEndpointExtension,0.2
;   horizontalSizeCompensation,0
G90
M82
M106 S0
M140 S60
M190 S60
M104 S215 T0
M109 S215 T0
M291 P"Homing all axis" R"Printing.." S1 T2
G21		; metric values
G28		; home all
M98 P"/macros/load_meshbed"	; load mesh bed corresponding to the temp
M98 P"/macros/set_baby_step"	; set baby step
M98 P"/macros/purge_and_prime"; purge and do the prime line
G92 E0 F100		; reset extruder
G1 Z10 F3000 		; move z up little to prevent scratching of surface
G92 E0 		; reset extruder
M291 P"Printing started !" R"Printing.." S1 T3
; process Process1
; layer 1, Z = 0.300
T0
G92 E0.0000
G1 E-1.5000 F5100
; feature skirt
; tool H0.300 W0.480
G1 Z0.300 F1002
G1 X195.429 Y183.909 F7200
G1 E0.0000 F5100
G92 E0.0000
G1 X194.033 Y183.077 E0.0973 F2400
G1 X192.873 Y181.935 E0.1948
G1 X192.143 Y180.870 E0.2721
G1 X191.629 Y179.685 E0.3494
G1 X191.373 Y178.745 E0.4077
G1 X191.240 Y177.644 E0.4741
G1 X191.216 Y177.210 E0.5002
G1 X191.223 Y176.467 E0.5446
G1 X191.233 Y176.233 E0.5587
G1 X194.415 Y135.954 E2.9776
G1 X162.751 Y114.180 E5.2782
G1 X135.192 Y127.316 E7.1059
G1 X132.004 Y130.505 E7.3759
G1 X128.502 Y130.505 E7.5855
G1 X126.277 Y131.566 E7.7331
G1 X126.062 Y131.659 E7.7471
G1 X125.371 Y131.931 E7.7916
G1 X124.958 Y132.064 E7.8176
G1 X123.823 Y132.348 E7.8876
G1 X122.731 Y132.439 E7.9532
G1 X121.314 Y132.326 E8.0383
G1 X120.010 Y131.951 E8.1195
G1 X118.773 Y131.304 E8.2031
G1 X117.846 Y130.591 E8.2731
G1 X116.998 Y129.665 E8.3483
G1 X116.407 Y128.767 E8.4126
G1 X115.901 Y127.642 E8.4865
G1 X115.616 Y126.546 E8.5543
G1 X115.531 Y125.574 E8.6127
G1 X115.529 Y125.019 E8.6460
G1 X116.476 Y113.015 E9.3669
G1 X115.761 Y112.682 E9.4141
G1 X114.849 Y112.058 E9.4803
G1 X113.887 Y111.137 E9.5600
G1 X113.176 Y110.158 E9.6324
G1 X112.587 Y108.933 E9.7138
G1 X112.271 Y107.814 E9.7834
G1 X112.162 Y106.755 E9.8471
G1 X112.155 Y106.142 E9.8839
G1 X112.796 Y98.103 E10.3667
G1 X113.174 Y96.796 E10.4481
G1 X113.918 Y95.379 E10.5439
G1 X114.771 Y94.332 E10.6248
G1 X115.944 Y93.371 E10.7156
G1 X117.151 Y92.735 E10.7972
G1 X118.102 Y92.460 E10.8565
G1 X119.090 Y79.938 E11.6085
G1 X119.164 Y79.454 E11.6378
G1 X119.370 Y78.552 E11.6932
G1 X119.791 Y77.525 E11.7596
G1 X120.484 Y76.405 E11.8385
G1 X121.348 Y75.466 E11.9149
G1 X122.544 Y74.579 E12.0040
G1 X123.755 Y74.010 E12.0841
G1 X125.055 Y73.690 E12.1642
G1 X126.128 Y73.603 E12.2287
G1 X202.841 Y79.654 E16.8356
G1 X203.108 Y79.686 E16.8518
G1 X204.238 Y79.867 E16.9203
G1 X204.717 Y79.980 E16.9497
G1 X205.875 Y80.345 E17.0224
G1 X206.323 Y80.522 E17.0513
G1 X207.432 Y81.055 E17.1249
G1 X207.879 Y81.314 E17.1559
G1 X208.925 Y82.033 E17.2319
G1 X209.311 Y82.343 E17.2615
G1 X210.218 Y83.186 E17.3357
G1 X210.563 Y83.560 E17.3661
G1 X211.346 Y84.547 E17.4415
G1 X211.627 Y84.961 E17.4715
G1 X212.189 Y85.940 E17.5391
G1 X212.309 Y86.168 E17.5545
G1 X245.329 Y155.445 E22.1490
G1 X245.586 Y156.207 E22.1971
G1 X245.865 Y157.542 E22.2788
G1 X245.828 Y159.091 E22.3715
G1 X245.388 Y160.791 E22.4767
G1 X244.634 Y162.205 E22.5726
G1 X243.527 Y163.447 E22.6722
G1 X242.454 Y164.253 E22.7526
G1 X223.822 Y173.139 E23.9884
G1 X223.042 Y173.400 E24.0376
G1 X221.740 Y173.665 E24.1172
G1 X221.094 Y173.665 E24.1559
G1 X220.163 Y174.633 E24.2362
G1 X219.180 Y175.342 E24.3088
G1 X201.070 Y183.985 E25.5102
G1 X200.279 Y184.248 E25.5601
G1 X198.861 Y184.531 E25.6467
G1 X197.195 Y184.449 E25.7466
G1 X195.429 Y183.909 E25.8571
G1 X195.625 Y183.467 F7200
G92 E0.0000
G1 X194.328 Y182.695 E0.0904 F2400
G1 X193.243 Y181.625 E0.1816
G1 X192.565 Y180.637 E0.2533
G1 X192.083 Y179.526 E0.3258
G1 X191.846 Y178.653 E0.3800
G1 X191.719 Y177.601 E0.4434
G1 X191.696 Y177.199 E0.4676
G1 X191.703 Y176.480 E0.5106
G1 X191.712 Y176.262 E0.5236
G1 X194.915 Y135.716 E2.9586
G1 X162.794 Y113.628 E5.2925
G1 X134.911 Y126.918 E7.1417
G1 X131.805 Y130.025 E7.4047
G1 X128.394 Y130.025 E7.6089
G1 X126.078 Y131.129 E7.7625
G1 X125.878 Y131.215 E7.7755
G1 X125.210 Y131.479 E7.8186
G1 X124.826 Y131.602 E7.8427
G1 X123.744 Y131.873 E7.9095
G1 X122.730 Y131.958 E7.9704
G1 X121.400 Y131.852 E8.0503
G1 X120.190 Y131.503 E8.1257
G1 X119.033 Y130.898 E8.2038
G1 X118.172 Y130.236 E8.2689
G1 X117.378 Y129.369 E8.3392
G1 X116.829 Y128.536 E8.3990
G1 X116.355 Y127.482 E8.4681
G1 X116.090 Y126.464 E8.5311
G1 X116.011 Y125.552 E8.5859
G1 X116.009 Y125.037 E8.6168
G1 X116.981 Y112.720 E9.3564
G1 X115.999 Y112.263 E9.4212
G1 X115.152 Y111.684 E9.4827
G1 X114.250 Y110.820 E9.5575
G1 X113.590 Y109.911 E9.6247
G1 X113.038 Y108.762 E9.7010
G1 X112.744 Y107.723 E9.7657
G1 X112.641 Y106.728 E9.8256
G1 X112.635 Y106.158 E9.8597
G1 X113.271 Y98.189 E10.3383
G1 X113.622 Y96.976 E10.4139
G1 X114.320 Y95.645 E10.5039
G1 X115.113 Y94.672 E10.5790
G1 X116.210 Y93.773 E10.6640
G1 X117.331 Y93.183 E10.7398
G1 X118.554 Y92.828 E10.8160
G1 X119.567 Y79.994 E11.5868
G1 X119.636 Y79.544 E11.6141
G1 X119.829 Y78.697 E11.6660
G1 X120.220 Y77.744 E11.7277
G1 X120.868 Y76.697 E11.8015
G1 X121.670 Y75.824 E11.8724
G1 X122.792 Y74.993 E11.9560
G1 X123.916 Y74.464 E12.0304
G1 X125.132 Y74.165 E12.1053
G1 X126.129 Y74.084 E12.1652
G1 X202.793 Y80.132 E16.7692
G1 X203.041 Y80.161 E16.7842
G1 X204.145 Y80.338 E16.8511
G1 X204.589 Y80.443 E16.8784
G1 X205.715 Y80.797 E16.9491
G1 X206.131 Y80.962 E16.9758
G1 X207.207 Y81.480 E17.0474
G1 X207.623 Y81.720 E17.0761
G1 X208.639 Y82.419 E17.1499
G1 X208.997 Y82.706 E17.1774
G1 X209.878 Y83.525 E17.2495
G1 X210.198 Y83.872 E17.2777
G1 X210.959 Y84.831 E17.3510
G1 X211.220 Y85.216 E17.3788
G1 X211.768 Y86.171 E17.4448
G1 X211.879 Y86.383 E17.4591
G1 X244.883 Y155.626 E22.0513
G1 X245.122 Y156.333 E22.0960
G1 X245.383 Y157.586 E22.1727
G1 X245.350 Y159.024 E22.2588
G1 X244.938 Y160.616 E22.3572
G1 X244.237 Y161.928 E22.4463
G1 X243.200 Y163.092 E22.5396
G1 X242.204 Y163.840 E22.6142
G1 X223.642 Y172.693 E23.8454
G1 X222.918 Y172.936 E23.8911
G1 X221.691 Y173.185 E23.9660
G1 X220.863 Y173.185 E24.0156
G1 X220.817 Y173.260 E24.0209
G1 X219.847 Y174.269 E24.1046
G1 X218.935 Y174.927 E24.1720
G1 X200.890 Y183.539 E25.3690
G1 X200.155 Y183.783 E25.4154
G1 X198.825 Y184.049 E25.4966
G1 X197.278 Y183.972 E25.5893
G1 X195.625 Y183.467 E25.6928
G92 E0.0000
G1 E-1.5000 F5100
; feature outer perimeter
G1 X198.248 Y177.620 F7200
G1 E0.0000 F5100
G92 E0.0000
G1 X198.178 Y177.040 E0.0350 F1584
G1 X198.181 Y176.656 E0.0580
G1 X201.670 Y132.497 E2.7099
G1 X163.383 Y106.169 E5.4917
G1 X123.396 Y125.229 E8.1437
G1 X123.038 Y125.369 E8.1667
G1 X122.472 Y125.511 E8.2017
G1 X124.082 Y105.100 E9.4275
G1 X124.017 Y104.916 E9.4392
G1 X123.885 Y104.779 E9.4506
G1 X123.676 Y104.705 E9.4638
G1 X123.479 Y104.741 E9.4758
G1 X119.442 Y106.658 E9.7434
G1 X119.333 Y106.667 E9.7499
G1 X119.234 Y106.621 E9.7565
G1 X119.168 Y106.558 E9.7619
G1 X119.130 Y106.479 E9.7672
G1 X119.119 Y106.368 E9.7739
G1 X119.679 Y99.352 E10.1953
G1 X119.736 Y99.261 E10.2017
G1 X119.816 Y99.196 E10.2078
G1 X119.910 Y99.177 E10.2136
G1 X120.039 Y99.203 E10.2214
G1 X123.718 Y101.723 E10.4884
G1 X123.898 Y101.788 E10.4999
G1 X124.064 Y101.768 E10.5099
G1 X124.199 Y101.702 E10.5189
G1 X124.314 Y101.583 E10.5288
G1 X124.377 Y101.409 E10.5399
G1 X126.021 Y80.576 E11.7910
G1 X202.150 Y86.581 E16.3628
G1 X202.878 Y86.698 E16.4070
G1 X203.539 Y86.906 E16.4485
G1 X204.166 Y87.207 E16.4901
G1 X204.765 Y87.619 E16.5336
G1 X205.278 Y88.097 E16.5756
G1 X205.725 Y88.661 E16.6187
G1 X206.085 Y89.287 E16.6620
G1 X238.940 Y158.217 E21.2335
G1 X238.397 Y158.482 E21.2696
G1 X221.216 Y166.672 E22.4091
G1 X221.094 Y166.706 E22.4167
G1 X220.993 Y166.686 E22.4228
G1 X220.922 Y166.645 E22.4277
G1 X220.866 Y166.582 E22.4328
G1 X220.826 Y166.487 E22.4390
G1 X221.166 Y162.095 E22.7027
G1 X221.122 Y161.929 E22.7130
G1 X220.975 Y161.760 E22.7264
G1 X220.758 Y161.683 E22.7402
G1 X220.562 Y161.722 E22.7521
G1 X212.102 Y165.752 E23.3132
G1 X211.951 Y165.884 E23.3252
G1 X211.875 Y166.093 E23.3385
G1 X211.896 Y166.259 E23.3485
G1 X211.960 Y166.391 E23.3573
G1 X212.051 Y166.486 E23.3652
G1 X215.625 Y168.950 E23.6251
G1 X215.678 Y169.027 E23.6306
G1 X215.707 Y169.130 E23.6371
G1 X215.673 Y169.261 E23.6452
G1 X215.596 Y169.340 E23.6518
G1 X198.429 Y177.533 E24.7906
G1 X198.248 Y177.620 F1584
G92 E0.0000
G1 X198.192 Y177.157 E-1.5000 F1584
G1 X198.178 Y177.040 F1584
G1 X198.181 Y176.656
G1 X198.420 Y173.633
; feature inner perimeter
G1 X198.644 Y176.899 F7200
G1 E0.0000 F5100
G92 E0.0000
G1 X202.170 Y132.258 E2.6809 F1992
G1 X163.427 Y105.616 E5.4959
G1 X123.003 Y124.884 E8.1768
G1 X124.569 Y105.037 E9.3688
G1 X124.435 Y104.657 E9.3928
G1 X124.151 Y104.365 E9.4173
G1 X123.716 Y104.209 E9.4449
G1 X123.330 Y104.281 E9.4684
G1 X119.626 Y106.039 E9.7139
G1 X120.121 Y99.841 E10.0861
G1 X123.497 Y102.154 E10.3311
G1 X123.842 Y102.279 E10.3530
G1 X124.202 Y102.234 E10.3747
G1 X124.485 Y102.097 E10.3936
G1 X124.731 Y101.843 E10.4147
G1 X124.850 Y101.510 E10.4359
G1 X126.462 Y81.092 E11.6621
G1 X202.093 Y87.058 E16.2040
G1 X202.768 Y87.166 E16.2450
G1 X203.362 Y87.353 E16.2823
G1 X203.924 Y87.624 E16.3196
G1 X204.464 Y87.994 E16.3588
G1 X204.925 Y88.423 E16.3965
G1 X205.327 Y88.931 E16.4353
G1 X205.660 Y89.511 E16.4753
G1 X238.303 Y157.996 E21.0173
G1 X221.338 Y166.081 E22.1424
G1 X221.651 Y162.051 E22.3844
G1 X221.558 Y161.698 E22.4062
G1 X221.254 Y161.350 E22.4339
