; G-Code generated by Simplify3D(R) Version 4.1.2
; Apr 8, 2021 at 3:21:59 PM
; Settings Summary
;   processName,Process1
;   applyToModels,Catan_Border_Straight_Magnetic_fixed
;   profileName,BLV mgn Cube-  Simplify3D Profile (modified)
;   profileVersion,2021-04-02 01:52:57
;   baseProfile,Anet A8
;   printMaterial,PLA
;   printQuality,Medium
;   printExtruders,
;   extruderName,Primary Extruder
;   extruderToolheadNumber,0
;   extruderDiameter,0.4
;   extruderAutoWidth,1
;   extruderWidth,0.48
;   extrusionMultiplier,1
;   extruderUseRetract,1
;   extruderRetractionDistance,1.5
;   extruderExtraRestartDistance,0
;   extruderRetractionZLift,0
;   extruderRetractionSpeed,5100
;   extruderUseCoasting,1
;   extruderCoastingDistance,0.2
;   extruderUseWipe,1
;   extruderWipeDistance,4
;   primaryExtruder,0
;   layerHeight,0.2
;   topSolidLayers,3
;   bottomSolidLayers,2
;   perimeterOutlines,2
;   printPerimetersInsideOut,0
;   startPointOption,3
;   startPointOriginX,0
;   startPointOriginY,500
;   sequentialIslands,0
;   spiralVaseMode,0
;   firstLayerHeightPercentage,150
;   firstLayerWidthPercentage,100
;   firstLayerUnderspeed,0.4
;   useRaft,0
;   raftExtruder,0
;   raftTopLayers,3
;   raftBaseLayers,2
;   raftOffset,3
;   raftSeparationDistance,0.14
;   raftTopInfill,100
;   aboveRaftSpeedMultiplier,0.3
;   useSkirt,1
;   skirtExtruder,0
;   skirtLayers,1
;   skirtOutlines,2
;   skirtOffset,6
;   usePrimePillar,0
;   primePillarExtruder,999
;   primePillarWidth,12
;   primePillarLocation,7
;   primePillarSpeedMultiplier,1
;   useOozeShield,0
;   oozeShieldExtruder,999
;   oozeShieldOffset,2
;   oozeShieldOutlines,1
;   oozeShieldSidewallShape,1
;   oozeShieldSidewallAngle,30
;   oozeShieldSpeedMultiplier,1
;   infillExtruder,0
;   internalInfillPattern,Rectilinear
;   externalInfillPattern,Rectilinear
;   infillPercentage,15
;   outlineOverlapPercentage,15
;   infillExtrusionWidthPercentage,100
;   minInfillLength,5
;   infillLayerInterval,1
;   internalInfillAngles,45,-45
;   overlapInternalInfillAngles,0
;   externalInfillAngles,45,-45
;   generateSupport,1
;   supportExtruder,0
;   supportInfillPercentage,30
;   supportExtraInflation,0
;   supportBaseLayers,0
;   denseSupportExtruder,0
;   denseSupportLayers,0
;   denseSupportInfillPercentage,70
;   supportLayerInterval,1
;   supportHorizontalPartOffset,0.4
;   supportUpperSeparationLayers,1
;   supportLowerSeparationLayers,1
;   supportType,0
;   supportGridSpacing,1
;   maxOverhangAngle,45
;   supportAngles,45,-45
;   temperatureName,Primary Extruder,Heated Bed
;   temperatureNumber,0,0
;   temperatureSetpointCount,2,1
;   temperatureSetpointLayers,1,2,1
;   temperatureSetpointTemperatures,215,210,60
;   temperatureStabilizeAtStartup,1,1
;   temperatureHeatedBed,0,1
;   fanLayers,1,2
;   fanSpeeds,0,100
;   blipFanToFullPower,1
;   adjustSpeedForCooling,1
;   minSpeedLayerTime,15
;   minCoolingSpeedSlowdown,20
;   increaseFanForCooling,0
;   minFanLayerTime,45
;   maxCoolingFanSpeed,100
;   increaseFanForBridging,1
;   bridgingFanSpeed,100
;   use5D,1
;   relativeEdistances,0
;   allowEaxisZeroing,1
;   independentExtruderAxes,0
;   includeM10123,0
;   stickySupport,1
;   applyToolheadOffsets,0
;   gcodeXoffset,24
;   gcodeYoffset,22
;   gcodeZoffset,0
;   overrideMachineDefinition,1
;   machineTypeOverride,0
;   strokeXoverride,310
;   strokeYoverride,310
;   strokeZoverride,334
;   originOffsetXoverride,0
;   originOffsetYoverride,0
;   originOffsetZoverride,0
;   homeXdirOverride,-1
;   homeYdirOverride,-1
;   homeZdirOverride,-1
;   flipXoverride,1
;   flipYoverride,-1
;   flipZoverride,1
;   toolheadOffsets,0,0|0,0|0,0|0,0|0,0|0,0
;   overrideFirmwareConfiguration,1
;   firmwareTypeOverride,RepRap (Marlin/Repetier/Sprinter)
;   GPXconfigOverride,r2
;   baudRateOverride,115200
;   overridePrinterModels,1
;   printerModelsOverride,Blvfull.stl
;   startingGcode,M291 P"Homing all axis" R"Printing.." S1 T2,G21		; metric values,G28		; home all,M98 P"/macros/load_meshbed"	; load mesh bed corresponding to the temp,M98 P"/macros/set_baby_step"	; set baby step,M98 P"/macros/purge_and_prime"; purge and do the prime line,,G92 E0 F100		; reset extruder,G1 Z10 F3000 		; move z up little to prevent scratching of surface,G92 E0 		; reset extruder,M291 P"Printing started !" R"Printing.." S1 T3
;   layerChangeGcode,
;   retractionGcode,
;   toolChangeGcode,
;   endingGcode,M104 S0 ; turn off extruder,M140 S0 ; turn off bed,M98 P"/macros/remove_baby_step"	; unset baby step,M98 P"/macros/rise30mm",G1 X0 Y300 F1000 ; prepare for part removal,M84 ; disable motors,M106 S0 ;turn off part cooling fan,;M81 ; shutdown,; play song,M300 S294 P200 ;D4: 294,M300 S588 P200 ;D5: 588,M300 S440 P200 ;A4: 440,M300 S392 P200 ;G4: 392,M300 S784 P200 ;G5: 784,M300 S440 P200 ;A4: 440,M300 S740 P200 ;F#5: 740,M300 S440 P200 ;A4: 440,M291 P"Printing finished !" R"Printing.." S1 T0,
;   exportFileFormat,gcode
;   celebration,0
;   celebrationSong,Star Wars
;   postProcessing,
;   defaultSpeed,6000
;   outlineUnderspeed,0.66
;   solidInfillUnderspeed,0.8
;   supportUnderspeed,0.8
;   rapidXYspeed,7200
;   rapidZspeed,1002
;   minBridgingArea,50
;   bridgingExtraInflation,0
;   bridgingExtrusionMultiplier,1
;   bridgingSpeedMultiplier,1
;   useFixedBridgingAngle,0
;   fixedBridgingAngle,0
;   applyBridgingToPerimeters,1
;   filamentDiameters,1.75|1.75|1.75|1.75|1.75|1.75
;   filamentPricesPerKg,30|110|110|110|110|110
;   filamentDensities,1.25|1.25|1.25|1.25|1.25|1.25
;   useMinPrintHeight,0
;   minPrintHeight,0
;   useMaxPrintHeight,0
;   maxPrintHeight,0
;   useDiaphragm,0
;   diaphragmLayerInterval,20
;   robustSlicing,1
;   mergeAllIntoSolid,0
;   onlyRetractWhenCrossingOutline,0
;   retractBetweenLayers,1
;   useRetractionMinTravel,1
;   retractionMinTravel,3
;   retractWhileWiping,1
;   onlyWipeOutlines,1
;   avoidCrossingOutline,1
;   maxMovementDetourFactor,3
;   toolChangeRetractionDistance,12
;   toolChangeExtraRestartDistance,-0.5
;   toolChangeRetractionSpeed,600
;   externalThinWallType,1
;   internalThinWallType,2
;   thinWallAllowedOverlapPercentage,15
;   singleExtrusionMinLength,1
;   singleExtrusionMinPrintingWidthPercentage,50
;   singleExtrusionMaxPrintingWidthPercentage,200
;   singleExtrusionEndpointExtension,0.2
;   horizontalSizeCompensation,0
G90
M82
M106 S0
M140 S60
M190 S60
M104 S215 T0
M109 S215 T0
M291 P"Homing all axis" R"Printing.." S1 T2
G21		; metric values
G28		; home all
M98 P"/macros/load_meshbed"	; load mesh bed corresponding to the temp
M98 P"/macros/set_baby_step"	; set baby step
M98 P"/macros/purge_and_prime"; purge and do the prime line
G92 E0 F100		; reset extruder
G1 Z10 F3000 		; move z up little to prevent scratching of surface
G92 E0 		; reset extruder
M291 P"Printing started !" R"Printing.." S1 T3
; process Process1
; layer 1, Z = 0.300
T0
G92 E0.0000
G1 E-1.5000 F5100
; feature skirt
; tool H0.300 W0.480
G1 Z0.300 F1002
G1 X176.148 Y228.498 F7200
G1 E0.0000 F5100
G92 E0.0000
G1 X174.699 Y227.628 E0.1012 F2400
G1 X173.481 Y226.377 E0.2057
G1 X172.694 Y224.983 E0.3016
G1 X172.324 Y223.984 E0.3654
G1 X172.099 Y222.858 E0.4341
G1 X172.043 Y222.447 E0.4589
G1 X171.988 Y221.711 E0.5031
G1 X171.979 Y221.463 E0.5180
G1 X171.979 Y181.052 E2.9373
G1 X136.999 Y160.854 E5.3555
G1 X136.819 Y160.742 E5.3682
G1 X136.164 Y160.306 E5.4153
G1 X135.735 Y159.968 E5.4480
G1 X134.727 Y159.031 E5.5304
G1 X133.973 Y158.004 E5.6067
G1 X133.378 Y156.751 E5.6897
G1 X133.060 Y155.562 E5.7634
G1 X132.947 Y154.130 E5.8494
G1 X133.106 Y152.805 E5.9293
G1 X133.581 Y151.359 E6.0204
G1 X134.258 Y150.175 E6.1021
G1 X135.158 Y149.152 E6.1836
G1 X136.005 Y148.458 E6.2492
G1 X146.710 Y142.272 E6.9894
G1 X146.619 Y141.937 E7.0102
G1 X146.561 Y140.401 E7.1023
G1 X146.845 Y138.919 E7.1926
G1 X147.236 Y137.869 E7.2597
G1 X147.890 Y136.732 E7.3382
G1 X148.637 Y135.838 E7.4080
G1 X149.442 Y135.157 E7.4710
G1 X149.933 Y134.811 E7.5070
G1 X156.611 Y130.956 E7.9687
G1 X157.360 Y130.637 E8.0174
G1 X158.524 Y130.300 E8.0899
G1 X159.653 Y130.172 E8.1579
G1 X160.980 Y130.246 E8.2375
G1 X162.246 Y130.568 E8.3157
G1 X163.770 Y131.291 E8.4167
G1 X164.590 Y131.943 E8.4794
G1 X175.710 Y125.529 E9.2480
G1 X176.709 Y125.148 E9.3120
G1 X178.356 Y124.804 E9.4127
G1 X180.159 Y124.915 E9.5209
G1 X181.957 Y125.528 E9.6346
G1 X183.322 Y126.400 E9.7316
G1 X184.288 Y127.413 E9.8154
G1 X184.770 Y128.056 E9.8635
G1 X224.297 Y196.519 E14.5964
G1 X224.641 Y197.358 E14.6506
G1 X225.034 Y198.869 E14.7441
G1 X225.011 Y200.674 E14.8522
G1 X224.457 Y202.603 E14.9723
G1 X223.553 Y204.112 E15.0776
G1 X222.487 Y205.146 E15.1665
G1 X221.824 Y205.647 E15.2163
G1 X204.302 Y215.762 E16.4276
G1 X203.729 Y216.025 E16.4653
G1 X202.713 Y216.380 E16.5297
G1 X201.557 Y216.569 E16.5998
G1 X201.504 Y216.569 E16.6030
G1 X201.427 Y216.691 E16.6117
G1 X200.966 Y217.271 E16.6560
G1 X200.327 Y217.914 E16.7103
G1 X199.620 Y218.459 E16.7637
G1 X182.349 Y228.434 E17.9578
G1 X181.482 Y228.785 E18.0138
G1 X180.128 Y229.125 E18.0974
G1 X178.715 Y229.176 E18.1820
G1 X177.307 Y228.930 E18.2676
G1 X176.148 Y228.498 E18.3416
G1 X176.357 Y228.063 F7200
G92 E0.0000
G1 X175.000 Y227.249 E0.0948 F2400
G1 X173.869 Y226.087 E0.1919
G1 X173.131 Y224.780 E0.2817
G1 X172.787 Y223.852 E0.3409
G1 X172.572 Y222.779 E0.4065
G1 X172.520 Y222.397 E0.4296
G1 X172.467 Y221.684 E0.4724
G1 X172.459 Y221.454 E0.4861
G1 X172.459 Y180.775 E2.9215
G1 X137.246 Y160.442 E5.3559
G1 X137.079 Y160.338 E5.3677
G1 X136.446 Y159.917 E5.4132
G1 X136.048 Y159.603 E5.4435
G1 X135.087 Y158.710 E5.5220
G1 X134.387 Y157.756 E5.5929
G1 X133.830 Y156.584 E5.6706
G1 X133.535 Y155.480 E5.7390
G1 X133.430 Y154.140 E5.8195
G1 X133.577 Y152.910 E5.8936
G1 X134.022 Y151.555 E5.9790
G1 X134.650 Y150.456 E6.0548
G1 X135.493 Y149.499 E6.1311
G1 X136.279 Y148.854 E6.1920
G1 X147.271 Y142.503 E6.9520
G1 X147.097 Y141.864 E6.9917
G1 X147.042 Y140.437 E7.0772
G1 X147.309 Y139.049 E7.1618
G1 X147.672 Y138.074 E7.2241
G1 X148.286 Y137.008 E7.2977
G1 X148.979 Y136.177 E7.3625
G1 X149.735 Y135.537 E7.4218
G1 X150.192 Y135.216 E7.4552
G1 X156.826 Y131.386 E7.9138
G1 X157.521 Y131.090 E7.9591
G1 X158.619 Y130.772 E8.0275
G1 X159.667 Y130.653 E8.0906
G1 X160.907 Y130.722 E8.1650
G1 X162.082 Y131.022 E8.2376
G1 X163.514 Y131.701 E8.3325
G1 X164.547 Y132.522 E8.4115
G1 X175.917 Y125.964 E9.1973
G1 X176.844 Y125.610 E9.2567
G1 X178.391 Y125.287 E9.3513
G1 X180.065 Y125.390 E9.4517
G1 X181.747 Y125.964 E9.5581
G1 X183.014 Y126.774 E9.6482
G1 X183.922 Y127.723 E9.7268
G1 X184.369 Y128.320 E9.7715
G1 X223.865 Y196.731 E14.5007
G1 X224.184 Y197.510 E14.5510
G1 X224.553 Y198.928 E14.6388
G1 X224.532 Y200.604 E14.7391
G1 X224.013 Y202.410 E14.8516
G1 X223.173 Y203.812 E14.9494
G1 X222.174 Y204.781 E15.0328
G1 X221.559 Y205.246 E15.0790
G1 X204.081 Y215.335 E16.2871
G1 X203.550 Y215.579 E16.3222
G1 X202.594 Y215.913 E16.3828
G1 X201.521 Y216.089 E16.4479
G1 X201.241 Y216.086 E16.4646
G1 X201.035 Y216.413 E16.4878
G1 X200.607 Y216.951 E16.5290
G1 X200.009 Y217.553 E16.5798
G1 X199.353 Y218.059 E16.6294
G1 X182.138 Y228.002 E17.8195
G1 X181.333 Y228.328 E17.8715
G1 X180.060 Y228.647 E17.9501
G1 X178.749 Y228.695 E18.0287
G1 X177.434 Y228.465 E18.1086
G1 X176.357 Y228.063 E18.1773
G92 E0.0000
G1 E-1.5000 F5100
; feature outer perimeter
G1 X179.081 Y222.284 F7200
G1 E0.0000 F5100
G92 E0.0000
G1 X178.967 Y221.713 E0.0349 F1584
G1 X178.939 Y221.330 E0.0578
G1 X178.939 Y177.034 E2.7097
G1 X140.577 Y154.883 E5.3618
G1 X140.260 Y154.672 E5.3846
G1 X139.840 Y154.281 E5.4190
G1 X157.553 Y144.045 E6.6438
G1 X157.672 Y143.882 E6.6559
G1 X157.700 Y143.648 E6.6700
G1 X157.642 Y143.491 E6.6800
G1 X157.541 Y143.369 E6.6895
G1 X153.644 Y141.109 E6.9591
G1 X153.582 Y141.034 E6.9650
G1 X153.546 Y140.933 E6.9714
G1 X153.567 Y140.822 E6.9782
G1 X153.610 Y140.747 E6.9833
G1 X153.692 Y140.678 E6.9897
G1 X159.734 Y137.190 E7.4074
G1 X159.768 Y137.172 E7.4097
G1 X159.888 Y137.149 E7.4170
G1 X159.979 Y137.178 E7.4227
G1 X160.034 Y137.215 E7.4267
G1 X160.090 Y137.275 E7.4316
G1 X160.121 Y137.365 E7.4373
G1 X160.127 Y141.833 E7.7048
G1 X160.173 Y142.015 E7.7160
G1 X160.311 Y142.166 E7.7283
G1 X160.457 Y142.231 E7.7378
G1 X160.669 Y142.240 E7.7505
G1 X178.824 Y131.768 E9.0053
G1 X178.958 Y131.908 E9.0169
G1 X218.100 Y199.705 E13.7037
G1 X217.959 Y199.842 E13.7154
G1 X201.115 Y209.566 E14.8799
G1 X201.010 Y209.603 E14.8865
G1 X200.917 Y209.601 E14.8920
G1 X200.837 Y209.573 E14.8971
G1 X200.756 Y209.504 E14.9035
G1 X200.715 Y209.392 E14.9107
G1 X200.707 Y205.041 E15.1711
G1 X200.653 Y204.853 E15.1829
G1 X200.501 Y204.696 E15.1959
G1 X200.343 Y204.639 E15.2060
G1 X200.187 Y204.639 E15.2153
G1 X200.064 Y204.685 E15.2232
G1 X191.966 Y209.362 E15.7830
G1 X191.831 Y209.486 E15.7940
G1 X191.767 Y209.679 E15.8062
G1 X191.776 Y209.834 E15.8155
G1 X191.837 Y209.981 E15.8250
G1 X191.960 Y210.096 E15.8351
G1 X195.725 Y212.279 E16.0956
G1 X195.788 Y212.351 E16.1014
G1 X195.818 Y212.474 E16.1089
G1 X195.793 Y212.577 E16.1153
G1 X195.738 Y212.664 E16.1214
G1 X179.255 Y222.184 E17.2610
G1 X179.081 Y222.284 F1584
G92 E0.0000
G1 X178.990 Y221.827 E-1.5000 F1584
G1 X178.967 Y221.713 F1584
G1 X178.939 Y221.330
G1 X178.939 Y218.296
; feature inner perimeter
G1 X179.419 Y221.535 F7200
G1 E0.0000 F5100
G92 E0.0000
G1 X179.419 Y176.757 E2.6807 F1992
G1 X140.647 Y154.369 E5.3611
G1 X157.882 Y144.409 E6.5529
G1 X158.133 Y144.063 E6.5785
G1 X158.191 Y143.589 E6.6070
G1 X158.063 Y143.247 E6.6289
G1 X157.856 Y142.997 E6.6484
G1 X154.254 Y140.908 E6.8976
G1 X159.642 Y137.797 E7.2701
G1 X159.647 Y141.894 E7.5153
G1 X159.738 Y142.250 E7.5373
G1 X160.024 Y142.563 E7.5627
G1 X160.345 Y142.707 E7.5837
G1 X160.788 Y142.725 E7.6103
G1 X178.688 Y132.400 E8.8474
G1 X217.468 Y199.571 E13.4909
G1 X201.194 Y208.966 E14.6159
G1 X201.187 Y204.973 E14.8549
G1 X201.081 Y204.605 E14.8779
G1 X200.768 Y204.283 E14.9047
G1 X200.428 Y204.159 E14.9264
G1 X200.100 Y204.159 E14.9460
G1 X199.858 Y204.250 E14.9615
G1 X191.681 Y208.973 E15.5269
G1 X191.415 Y209.216 E15.5484
G1 X191.282 Y209.615 E15.5736
G1 X191.301 Y209.944 E15.5933
G1 X191.434 Y210.260 E15.6139
G1 X191.671 Y210.484 E15.6334
G1 X195.106 Y212.475 E15.8710
G1 X179.592 Y221.435 E16.9436
G1 X179.419 Y221.535 F1992
; feature solid layer
G1 X179.827 Y220.593 F7200
G92 E0.0000
G1 X179.976 Y220.742 E0.0126 F1920
G1 X180.406 Y220.493 E0.0424
G1 X179.827 Y219.914 E0.0914
G1 X179.827 Y219.235 E0.1320
G1 X180.837 Y220.245 E0.2175
G1 X181.267 Y219.996 E0.2473
G1 X179.827 Y218.556 E0.3692
G1 X179.827 Y217.878 E0.4098
G1 X181.697 Y219.748 E0.5681
G1 X182.127 Y219.499 E0.5979
G1 X179.827 Y217.199 E0.7927
G1 X179.827 Y216.520 E0.8333
G1 X182.558 Y219.251 E1.0645
G1 X182.988 Y219.002 E1.0943
G1 X179.827 Y215.841 E1.3619
G1 X179.827 Y215.162 E1.4025
G1 X183.418 Y218.754 E1.7066
G1 X183.849 Y218.505 E1.7363
G1 X179.827 Y214.483 E2.0768
G1 X179.827 Y213.805 E2.1175
G1 X184.279 Y218.257 E2.4944
G1 X184.709 Y218.008 E2.5242
G1 X179.827 Y213.126 E2.9375
G1 X179.827 Y212.447 E2.9782
G1 X185.140 Y217.759 E3.4280
G1 X185.570 Y217.511 E3.4577
G1 X179.827 Y211.768 E3.9439
G1 X179.827 Y211.089 E3.9846
G1 X186.000 Y217.262 E4.5072
G1 X186.430 Y217.014 E4.5370
G1 X179.827 Y210.410 E5.0961
G1 X179.827 Y209.732 E5.1367
G1 X186.861 Y216.765 E5.7322
G1 X187.291 Y216.517 E5.7620
G1 X179.827 Y209.053 E6.3939
G1 X179.827 Y208.374 E6.4346
G1 X187.721 Y216.268 E7.1030
G1 X188.152 Y216.020 E7.1327
G1 X179.827 Y207.695 E7.8375
G1 X179.827 Y207.016 E7.8782
G1 X188.582 Y215.771 E8.6194
G1 X189.012 Y215.523 E8.6492
G1 X179.827 Y206.338 E9.4269
