; generated by PrusaSlicer 2.3.0+win64 on 2021-02-23 at 21:47:48 UTC

; 

; external perimeters extrusion width = 0.45mm
; perimeters extrusion width = 0.45mm
; infill extrusion width = 0.45mm
; solid infill extrusion width = 0.45mm
; top infill extrusion width = 0.40mm
; support material extrusion width = 0.35mm
; first layer extrusion width = 0.42mm

M107
;TYPE:Custom
G90 ; use absolute coordinates
M83 ; extruder relative mode
M104 S170 ; set extruder temp for bed leveling
M140 S60 ; set bed temp
M109 R170 ; wait for bed leveling extruder temp
M190 S60 ; wait for bed temp
G28 ; home all without mesh bed level
G29 S1 ; mesh bed leveling 
M104 S220 ; set extruder temp
G90 ; use absolute coordinates
G92 E0.0
G0 X20 Y23 Z25 F4800
G1 Z3 F720
M109 S220 ; wait for extruder temp
M290 R0 S-0.20

M98 P"/macros/purge_and_prime"

G92 E0.0

;M221 S95 ; set flow
G21 ; set units to millimeters
G90 ; use absolute coordinates
M82 ; use absolute distances for extrusion
G92 E0
M900 K0 ; Filament gcode
;LAYER_CHANGE
;Z:0.25
;HEIGHT:0.25
G1 Z0.250 F7800.000
;AFTER_LAYER_CHANGE
;0.25
G1 E-2.00000 F2400.000
G92 E0
G1 X89.297 Y152.279 F7800.000
G1 E2.00000 F2400.000
;TYPE:Skirt
;WIDTH:0.42
G1 F1800.000
G1 X90.617 Y151.672 E2.05530
G1 X91.706 Y151.331 E2.09875
G1 X93.037 Y151.097 E2.15024
G1 X146.032 Y146.545 E4.17556
G1 X183.606 Y146.534 E5.60630
G1 X185.270 Y146.680 E5.66992
G1 X186.233 Y146.892 E5.70744
G1 X187.278 Y147.245 E5.74947
G1 X188.768 Y147.998 E5.81304
G1 X189.592 Y148.562 E5.85105
G1 X190.328 Y149.188 E5.88786
G1 X191.436 Y150.404 E5.95049
G1 X192.322 Y151.797 E6.01334
G1 X192.730 Y152.660 E6.04968
G1 X193.067 Y153.626 E6.08863
G1 X193.407 Y155.336 E6.15504
G1 X193.466 Y156.382 E6.19493
G1 X193.466 Y173.669 E6.85316
G1 X193.388 Y174.839 E6.89784
G1 X193.184 Y175.937 E6.94034
G1 X192.766 Y177.249 E6.99280
G1 X192.238 Y178.365 E7.03980
G1 X191.535 Y179.462 E7.08941
G1 X190.837 Y180.301 E7.13096
G1 X189.924 Y181.167 E7.17890
G1 X189.282 Y181.661 E7.20973
G1 X188.331 Y182.257 E7.25247
G1 X187.066 Y182.834 E7.30538
G1 X185.977 Y183.175 E7.34884
G1 X184.645 Y183.409 E7.40033
G1 X131.651 Y187.961 E9.42565
G1 X94.002 Y187.972 E10.85924
G1 X92.652 Y187.867 E10.91080
G1 X91.194 Y187.536 E10.96775
G1 X89.500 Y186.838 E11.03749
G1 X88.307 Y186.102 E11.09087
G1 X87.172 Y185.147 E11.14735
G1 X86.247 Y184.101 E11.20051
G1 X85.480 Y182.935 E11.25368
G1 X84.849 Y181.572 E11.31087
G1 X84.358 Y179.749 E11.38274
G1 X84.218 Y178.249 E11.44010
G1 X84.217 Y160.856 E12.10240
G1 X84.362 Y159.242 E12.16413
G1 X84.600 Y158.183 E12.20543
G1 X85.045 Y156.952 E12.25529
G1 X85.609 Y155.854 E12.30229
G1 X86.400 Y154.718 E12.35498
G1 X87.200 Y153.837 E12.40032
G1 X88.222 Y152.970 E12.45136
G1 X89.247 Y152.311 E12.49773
G1 E10.49773 F2400.000
G92 E0
G1 X97.296 Y167.498 F7800.000
G1 E2.00000 F2400.000
;TYPE:Support material
G1 F1800.000
G1 X97.296 Y170.976 E2.13243
G1 X97.365 Y171.234 E2.14259
G1 X97.575 Y171.780 E2.16488
G1 X97.841 Y172.301 E2.18716
G1 X98.029 Y172.591 E2.20032
G1 X98.029 Y166.420 E2.43529
G1 X98.159 Y166.219 E2.44442
G1 X98.528 Y165.764 E2.46670
G1 X98.762 Y165.531 E2.47930
G1 X98.762 Y173.481 E2.78202
G1 X98.942 Y173.661 E2.79171
G1 X99.494 Y174.093 E2.81842
G1 X99.494 Y164.919 E3.16775
G1 X99.887 Y164.664 E3.18559
G1 X100.227 Y164.490 E3.20011
G1 X100.227 Y174.521 E3.58205
G1 X100.409 Y174.614 E3.58981
G1 X100.960 Y174.825 E3.61228
G1 X100.960 Y164.187 E4.01734
G1 X101.520 Y164.037 E4.03944
G1 X101.692 Y164.009 E4.04607
G1 X101.692 Y175.002 E4.46464
G1 X102.098 Y175.066 E4.48030
G1 X102.425 Y175.084 E4.49275
G1 X102.425 Y163.928 E4.91753
G1 X102.683 Y163.914 E4.92736
G1 X103.158 Y163.939 E4.94547
G1 X103.158 Y175.072 E5.36937
G1 X103.890 Y174.963 E5.39758
G1 X103.890 Y164.049 E5.81316
G1 X104.411 Y164.188 E5.83367
G1 X104.623 Y164.270 E5.84233
G1 X104.623 Y174.742 E6.24109
G1 X104.957 Y174.614 E6.25470
G1 X105.356 Y174.410 E6.27175
G1 X105.356 Y164.601 E6.64526
G1 X105.969 Y164.982 E6.67276
G1 X106.089 Y165.079 E6.67861
G1 X106.089 Y173.933 E7.01574
G1 X106.424 Y173.661 E7.03218
G1 X106.821 Y173.264 E7.05356
G1 X106.821 Y165.748 E7.33975
G1 X107.206 Y166.219 E7.36293
G1 X107.554 Y166.767 E7.38763
G1 X107.554 Y172.560 E7.60820
G1 E5.60820 F2400.000
G92 E0
G1 X117.812 Y166.452 F7800.000
G1 E2.00000 F2400.000
G1 F1800.000
G1 X117.812 Y172.245 E2.22057
G1 X118.159 Y172.792 E2.24527
G1 X118.544 Y173.264 E2.26845
G1 X118.544 Y165.748 E2.55464
G1 X118.942 Y165.351 E2.57602
G1 X119.277 Y165.079 E2.59247
G1 X119.277 Y173.933 E2.92959
G1 X119.396 Y174.029 E2.93544
G1 X120.010 Y174.410 E2.96294
G1 X120.010 Y164.601 E3.33645
G1 X120.409 Y164.398 E3.35350
G1 X120.743 Y164.270 E3.36712
G1 X120.743 Y174.742 E3.76587
G1 X120.955 Y174.823 E3.77453
G1 X121.475 Y174.963 E3.79504
G1 X121.475 Y164.049 E4.21062
G1 X122.208 Y163.939 E4.23883
G1 X122.208 Y175.072 E4.66274
G1 X122.683 Y175.097 E4.68084
G1 X122.941 Y175.084 E4.69067
G1 X122.941 Y163.928 E5.11545
G1 X123.267 Y163.945 E5.12790
G1 X123.673 Y164.009 E5.14356
G1 X123.673 Y175.002 E5.56213
G1 X123.845 Y174.975 E5.56876
G1 X124.406 Y174.825 E5.59087
G1 X124.406 Y164.187 E5.99592
G1 X124.957 Y164.398 E6.01839
G1 X125.139 Y164.490 E6.02615
G1 X125.139 Y174.521 E6.40809
G1 X125.479 Y174.348 E6.42261
G1 X125.871 Y174.093 E6.44045
G1 X125.871 Y164.919 E6.78978
G1 X126.424 Y165.351 E6.81649
G1 X126.604 Y165.531 E6.82618
G1 X126.604 Y173.481 E7.12891
G1 X126.838 Y173.247 E7.14150
G1 X127.206 Y172.792 E7.16378
G1 X127.337 Y172.591 E7.17291
G1 X127.337 Y166.420 E7.40788
G1 X127.525 Y166.710 E7.42104
G1 X127.791 Y167.232 E7.44332
G1 X128.000 Y167.778 E7.46561
G1 X128.070 Y168.036 E7.47577
G1 X128.070 Y171.514 E7.60820
G1 X129.477 Y171.713 F7800.000
;TYPE:Perimeter
G1 F1800.000
G1 X129.209 Y172.412 E7.63667
G1 X128.870 Y173.078 E7.66515
G1 X128.463 Y173.705 E7.69362
G1 X127.992 Y174.286 E7.72210
G1 X127.463 Y174.815 E7.75057
G1 X126.882 Y175.286 E7.77905
G1 X126.255 Y175.693 E7.80752
G1 X125.589 Y176.032 E7.83599
G1 X124.891 Y176.300 E7.86447
G1 X124.168 Y176.494 E7.89294
G1 X123.430 Y176.611 E7.92142
G1 X122.683 Y176.650 E7.94989
G1 X121.936 Y176.611 E7.97837
G1 X121.198 Y176.494 E8.00684
G1 X120.475 Y176.300 E8.03532
G1 X119.777 Y176.032 E8.06379
G1 X119.111 Y175.693 E8.09227
G1 X118.484 Y175.286 E8.12074
G1 X117.902 Y174.815 E8.14922
G1 X117.394 Y174.306 E8.17662
G1 X116.904 Y173.707 E8.20609
G1 X116.496 Y173.078 E8.23463
G1 X116.156 Y172.412 E8.26311
G1 X115.888 Y171.713 E8.29158
G1 X115.695 Y170.991 E8.32006
G1 X115.578 Y170.253 E8.34853
G1 X115.539 Y169.506 E8.37701
G1 X115.578 Y168.759 E8.40548
G1 X115.695 Y168.020 E8.43396
G1 X115.888 Y167.298 E8.46243
G1 X116.156 Y166.600 E8.49091
G1 X116.496 Y165.934 E8.51938
G1 X116.903 Y165.306 E8.54785
G1 X117.374 Y164.725 E8.57633
G1 X117.902 Y164.197 E8.60480
G1 X118.484 Y163.726 E8.63328
G1 X119.111 Y163.319 E8.66175
G1 X119.777 Y162.979 E8.69023
G1 X120.475 Y162.711 E8.71870
G1 X121.198 Y162.518 E8.74718
G1 X121.936 Y162.401 E8.77565
G1 X122.655 Y162.363 E8.80306
G1 X123.428 Y162.400 E8.83252
G1 X124.168 Y162.518 E8.86107
G1 X124.891 Y162.711 E8.88954
G1 X125.589 Y162.979 E8.91802
G1 X126.255 Y163.319 E8.94649
G1 X126.882 Y163.726 E8.97497
G1 X127.463 Y164.197 E9.00344
G1 X127.992 Y164.725 E9.03192
G1 X128.463 Y165.306 E9.06039
G1 X128.870 Y165.934 E9.08887
G1 X129.209 Y166.600 E9.11734
G1 X129.477 Y167.298 E9.14581
G1 X129.671 Y168.020 E9.17429
G1 X129.788 Y168.759 E9.20276
G1 X129.827 Y169.506 E9.23124
G1 X129.788 Y170.253 E9.25971
G1 X129.671 Y170.991 E9.28819
G1 X129.493 Y171.656 E9.31438
G1 X129.139 Y171.561 F7800.000
G1 F1800.000
G1 X128.874 Y172.262 E9.34294
G1 X128.552 Y172.894 E9.36995
G1 X128.166 Y173.489 E9.39696
G1 X127.719 Y174.041 E9.42397
G1 X127.218 Y174.542 E9.45099
G1 X126.667 Y174.989 E9.47800
G1 X126.072 Y175.375 E9.50501
G1 X125.440 Y175.697 E9.53202
G1 X124.777 Y175.951 E9.55904
G1 X124.092 Y176.135 E9.58605
G1 X123.391 Y176.246 E9.61306
G1 X122.683 Y176.283 E9.64007
G1 X121.974 Y176.246 E9.66709
G1 X121.274 Y176.135 E9.69410
G1 X120.589 Y175.951 E9.72111
G1 X119.926 Y175.697 E9.74812
G1 X119.294 Y175.375 E9.77514
G1 X118.699 Y174.989 E9.80215
G1 X118.148 Y174.542 E9.82916
G1 X117.666 Y174.060 E9.85513
G1 X117.200 Y173.490 E9.88314
G1 X116.813 Y172.894 E9.91019
G1 X116.491 Y172.262 E9.93720
G1 X116.237 Y171.600 E9.96422
G1 X116.054 Y170.915 E9.99123
G1 X115.943 Y170.214 E10.01824
G1 X115.905 Y169.506 E10.04525
G1 X115.943 Y168.797 E10.07227
G1 X116.054 Y168.097 E10.09928
G1 X116.237 Y167.411 E10.12629
G1 X116.491 Y166.749 E10.15330
G1 X116.813 Y166.117 E10.18032
G1 X117.200 Y165.522 E10.20733
G1 X117.646 Y164.971 E10.23434
G1 X118.148 Y164.469 E10.26135
G1 X118.699 Y164.023 E10.28837
G1 X119.294 Y163.636 E10.31538
G1 X119.926 Y163.314 E10.34239
G1 X120.589 Y163.060 E10.36940
G1 X121.274 Y162.876 E10.39642
G1 X121.974 Y162.765 E10.42343
G1 X122.656 Y162.730 E10.44940
G1 X123.390 Y162.765 E10.47740
G1 X124.092 Y162.876 E10.50446
G1 X124.777 Y163.060 E10.53147
G1 X125.440 Y163.314 E10.55849
G1 X126.072 Y163.636 E10.58550
G1 X126.667 Y164.023 E10.61251
G1 X127.218 Y164.469 E10.63952
G1 X127.719 Y164.971 E10.66654
G1 X128.166 Y165.522 E10.69355
G1 X128.552 Y166.117 E10.72056
G1 X128.874 Y166.749 E10.74757
G1 X129.129 Y167.411 E10.77458
G1 X129.312 Y168.097 E10.80160
G1 X129.423 Y168.797 E10.82861
G1 X129.460 Y169.506 E10.85562
G1 X129.423 Y170.214 E10.88263
G1 X129.312 Y170.915 E10.90965
G1 X129.155 Y171.503 E10.93282
G1 X128.801 Y171.408 F7800.000
;TYPE:External perimeter
G1 F1800.000
G1 X128.539 Y172.113 E10.96146
G1 X128.235 Y172.711 E10.98701
G1 X127.869 Y173.274 E11.01257
G1 X127.447 Y173.795 E11.03812
G1 X126.972 Y174.270 E11.06367
G1 X126.451 Y174.692 E11.08922
G1 X125.888 Y175.057 E11.11477
G1 X125.290 Y175.362 E11.14032
G1 X124.664 Y175.603 E11.16587
G1 X124.016 Y175.776 E11.19142
G1 X123.353 Y175.881 E11.21697
G1 X122.683 Y175.916 E11.24252
G1 X122.013 Y175.881 E11.26807
G1 X121.350 Y175.776 E11.29362
G1 X120.702 Y175.603 E11.31917
G1 X120.075 Y175.362 E11.34472
G1 X119.478 Y175.057 E11.37027
G1 X118.915 Y174.692 E11.39582
G1 X118.393 Y174.270 E11.42137
G1 X117.938 Y173.814 E11.44591
G1 X117.497 Y173.274 E11.47245
G1 X117.131 Y172.711 E11.49801
G1 X116.827 Y172.113 E11.52356
G1 X116.586 Y171.487 E11.54911
G1 X116.412 Y170.839 E11.57467
G1 X116.307 Y170.176 E11.60022
G1 X116.272 Y169.506 E11.62577
G1 X116.307 Y168.836 E11.65132
G1 X116.412 Y168.173 E11.67687
G1 X116.586 Y167.525 E11.70242
G1 X116.827 Y166.898 E11.72797
G1 X117.131 Y166.300 E11.75352
G1 X117.497 Y165.738 E11.77907
G1 X117.919 Y165.216 E11.80462
G1 X118.393 Y164.742 E11.83017
G1 X118.915 Y164.320 E11.85572
G1 X119.478 Y163.954 E11.88127
G1 X120.075 Y163.649 E11.90682
G1 X120.702 Y163.409 E11.93237
G1 X121.350 Y163.235 E11.95792
G1 X122.013 Y163.130 E11.98347
G1 X122.656 Y163.097 E12.00801
G1 X123.353 Y163.130 E12.03455
G1 X124.016 Y163.235 E12.06012
G1 X124.664 Y163.409 E12.08567
G1 X125.290 Y163.649 E12.11122
G1 X125.888 Y163.954 E12.13677
G1 X126.451 Y164.320 E12.16232
G1 X126.972 Y164.742 E12.18787
G1 X127.447 Y165.216 E12.21342
G1 X127.869 Y165.738 E12.23897
G1 X128.235 Y166.300 E12.26452
G1 X128.539 Y166.898 E12.29007
G1 X128.780 Y167.525 E12.31562
G1 X128.953 Y168.173 E12.34117
G1 X129.058 Y168.836 E12.36672
G1 X129.093 Y169.506 E12.39227
G1 X129.058 Y170.176 E12.41782
G1 X128.953 Y170.839 E12.44337
G1 X128.816 Y171.350 E12.46353
G1 X129.071 Y171.703 F7800.000
G1 E10.46353 F2400.000
G92 E0
G1 X109.788 Y170.253 F7800.000
G1 E2.00000 F2400.000
;TYPE:Perimeter
G1 F1800.000
G1 X109.671 Y170.991 E2.02848
G1 X109.477 Y171.713 E2.05695
G1 X109.209 Y172.412 E2.08542
G1 X108.870 Y173.078 E2.11390
G1 X108.463 Y173.705 E2.14237
G1 X107.992 Y174.286 E2.17085
G1 X107.463 Y174.815 E2.19932
G1 X106.882 Y175.286 E2.22780
G1 X106.255 Y175.693 E2.25627
G1 X105.589 Y176.032 E2.28475
G1 X104.891 Y176.300 E2.31322
G1 X104.168 Y176.494 E2.34170
G1 X103.430 Y176.611 E2.37017
G1 X102.683 Y176.650 E2.39864
G1 X101.936 Y176.611 E2.42712
G1 X101.198 Y176.494 E2.45559
G1 X100.475 Y176.300 E2.48407
G1 X99.777 Y176.032 E2.51254
G1 X99.111 Y175.693 E2.54102
G1 X98.484 Y175.286 E2.56949
G1 X97.902 Y174.815 E2.59797
G1 X97.374 Y174.286 E2.62644
G1 X96.903 Y173.705 E2.65492
G1 X96.496 Y173.078 E2.68339
G1 X96.156 Y172.412 E2.71186
G1 X95.888 Y171.713 E2.74034
G1 X95.695 Y170.991 E2.76881
G1 X95.578 Y170.253 E2.79729
G1 X95.539 Y169.506 E2.82576
G1 X95.578 Y168.759 E2.85424
G1 X95.695 Y168.020 E2.88271
G1 X95.888 Y167.298 E2.91119
G1 X96.156 Y166.600 E2.93966
G1 X96.496 Y165.934 E2.96814
G1 X96.903 Y165.306 E2.99661
G1 X97.374 Y164.725 E3.02508
G1 X97.902 Y164.197 E3.05356
G1 X98.484 Y163.726 E3.08203
G1 X99.111 Y163.319 E3.11051
G1 X99.777 Y162.979 E3.13898
G1 X100.475 Y162.711 E3.16746
G1 X101.198 Y162.518 E3.19593
G1 X101.936 Y162.401 E3.22441
G1 X102.655 Y162.363 E3.25181
G1 X103.428 Y162.400 E3.28128
G1 X104.168 Y162.518 E3.30983
G1 X104.891 Y162.711 E3.33830
G1 X105.589 Y162.979 E3.36678
G1 X106.255 Y163.319 E3.39525
G1 X106.882 Y163.726 E3.42372
G1 X107.463 Y164.197 E3.45220
G1 X107.992 Y164.725 E3.48067
G1 X108.463 Y165.306 E3.50915
G1 X108.870 Y165.934 E3.53762
G1 X109.209 Y166.600 E3.56610
G1 X109.477 Y167.298 E3.59457
G1 X109.671 Y168.020 E3.62305
G1 X109.788 Y168.759 E3.65152
G1 X109.827 Y169.506 E3.68000
G1 X109.791 Y170.193 E3.70618
G1 X109.425 Y170.173 F7800.000
G1 F1800.000
G1 X109.312 Y170.915 E3.73474
G1 X109.129 Y171.600 E3.76176
G1 X108.874 Y172.262 E3.78877
G1 X108.552 Y172.894 E3.81578
G1 X108.166 Y173.489 E3.84279
G1 X107.719 Y174.041 E3.86981
G1 X107.218 Y174.542 E3.89682
G1 X106.667 Y174.989 E3.92383
G1 X106.072 Y175.375 E3.95084
G1 X105.440 Y175.697 E3.97785
G1 X104.777 Y175.951 E4.00487
G1 X104.092 Y176.135 E4.03188
G1 X103.391 Y176.246 E4.05889
G1 X102.683 Y176.283 E4.08590
G1 X101.974 Y176.246 E4.11292
G1 X101.274 Y176.135 E4.13993
G1 X100.589 Y175.951 E4.16694
G1 X99.926 Y175.697 E4.19395
G1 X99.294 Y175.375 E4.22097
G1 X98.699 Y174.989 E4.24798
G1 X98.148 Y174.542 E4.27499
G1 X97.646 Y174.041 E4.30200
G1 X97.200 Y173.489 E4.32902
G1 X96.813 Y172.894 E4.35603
G1 X96.491 Y172.262 E4.38304
G1 X96.237 Y171.600 E4.41005
G1 X96.054 Y170.915 E4.43707
G1 X95.943 Y170.214 E4.46408
G1 X95.905 Y169.506 E4.49109
G1 X95.943 Y168.797 E4.51810
G1 X96.054 Y168.097 E4.54512
G1 X96.237 Y167.411 E4.57213
G1 X96.491 Y166.749 E4.59914
G1 X96.813 Y166.117 E4.62615
G1 X97.200 Y165.522 E4.65317
G1 X97.646 Y164.971 E4.68018
G1 X98.148 Y164.469 E4.70719
G1 X98.699 Y164.023 E4.73420
G1 X99.294 Y163.636 E4.76122
G1 X99.926 Y163.314 E4.78823
G1 X100.589 Y163.060 E4.81524
G1 X101.274 Y162.876 E4.84225
G1 X101.974 Y162.765 E4.86927
G1 X102.656 Y162.730 E4.89524
G1 X103.390 Y162.765 E4.92324
G1 X104.092 Y162.876 E4.95030
G1 X104.777 Y163.060 E4.97731
G1 X105.440 Y163.314 E5.00432
G1 X106.072 Y163.636 E5.03133
G1 X106.667 Y164.023 E5.05835
G1 X107.218 Y164.469 E5.08536
G1 X107.719 Y164.971 E5.11237
G1 X108.166 Y165.522 E5.13938
G1 X108.552 Y166.117 E5.16640
G1 X108.874 Y166.749 E5.19341
G1 X109.129 Y167.411 E5.22042
G1 X109.312 Y168.097 E5.24743
G1 X109.423 Y168.797 E5.27445
G1 X109.460 Y169.506 E5.30146
G1 X109.428 Y170.114 E5.32463
G1 X109.063 Y170.094 F7800.000
;TYPE:External perimeter
G1 F1800.000
G1 X108.953 Y170.839 E5.35328
G1 X108.780 Y171.487 E5.37883
G1 X108.539 Y172.113 E5.40438
G1 X108.235 Y172.711 E5.42993
G1 X107.869 Y173.274 E5.45548
G1 X107.447 Y173.795 E5.48103
G1 X106.972 Y174.270 E5.50658
G1 X106.451 Y174.692 E5.53213
G1 X105.888 Y175.057 E5.55768
G1 X105.290 Y175.362 E5.58323
G1 X104.664 Y175.603 E5.60878
G1 X104.016 Y175.776 E5.63433
G1 X103.353 Y175.881 E5.65988
G1 X102.683 Y175.916 E5.68543
G1 X102.013 Y175.881 E5.71098
G1 X101.350 Y175.776 E5.73653
G1 X100.702 Y175.603 E5.76208
G1 X100.075 Y175.362 E5.78763
G1 X99.478 Y175.057 E5.81318
G1 X98.915 Y174.692 E5.83873
G1 X98.393 Y174.270 E5.86428
G1 X97.919 Y173.795 E5.88983
G1 X97.497 Y173.274 E5.91538
G1 X97.131 Y172.711 E5.94093
G1 X96.827 Y172.113 E5.96648
G1 X96.586 Y171.487 E5.99203
G1 X96.412 Y170.839 E6.01758
G1 X96.307 Y170.176 E6.04313
G1 X96.272 Y169.506 E6.06868
G1 X96.307 Y168.836 E6.09423
