; generated by PrusaSlicer 2.3.0+win64 on 2021-02-20 at 18:57:15 UTC

; 

; external perimeters extrusion width = 0.45mm
; perimeters extrusion width = 0.45mm
; infill extrusion width = 0.45mm
; solid infill extrusion width = 0.45mm
; top infill extrusion width = 0.40mm
; first layer extrusion width = 0.42mm

M107
;TYPE:Custom
G90 ; use absolute coordinates
M83 ; extruder relative mode
M104 S170 ; set extruder temp for bed leveling
M140 S70 ; set bed temp
M109 R170 ; wait for bed leveling extruder temp
M190 S70 ; wait for bed temp
G28 ; home all without mesh bed level
G29 S1 ; mesh bed leveling 
M104 S215 ; set extruder temp
G90 ; use absolute coordinates
G92 E0.0
G0 X20 Y23 Z25 F4800
G1 Z3 F720
M109 S215 ; wait for extruder temp

; intro line
G92 E0 ; reset extrusion distance
G1 Z0.2 F720
G1 X24
G1 X90.0 E9.0  F1000.0 ; priming
G1 X130.0 E12.5  F1000.0 ; priming

G92 E0.0

;M221 S95 ; set flow
G21 ; set units to millimeters
G90 ; use absolute coordinates
M82 ; use absolute distances for extrusion
G92 E0
M900 K0.05 ; Filament gcode LA 1.5
M900 K30 ; Filament gcode LA 1.0
;LAYER_CHANGE
;Z:0.35
;HEIGHT:0.35
G1 Z0.350 F7800.000
;AFTER_LAYER_CHANGE
;0.35
G1 E-2.00000 F2400.000
G92 E0
G1 X134.354 Y154.827 F7800.000
G1 E2.00000 F2400.000
;TYPE:Skirt
;WIDTH:0.42
G1 F1800.000
G1 X135.548 Y153.613 E2.07691
G1 X136.489 Y152.952 E2.12883
G1 X137.510 Y152.433 E2.18057
G1 X138.570 Y152.070 E2.23118
G1 X139.735 Y151.847 E2.28474
G1 X164.957 Y150.267 E3.42620
G1 X167.747 Y150.436 E3.55245
G1 X170.656 Y151.004 E3.68630
G1 X173.408 Y151.935 E3.81753
G1 X175.960 Y153.196 E3.94612
G1 X178.400 Y154.834 E4.07884
G1 X180.574 Y156.762 E4.21008
G1 X182.494 Y158.993 E4.34304
G1 X183.984 Y161.262 E4.46565
G1 X184.644 Y162.837 E4.54277
G1 X184.938 Y164.426 E4.61578
G1 X184.878 Y166.100 E4.69144
G1 X184.457 Y167.721 E4.76707
G1 X184.092 Y168.537 E4.80743
G1 X183.527 Y169.502 E4.85797
G1 X182.110 Y171.505 E4.96877
G1 X180.519 Y173.293 E5.07685
G1 X178.799 Y174.849 E5.18166
G1 X177.383 Y175.907 E5.26147
G1 X175.690 Y176.957 E5.35144
G1 X174.015 Y177.802 E5.43621
G1 X172.249 Y178.507 E5.52207
G1 X170.537 Y179.027 E5.60290
G1 X168.722 Y179.419 E5.68676
G1 X166.927 Y179.651 E5.76850
G1 X165.163 Y179.732 E5.84829
G1 X163.253 Y179.664 E5.93460
G1 X139.538 Y178.128 E7.00799
G1 X138.041 Y177.770 E7.07751
G1 X136.648 Y177.141 E7.14657
G1 X135.456 Y176.310 E7.21217
G1 X134.405 Y175.237 E7.28002
G1 X133.737 Y174.276 E7.33290
G1 X133.230 Y173.269 E7.38381
G1 X132.860 Y172.171 E7.43613
G1 X132.649 Y171.039 E7.48815
G1 X132.591 Y170.080 E7.53154
G1 X132.605 Y159.477 E8.01044
G1 X132.862 Y157.820 E8.08620
G1 X133.456 Y156.240 E8.16240
G1 X134.322 Y154.878 E8.23535
G1 E6.23535 F2400.000
G92 E0
G1 X164.154 Y163.078 F7800.000
G1 E2.00000 F2400.000
;TYPE:External perimeter
G1 F1800.000
G1 X164.340 Y163.110 E2.00855
G1 X164.567 Y163.231 E2.02016
G1 X164.703 Y163.358 E2.02856
G1 X164.816 Y163.510 E2.03712
G1 X164.908 Y163.706 E2.04691
G1 X164.998 Y164.044 E2.06271
G1 X165.031 Y164.112 E2.06613
G1 X165.169 Y164.177 E2.07299
G1 X165.380 Y163.963 E2.08659
G1 X165.463 Y163.653 E2.10106
G1 X165.638 Y163.386 E2.11551
G1 X165.848 Y163.203 E2.12807
G1 X166.092 Y163.093 E2.14016
G1 X166.372 Y163.094 E2.15281
G1 X166.549 Y163.164 E2.16138
G1 X166.696 Y163.260 E2.16933
G1 X166.915 Y163.492 E2.18377
G1 X166.981 Y163.693 E2.19330
G1 X167.007 Y163.935 E2.20432
G1 X166.955 Y164.296 E2.22077
G1 X166.639 Y164.880 E2.25075
G1 X166.265 Y165.493 E2.28321
G1 X166.194 Y165.714 E2.29368
G1 X166.229 Y165.851 E2.30009
G1 X166.952 Y167.061 E2.36375
G1 X167.087 Y167.420 E2.38107
G1 X167.103 Y167.723 E2.39476
G1 X167.037 Y168.011 E2.40813
G1 X166.877 Y168.250 E2.42109
G1 X166.654 Y168.412 E2.43355
G1 X166.388 Y168.497 E2.44617
G1 X166.100 Y168.499 E2.45916
G1 X165.900 Y168.444 E2.46856
G1 X165.678 Y168.293 E2.48067
G1 X165.473 Y167.999 E2.49687
G1 X165.312 Y167.413 E2.52431
G1 X165.057 Y167.321 E2.53657
G1 X164.953 Y167.365 E2.54168
G1 X164.909 Y167.455 E2.54618
G1 X164.904 Y167.578 E2.55176
G1 X164.731 Y168.013 E2.57289
G1 X164.562 Y168.244 E2.58582
G1 X164.423 Y168.367 E2.59421
G1 X164.239 Y168.445 E2.60324
G1 X163.962 Y168.458 E2.61576
G1 X163.635 Y168.336 E2.63154
G1 X163.428 Y168.118 E2.64512
G1 X163.348 Y167.877 E2.65657
G1 X163.340 Y167.683 E2.66534
G1 X163.363 Y167.490 E2.67413
G1 X163.466 Y167.054 E2.69437
G1 X163.849 Y166.231 E2.73536
G1 X164.178 Y165.768 E2.76100
G1 X163.946 Y165.419 E2.77994
G1 X163.423 Y164.491 E2.82807
G1 X163.308 Y164.209 E2.84181
G1 X163.262 Y164.008 E2.85111
G1 X163.280 Y163.675 E2.86621
G1 X163.403 Y163.430 E2.87857
G1 X163.535 Y163.287 E2.88735
G1 X163.694 Y163.183 E2.89596
G1 X163.955 Y163.094 E2.90840
G1 X164.094 Y163.083 E2.91469
G1 X164.255 Y162.918 F7800.000
G1 E0.91469 F2400.000
G92 E0
G1 X162.153 Y166.015 F7800.000
G1 E2.00000 F2400.000
G1 F1800.000
G1 X162.395 Y166.108 E2.01171
G1 X162.614 Y166.247 E2.02341
G1 X162.791 Y166.429 E2.03487
G1 X162.931 Y166.638 E2.04625
G1 X163.015 Y166.879 E2.05778
G1 X163.044 Y167.120 E2.06875
G1 X163.022 Y167.435 E2.08300
G1 X162.963 Y167.824 E2.10075
G1 X162.904 Y168.052 E2.11141
G1 X162.777 Y168.282 E2.12328
G1 X162.516 Y168.534 E2.13968
G1 X162.288 Y168.670 E2.15165
G1 X161.929 Y168.765 E2.16843
G1 X161.675 Y168.773 E2.17990
G1 X161.423 Y168.732 E2.19143
G1 X161.191 Y168.648 E2.20259
G1 X160.976 Y168.524 E2.21379
G1 X160.844 Y168.414 E2.22156
G1 X160.703 Y168.249 E2.23135
G1 X160.578 Y168.030 E2.24273
G1 X160.512 Y167.786 E2.25416
G1 X160.494 Y167.540 E2.26533
G1 X160.631 Y166.949 E2.29269
G1 X160.724 Y166.752 E2.30254
G1 X160.844 Y166.583 E2.31191
G1 X161.193 Y166.199 E2.33534
G1 X161.521 Y166.029 E2.35205
G1 X161.785 Y165.985 E2.36412
G1 X162.094 Y166.010 E2.37810
G1 X162.332 Y165.827 F7800.000
G1 E0.37810 F2400.000
G92 E0
G1 X156.080 Y168.192 F7800.000
G1 E2.00000 F2400.000
G1 F1800.000
G1 X155.943 Y168.065 E2.00843
G1 X155.809 Y167.845 E2.02008
G1 X155.728 Y167.576 E2.03277
G1 X155.702 Y167.271 E2.04656
G1 X155.720 Y166.663 E2.07405
G1 X155.724 Y163.055 E2.23703
G1 X155.682 Y162.515 E2.26149
G1 X155.692 Y162.333 E2.26973
G1 X155.737 Y162.159 E2.27783
G1 X155.842 Y161.971 E2.28756
G1 X156.048 Y161.792 E2.29989
G1 X156.386 Y161.660 E2.31627
G1 X156.725 Y161.625 E2.33168
G1 X158.354 Y161.660 E2.40526
G1 X158.957 Y161.749 E2.43282
G1 X159.329 Y161.854 E2.45026
G1 X159.738 Y162.055 E2.47085
G1 X159.938 Y162.198 E2.48193
G1 X160.168 Y162.406 E2.49596
G1 X160.334 Y162.595 E2.50734
G1 X160.485 Y162.810 E2.51920
G1 X160.734 Y163.279 E2.54317
G1 X160.908 Y163.817 E2.56870
G1 X160.972 Y164.131 E2.58318
G1 X161.011 Y164.461 E2.59818
G1 X161.026 Y164.805 E2.61373
G1 X161.015 Y165.176 E2.63053
G1 X160.958 Y165.540 E2.64718
G1 X160.905 Y165.722 E2.65572
G1 X160.779 Y166.030 E2.67074
G1 X160.639 Y166.281 E2.68375
G1 X160.443 Y166.753 E2.70681
G1 X160.021 Y167.477 E2.74468
G1 X159.849 Y167.698 E2.75729
G1 X159.644 Y167.866 E2.76927
G1 X159.426 Y168.004 E2.78093
G1 X159.197 Y168.103 E2.79219
G1 X158.827 Y168.203 E2.80950
G1 X158.389 Y168.267 E2.82954
G1 X157.853 Y168.295 E2.85374
G1 X157.043 Y168.285 E2.89037
G1 X156.508 Y168.329 E2.91457
G1 X156.248 Y168.283 E2.92651
G1 X156.133 Y168.220 E2.93242
G1 X155.912 Y168.272 F7800.000
G1 E0.93242 F2400.000
G92 E0
G1 X155.377 Y165.135 F7800.000
G1 E2.00000 F2400.000
;TYPE:Perimeter
G1 F1800.000
G1 X155.215 Y165.171 E2.00747
G1 X155.073 Y164.871 E2.02250
G1 X154.853 Y164.627 E2.03732
G1 X154.622 Y164.479 E2.04973
G1 X154.899 Y164.264 E2.06560
G1 X155.070 Y163.963 E2.08123
G1 X155.195 Y163.423 E2.10625
G1 X155.379 Y163.444 E2.11460
G1 X155.377 Y165.075 E2.18827
G1 X154.022 Y164.509 F7800.000
;TYPE:External perimeter
G1 F1800.000
G1 X154.301 Y164.650 E2.20239
G1 X154.440 Y164.773 E2.21080
G1 X154.628 Y164.892 E2.22087
G1 X154.783 Y165.064 E2.23130
G1 X154.983 Y165.488 E2.25246
G1 X155.107 Y165.998 E2.27621
G1 X155.120 Y166.346 E2.29191
G1 X155.044 Y166.798 E2.31262
G1 X154.865 Y167.257 E2.33490
G1 X154.593 Y167.670 E2.35723
G1 X154.334 Y167.932 E2.37386
G1 X153.944 Y168.199 E2.39520
G1 X153.608 Y168.342 E2.41170
G1 X153.133 Y168.446 E2.43366
G1 X152.725 Y168.467 E2.45213
G1 X152.299 Y168.447 E2.47139
G1 X151.910 Y168.375 E2.48925
G1 X151.604 Y168.274 E2.50379
G1 X151.332 Y168.131 E2.51770
G1 X151.099 Y167.935 E2.53144
G1 X150.932 Y167.714 E2.54397
G1 X150.826 Y167.446 E2.55698
G1 X150.788 Y167.145 E2.57069
G1 X150.832 Y166.859 E2.58376
G1 X150.970 Y166.602 E2.59691
G1 X151.175 Y166.419 E2.60933
G1 X151.420 Y166.314 E2.62135
G1 X151.614 Y166.277 E2.63026
G1 X151.815 Y166.277 E2.63934
G1 X152.149 Y166.352 E2.65481
G1 X152.391 Y166.485 E2.66729
G1 X152.722 Y166.732 E2.68593
G1 X152.801 Y166.755 E2.68965
G1 X152.894 Y166.743 E2.69388
G1 X153.024 Y166.680 E2.70040
G1 X153.124 Y166.585 E2.70662
G1 X153.190 Y166.459 E2.71307
G1 X153.215 Y166.315 E2.71968
G1 X153.196 Y166.170 E2.72629
G1 X153.116 Y165.994 E2.73502
G1 X153.016 Y165.863 E2.74246
G1 X152.889 Y165.748 E2.75020
G1 X152.686 Y165.637 E2.76064
G1 X152.503 Y165.584 E2.76926
G1 X152.074 Y165.509 E2.78894
G1 X151.776 Y165.379 E2.80362
G1 X151.629 Y165.236 E2.81287
G1 X151.533 Y165.075 E2.82131
G1 X151.473 Y164.810 E2.83360
G1 X151.484 Y164.613 E2.84253
G1 X151.559 Y164.351 E2.85484
G1 X151.648 Y164.164 E2.86420
G1 X151.788 Y164.004 E2.87379
G1 X152.069 Y163.853 E2.88818
G1 X152.317 Y163.770 E2.90000
G1 X152.685 Y163.683 E2.91709
G1 X152.773 Y163.634 E2.92161
G1 X152.894 Y163.499 E2.92982
G1 X152.919 Y163.413 E2.93387
G1 X152.889 Y163.273 E2.94035
G1 X152.827 Y163.204 E2.94453
G1 X152.657 Y163.193 E2.95226
G1 X152.483 Y163.247 E2.96048
G1 X152.164 Y163.434 E2.97717
G1 X151.930 Y163.540 E2.98880
G1 X151.715 Y163.601 E2.99889
G1 X151.515 Y163.603 E3.00791
G1 X151.327 Y163.526 E3.01709
G1 X151.100 Y163.330 E3.03066
G1 X150.921 Y163.105 E3.04362
G1 X150.858 Y162.891 E3.05373
G1 X150.852 Y162.567 E3.06833
G1 X150.932 Y162.246 E3.08329
G1 X151.113 Y162.022 E3.09631
G1 X151.340 Y161.834 E3.10960
G1 X151.547 Y161.711 E3.12047
G1 X151.987 Y161.549 E3.14166
G1 X152.363 Y161.483 E3.15891
G1 X152.708 Y161.461 E3.17453
G1 X153.147 Y161.479 E3.19438
G1 X153.426 Y161.521 E3.20709
G1 X153.758 Y161.609 E3.22262
G1 X153.987 Y161.706 E3.23384
G1 X154.262 Y161.878 E3.24851
G1 X154.433 Y162.030 E3.25884
G1 X154.636 Y162.276 E3.27325
G1 X154.743 Y162.474 E3.28343
G1 X154.839 Y162.764 E3.29720
G1 X154.872 Y163.077 E3.31141
G1 X154.864 Y163.323 E3.32253
G1 X154.745 Y163.836 E3.34634
G1 X154.633 Y164.034 E3.35659
G1 X154.444 Y164.180 E3.36741
G1 X154.314 Y164.319 E3.37603
G1 X154.072 Y164.476 E3.38903
G1 X154.333 Y164.537 F7800.000
G1 E1.38903 F2400.000
G92 E0
G1 X169.460 Y171.151 F7800.000
G1 E2.00000 F2400.000
;TYPE:Perimeter
G1 F1800.000
G1 X169.705 Y170.956 E2.01417
G1 X169.923 Y170.696 E2.02946
G1 X170.155 Y170.319 E2.04948
G1 X170.463 Y169.644 E2.08298
G1 X171.045 Y168.100 E2.15749
G1 X171.193 Y168.103 E2.16419
G1 X171.260 Y168.314 E2.17418
G1 X171.481 Y168.668 E2.19305
G1 X171.825 Y168.970 E2.21370
G1 X172.166 Y169.136 E2.23082
G1 X172.603 Y169.204 E2.25081
G1 X173.280 Y169.171 E2.28142
G1 X173.330 Y169.320 E2.28848
G1 X172.508 Y169.883 E2.33347
G1 X171.600 Y170.412 E2.38092
G1 X171.148 Y170.644 E2.40391
G1 X170.483 Y170.948 E2.43690
G1 X169.917 Y171.174 E2.46446
G1 X169.545 Y171.304 E2.48226
G1 X169.489 Y171.204 E2.48744
G1 E0.48744 F2400.000
G92 E0
G1 X167.426 Y171.691 F7800.000
G1 E2.00000 F2400.000
G1 F1800.000
G1 X167.409 Y171.843 E2.00690
G1 X167.110 Y171.900 E2.02068
G1 X166.446 Y171.984 E2.05087
G1 X165.884 Y172.028 E2.07635
G1 X165.135 Y172.053 E2.11022
G1 X164.340 Y172.035 E2.14614
G1 X140.699 Y170.578 E3.21593
G1 X140.469 Y170.486 E3.22713
G1 X140.376 Y170.411 E3.23255
G1 X140.284 Y170.284 E3.23960
G1 X140.226 Y170.137 E3.24675
G1 X140.195 Y169.938 E3.25588
G1 X140.190 Y168.257 E3.33178
G1 X140.518 Y168.529 E3.35102
G1 X141.057 Y168.836 E3.37901
G1 X141.389 Y168.969 E3.39519
G1 X141.759 Y169.071 E3.41251
G1 X142.108 Y169.130 E3.42848
G1 X142.632 Y169.156 E3.45221
G1 X143.134 Y169.126 E3.47489
G1 X143.600 Y169.034 E3.49636
G1 X144.041 Y168.876 E3.51753
G1 X144.441 Y168.653 E3.53822
G1 X144.810 Y168.356 E3.55960
G1 X145.177 Y167.896 E3.58619
G1 X145.366 Y167.500 E3.60599
G1 X145.458 Y167.226 E3.61907
G1 X145.473 Y166.884 E3.63452
G1 X145.362 Y166.423 E3.65593
G1 X145.165 Y166.091 E3.67340
G1 X144.918 Y165.836 E3.68942
G1 X144.545 Y165.600 E3.70933
G1 X144.221 Y165.488 E3.72483
G1 X143.893 Y165.437 E3.73982
G1 X143.440 Y165.466 E3.76035
G1 X143.001 Y165.634 E3.78156
G1 X142.694 Y165.864 E3.79890
G1 X142.620 Y165.958 E3.80430
G1 X142.454 Y165.941 E3.81182
G1 X142.343 Y165.881 E3.81753
G1 X142.260 Y165.736 E3.82507
G1 X142.213 Y165.563 E3.83318
G1 X142.177 Y165.317 E3.84442
G1 X142.161 Y164.929 E3.86193
G1 X142.181 Y164.579 E3.87779
G1 X142.216 Y164.353 E3.88810
G1 X142.312 Y164.087 E3.90089
G1 X142.362 Y164.028 E3.90440
G1 X142.430 Y163.990 E3.90793
G1 X142.518 Y163.978 E3.91193
G1 X143.152 Y164.344 E3.94501
G1 X143.581 Y164.477 E3.96530
G1 X144.026 Y164.499 E3.98539
G1 X144.418 Y164.411 E4.00356
G1 X144.770 Y164.210 E4.02185
G1 X145.059 Y163.917 E4.04045
G1 X145.154 Y163.978 E4.04551
G1 X145.459 Y164.092 E4.06022
G1 X145.883 Y164.151 E4.07955
G1 X146.182 Y164.114 E4.09316
G1 X146.200 Y166.896 E4.21880
G1 X146.159 Y167.403 E4.24178
G1 X146.177 Y167.785 E4.25909
G1 X146.269 Y168.119 E4.27470
G1 X146.458 Y168.439 E4.29149
G1 X146.725 Y168.696 E4.30824
G1 X147.014 Y168.866 E4.32339
G1 X147.343 Y168.974 E4.33904
G1 X147.660 Y169.011 E4.35343
G1 X147.967 Y169.000 E4.36731
G1 X148.309 Y168.917 E4.38322
G1 X148.736 Y168.685 E4.40517
G1 X149.079 Y168.296 E4.42856
G1 X149.262 Y167.873 E4.44939
G1 X149.342 Y167.444 E4.46912
G1 X149.327 Y164.106 E4.61989
G1 X149.744 Y164.089 E4.63872
G1 X150.150 Y164.000 E4.65751
G1 X150.598 Y163.808 E4.67955
G1 X150.918 Y164.085 E4.69864
G1 X150.800 Y164.496 E4.71796
G1 X150.778 Y164.867 E4.73476
G1 X150.885 Y165.335 E4.75643
G1 X151.102 Y165.699 E4.77560
G1 X150.799 Y165.829 E4.79048
G1 X150.420 Y166.169 E4.81349
G1 X150.169 Y166.636 E4.83743
G1 X150.091 Y167.135 E4.86023
G1 X150.153 Y167.618 E4.88226
G1 X150.324 Y168.054 E4.90339
G1 X150.595 Y168.413 E4.92372
G1 X150.945 Y168.706 E4.94433
G1 X151.334 Y168.912 E4.96419
G1 X151.739 Y169.044 E4.98345
G1 X152.219 Y169.134 E5.00550
G1 X152.726 Y169.158 E5.02844
G1 X153.225 Y169.132 E5.05102
G1 X153.818 Y169.002 E5.07842
G1 X154.277 Y168.807 E5.10095
G1 X154.778 Y168.464 E5.12838
G1 X155.150 Y168.089 E5.15224
G1 X155.404 Y168.506 E5.17431
G1 X155.675 Y168.757 E5.19099
G1 X156.018 Y168.942 E5.20862
G1 X156.476 Y169.023 E5.22961
G1 X157.066 Y168.975 E5.25636
G1 X157.867 Y168.985 E5.29252
G1 X158.457 Y168.955 E5.31920
G1 X158.968 Y168.879 E5.34253
G1 X159.426 Y168.756 E5.36394
G1 X159.750 Y168.615 E5.37992
G1 X160.020 Y168.444 E5.39436
G1 X160.137 Y168.648 E5.40494
G1 X160.358 Y168.907 E5.42033
G1 X160.581 Y169.092 E5.43341
G1 X160.898 Y169.276 E5.44998
G1 X161.249 Y169.403 E5.46685
G1 X161.631 Y169.464 E5.48431
G1 X162.029 Y169.452 E5.50232
G1 X162.558 Y169.312 E5.52700
G1 X162.937 Y169.086 E5.54696
G1 X163.177 Y168.855 E5.56198
G1 X163.244 Y168.926 E5.56640
G1 X163.853 Y169.153 E5.59575
G1 X164.394 Y169.129 E5.62022
G1 X164.796 Y168.958 E5.63995
G1 X165.108 Y168.681 E5.65878
G1 X165.185 Y168.792 E5.66485
G1 X165.605 Y169.078 E5.68783
G1 X166.009 Y169.190 E5.70676
G1 X166.445 Y169.186 E5.72641
G1 X166.223 Y169.610 E5.74801
G1 X166.181 Y170.107 E5.77053
G1 X166.234 Y170.470 E5.78712
G1 X166.452 Y170.973 E5.81186
G1 X166.672 Y171.251 E5.82789
G1 X166.950 Y171.484 E5.84425
G1 X167.371 Y171.667 E5.86501
G1 E3.86501 F2400.000
G92 E0
G1 X167.777 Y168.833 F7800.000
G1 E2.00000 F2400.000
G1 F1800.000
G1 X167.336 Y168.974 E2.02095
G1 X167.039 Y169.099 E2.03548
G1 X166.752 Y169.343 E2.05252
G1 X166.561 Y169.708 E2.07112
G1 X166.528 Y170.096 E2.08871
G1 X166.569 Y170.375 E2.10143
G1 X166.751 Y170.794 E2.12208
G1 X166.920 Y171.010 E2.13447
G1 X167.133 Y171.187 E2.14697
G1 X167.474 Y171.336 E2.16379
G1 X167.746 Y171.378 E2.17622
G1 X168.090 Y171.361 E2.19175
G1 X168.465 Y171.276 E2.20914
G1 X168.849 Y171.135 E2.22760
G1 X169.097 Y170.999 E2.24038
