; G-Code generated by Simplify3D(R) Version 3.1.1
; juin 4, 2017 at 4:11:08 
; Settings Summary
;   processName,medium
;   applyToModels,a-wing seb avec support
;   profileName,Prusa Research Original Prusa i3 MK2(2) (modified)
;   profileVersion,2016-11-25 08:00:00
;   baseProfile,
;   printMaterial,PLA
;   printQuality,High
;   printExtruders,
;   extruderName,Primary Extruder
;   extruderToolheadNumber,0
;   extruderDiameter,0.4
;   extruderAutoWidth,1
;   extruderWidth,0.48
;   extrusionMultiplier,1
;   extruderUseRetract,1
;   extruderRetractionDistance,1.5
;   extruderExtraRestartDistance,0
;   extruderRetractionZLift,0.5
;   extruderRetractionSpeed,1800
;   extruderUseCoasting,1
;   extruderCoastingDistance,0.2
;   extruderUseWipe,1
;   extruderWipeDistance,2
;   primaryExtruder,0
;   layerHeight,0.1
;   topSolidLayers,4
;   bottomSolidLayers,4
;   perimeterOutlines,3
;   printPerimetersInsideOut,1
;   startPointOption,2
;   startPointOriginX,0
;   startPointOriginY,0
;   startPointOriginZ,300
;   sequentialIslands,0
;   spiralVaseMode,0
;   firstLayerHeightPercentage,150
;   firstLayerWidthPercentage,100
;   firstLayerUnderspeed,0.5
;   useRaft,0
;   raftExtruder,0
;   raftLayers,3
;   raftOffset,3
;   raftSeparationDistance,0.14
;   raftInfill,85
;   disableRaftBaseLayers,0
;   useSkirt,1
;   skirtExtruder,0
;   skirtLayers,3
;   skirtOutlines,2
;   skirtOffset,10
;   usePrimePillar,0
;   primePillarExtruder,999
;   primePillarWidth,12
;   primePillarLocation,7
;   primePillarSpeedMultiplier,1
;   useOozeShield,0
;   oozeShieldExtruder,999
;   oozeShieldOffset,2
;   oozeShieldOutlines,1
;   oozeShieldSidewallShape,1
;   oozeShieldSidewallAngle,30
;   oozeShieldSpeedMultiplier,1
;   infillExtruder,0
;   internalInfillPattern,Triangular
;   externalInfillPattern,Rectilinear
;   infillPercentage,20
;   outlineOverlapPercentage,20
;   infillExtrusionWidthPercentage,100
;   minInfillLength,5
;   infillLayerInterval,1
;   infillAngles,0,60,-60
;   overlapInfillAngles,1
;   generateSupport,1
;   supportExtruder,0
;   supportInfillPercentage,40
;   supportExtraInflation,0
;   denseSupportLayers,0
;   denseSupportInfillPercentage,70
;   supportLayerInterval,1
;   supportHorizontalPartOffset,0.3
;   supportUpperSeparationLayers,1
;   supportLowerSeparationLayers,1
;   supportType,0
;   supportGridSpacing,4
;   maxOverhangAngle,45
;   supportAngles,0
;   temperatureName,Primary Extruder,Heated Bed
;   temperatureNumber,0,0
;   temperatureSetpointCount,2,1
;   temperatureSetpointLayers,1,2,1
;   temperatureSetpointTemperatures,215,205,55
;   temperatureStabilizeAtStartup,1,1
;   temperatureHeatedBed,0,1
;   temperatureRelayBetweenLayers,0,0
;   temperatureRelayBetweenLoops,0,0
;   fanLayers,1,3
;   fanSpeeds,0,85
;   blipFanToFullPower,0
;   adjustSpeedForCooling,1
;   minSpeedLayerTime,15
;   minCoolingSpeedSlowdown,20
;   increaseFanForCooling,1
;   minFanLayerTime,45
;   maxCoolingFanSpeed,100
;   increaseFanForBridging,1
;   bridgingFanSpeed,100
;   use5D,1
;   relativeEdistances,0
;   allowEaxisZeroing,1
;   independentExtruderAxes,0
;   includeM10123,0
;   stickySupport,1
;   applyToolheadOffsets,0
;   gcodeXoffset,0
;   gcodeYoffset,0
;   gcodeZoffset,0
;   overrideMachineDefinition,1
;   machineTypeOverride,0
;   strokeXoverride,250
;   strokeYoverride,210
;   strokeZoverride,200
;   originOffsetXoverride,0
;   originOffsetYoverride,0
;   originOffsetZoverride,0
;   homeXdirOverride,-1
;   homeYdirOverride,-1
;   homeZdirOverride,-1
;   flipXoverride,1
;   flipYoverride,-1
;   flipZoverride,1
;   toolheadOffsets,0,0|0,0|0,0|0,0|0,0|0,0
;   overrideFirmwareConfiguration,1
;   firmwareTypeOverride,RepRap (Marlin/Repetier/Sprinter)
;   GPXconfigOverride,r2
;   baudRateOverride,250000
;   overridePrinterModels,1
;   printerModelsOverride
;   startingGcode,M115 U3.0.7 ; use the latest firmware version,G28 W ; home all axes without mesh bed leveling,G80 ; run mesh bed leveling routine,G1 Y-3.0 F1000.0 ; prepare to prime,G92 E0 ; reset extrusion distance,G1 X60.0 E9.0  F1000.0 ; priming,G1 X100.0 E12.5  F1000.0 ; priming
;   layerChangeGcode,
;   retractionGcode,
;   toolChangeGcode,
;   endingGcode,M106 S0 ; turn off cooling fan,M104 S0 ; turn off extruder,M140 S0 ; turn off bed,G1 X0 Y200 ; part removal,M84 ; disable motors
;   exportFileFormat,gcode
;   celebration,0
;   celebrationSong,Random Song
;   postProcessing,
;   defaultSpeed,2400
;   outlineUnderspeed,0.8
;   solidInfillUnderspeed,0.8
;   supportUnderspeed,0.8
;   rapidXYspeed,4800
;   rapidZspeed,1002
;   minBridgingArea,50
;   bridgingExtraInflation,0
;   bridgingExtrusionMultiplier,1
;   bridgingSpeedMultiplier,1
;   filamentDiameter,1.75
;   filamentPricePerKg,33
;   filamentDensity,1.24
;   useMinPrintHeight,0
;   minPrintHeight,0
;   useMaxPrintHeight,0
;   maxPrintHeight,0
;   useDiaphragm,0
;   diaphragmLayerInterval,20
;   robustSlicing,1
;   mergeAllIntoSolid,0
;   onlyRetractWhenCrossingOutline,1
;   retractBetweenLayers,1
;   useRetractionMinTravel,0
;   retractionMinTravel,3
;   retractWhileWiping,1
;   onlyWipeOutlines,1
;   avoidCrossingOutline,0
;   maxMovementDetourFactor,3
;   toolChangeRetractionDistance,12
;   toolChangeExtraRestartDistance,-0.5
;   toolChangeRetractionSpeed,600
;   allowThinWallGapFill,1
;   thinWallAllowedOverlapPercentage,25
;   horizontalSizeCompensation,0
G90
M82
M106 S0
M140 S60
M190 S60
M104 S190 T0
M109 S190 T0
M291 P"Homing all axis" R"Printing.." S1 T2
G21		; metric values
G28		; home all
M98 P"/macros/load_meshbed"	; load mesh bed corresponding to the temp
M98 P"/macros/set_baby_step"	; set baby step
M98 P"/macros/purge_and_prime"; purge and do the prime line
G92 E0 F100		; reset extruder
G1 Z10 F3000 		; move z up little to prevent scratching of surface
G92 E0 		; reset extruder

G1 E-1.5000 F1800
; layer 1, Z = 0.15
T0
; tool H0.150 W0.480
; skirt
G1 X115.666 Y99.817 F4800
G1 Z0.150 F1002
G1 E0.0000 F540
G92 E0
G1 X115.691 Y99.790 E0.0011 F1200
G1 X116.447 Y99.050 E0.0328
G1 X116.474 Y99.026 E0.0339
G1 X117.683 Y98.062 E0.0801
G1 X117.713 Y98.040 E0.0812
G1 X118.603 Y97.469 E0.1129
G1 X118.634 Y97.450 E0.1140
G1 X119.774 Y96.873 E0.1522
G1 X119.801 Y96.860 E0.1531
G1 X120.584 Y96.541 E0.1784
G1 X120.611 Y96.531 E0.1793
G1 X121.830 Y96.146 E0.2176
G1 X121.865 Y96.137 E0.2187
G1 X122.901 Y95.922 E0.2503
G1 X122.938 Y95.917 E0.2514
G1 X124.370 Y95.770 E0.2945
G1 X124.399 Y95.768 E0.2954
G1 X125.245 Y95.751 E0.3207
G1 X125.274 Y95.752 E0.3216
G1 X126.175 Y95.807 E0.3486
G1 X126.197 Y95.809 E0.3493
G1 X126.827 Y95.886 E0.3683
G1 X126.849 Y95.890 E0.3690
G1 X127.897 Y96.084 E0.4009
G1 X127.926 Y96.091 E0.4017
G1 X128.742 Y96.313 E0.4271
G1 X128.770 Y96.321 E0.4279
G1 X129.872 Y96.720 E0.4630
G1 X129.899 Y96.731 E0.4639
G1 X130.669 Y97.082 E0.4892
G1 X130.695 Y97.095 E0.4901
G1 X131.810 Y97.719 E0.5283
G1 X131.841 Y97.739 E0.5294
G1 X132.707 Y98.346 E0.5611
G1 X132.736 Y98.369 E0.5622
G1 X133.904 Y99.381 E0.6085
G1 X133.931 Y99.407 E0.6096
G1 X134.655 Y100.177 E0.6412
G1 X134.679 Y100.205 E0.6423
G1 X135.455 Y101.220 E0.6806
G1 X135.472 Y101.244 E0.6815
G1 X135.929 Y101.956 E0.7068
G1 X135.944 Y101.981 E0.7077
G1 X136.545 Y103.109 E0.7459
G1 X136.561 Y103.142 E0.7470
G1 X136.961 Y104.121 E0.7787
G1 X136.973 Y104.156 E0.7798
G1 X137.408 Y105.639 E0.8261
G1 X137.417 Y105.675 E0.8272
G1 X137.610 Y106.715 E0.8588
G1 X137.615 Y106.751 E0.8599
G1 X137.719 Y108.025 E0.8982
G1 X137.720 Y108.054 E0.8990
G1 X137.720 Y108.900 E0.9244
G1 X137.719 Y108.929 E0.9252
G1 X137.615 Y110.203 E0.9635
G1 X137.610 Y110.239 E0.9646
G1 X137.417 Y111.279 E0.9962
G1 X137.408 Y111.315 E0.9973
G1 X136.973 Y112.798 E1.0436
G1 X136.961 Y112.833 E1.0447
G1 X136.561 Y113.812 E1.0764
G1 X136.545 Y113.845 E1.0775
G1 X135.944 Y114.973 E1.1157
G1 X135.929 Y114.998 E1.1166
G1 X135.472 Y115.710 E1.1419
G1 X135.455 Y115.734 E1.1428
G1 X134.679 Y116.749 E1.1811
G1 X134.655 Y116.777 E1.1822
G1 X133.931 Y117.547 E1.2138
G1 X133.904 Y117.573 E1.2149
G1 X132.736 Y118.585 E1.2612
G1 X132.707 Y118.608 E1.2623
G1 X131.841 Y119.215 E1.2939
G1 X131.810 Y119.235 E1.2950
G1 X130.695 Y119.859 E1.3333
G1 X130.669 Y119.872 E1.3342
G1 X129.899 Y120.223 E1.3595
G1 X129.872 Y120.234 E1.3604
G1 X128.671 Y120.669 E1.3986
G1 X128.635 Y120.679 E1.3997
G1 X127.609 Y120.936 E1.4314
G1 X127.573 Y120.943 E1.4325
G1 X125.938 Y121.178 E1.4819
G1 X125.894 Y121.181 E1.4832
G1 X124.625 Y121.207 E1.5213
G1 X124.581 Y121.206 E1.5226
G1 X122.937 Y121.037 E1.5720
G1 X122.901 Y121.032 E1.5731
G1 X121.865 Y120.817 E1.6048
G1 X121.830 Y120.808 E1.6059
G1 X120.611 Y120.423 E1.6441
G1 X120.584 Y120.413 E1.6450
G1 X119.801 Y120.094 E1.6703
G1 X119.774 Y120.081 E1.6712
G1 X118.729 Y119.552 E1.7063
G1 X118.703 Y119.537 E1.7072
G1 X117.982 Y119.094 E1.7325
G1 X117.958 Y119.078 E1.7334
G1 X117.013 Y118.385 E1.7684
G1 X116.990 Y118.367 E1.7693
G1 X116.351 Y117.813 E1.7946
G1 X116.329 Y117.793 E1.7955
G1 X115.435 Y116.881 E1.8338
G1 X115.411 Y116.853 E1.8349
G1 X114.751 Y116.026 E1.8665
G1 X114.730 Y115.996 E1.8676
G1 X113.894 Y114.696 E1.9139
G1 X113.876 Y114.664 E1.9150
G1 X113.397 Y113.720 E1.9467
G1 X113.383 Y113.687 E1.9478
G1 X112.886 Y112.395 E1.9892
G1 X112.874 Y112.360 E1.9903
G1 X112.597 Y111.340 E2.0219
G1 X112.589 Y111.304 E2.0230
G1 X112.338 Y109.778 E2.0693
G1 X112.334 Y109.742 E2.0704
G1 X112.269 Y108.686 E2.1021
G1 X112.269 Y108.650 E2.1032
G1 X112.325 Y107.267 E2.1446
G1 X112.329 Y107.231 E2.1457
G1 X112.479 Y106.184 E2.1774
G1 X112.486 Y106.148 E2.1785
G1 X112.887 Y104.545 E2.2279
G1 X112.900 Y104.503 E2.2292
G1 X113.356 Y103.318 E2.2672
G1 X113.374 Y103.278 E2.2685
G1 X114.151 Y101.820 E2.3180
G1 X114.170 Y101.789 E2.3191
G1 X114.760 Y100.911 E2.3507
G1 X114.782 Y100.881 E2.3518
G1 X115.538 Y99.971 E2.3873
G1 X115.666 Y99.817 F1200
G1 X116.028 Y100.134 F4800
G92 E0
G1 X116.036 Y100.125 E0.0004 F1200
G1 X116.774 Y99.402 E0.0313
G1 X116.783 Y99.393 E0.0317
G1 X117.973 Y98.445 E0.0772
G1 X117.983 Y98.438 E0.0776
G1 X118.852 Y97.879 E0.1085
G1 X118.862 Y97.873 E0.1089
G1 X119.982 Y97.305 E0.1465
G1 X119.991 Y97.301 E0.1467
G1 X120.756 Y96.989 E0.1715
G1 X120.765 Y96.985 E0.1718
G1 X121.963 Y96.607 E0.2094
G1 X121.975 Y96.604 E0.2097
G1 X122.986 Y96.395 E0.2407
G1 X122.999 Y96.393 E0.2410
G1 X124.409 Y96.249 E0.2835
G1 X124.419 Y96.248 E0.2838
G1 X125.245 Y96.231 E0.3085
G1 X125.254 Y96.231 E0.3088
G1 X126.139 Y96.285 E0.3353
G1 X126.146 Y96.286 E0.3355
G1 X126.761 Y96.362 E0.3541
G1 X126.769 Y96.363 E0.3543
G1 X127.800 Y96.554 E0.3857
G1 X127.810 Y96.557 E0.3860
G1 X128.607 Y96.773 E0.4107
G1 X128.616 Y96.776 E0.4110
G1 X129.700 Y97.168 E0.4455
G1 X129.709 Y97.172 E0.4458
G1 X130.460 Y97.515 E0.4705
G1 X130.469 Y97.519 E0.4708
G1 X131.565 Y98.132 E0.5084
G1 X131.575 Y98.139 E0.5088
G1 X132.421 Y98.732 E0.5397
G1 X132.431 Y98.740 E0.5401
G1 X133.581 Y99.736 E0.5856
G1 X133.589 Y99.745 E0.5860
G1 X134.297 Y100.497 E0.6169
G1 X134.305 Y100.506 E0.6173
G1 X135.068 Y101.504 E0.6549
G1 X135.074 Y101.512 E0.6552
G1 X135.520 Y102.207 E0.6799
G1 X135.525 Y102.216 E0.6802
G1 X136.116 Y103.324 E0.7178
G1 X136.121 Y103.335 E0.7181
G1 X136.511 Y104.291 E0.7491
G1 X136.516 Y104.303 E0.7494
G1 X136.944 Y105.763 E0.7950
G1 X136.947 Y105.775 E0.7953
G1 X137.136 Y106.790 E0.8263
G1 X137.137 Y106.802 E0.8266
G1 X137.240 Y108.054 E0.8642
G1 X137.240 Y108.064 E0.8645
G1 X137.240 Y108.890 E0.8893
G1 X137.240 Y108.900 E0.8895
G1 X137.137 Y110.152 E0.9271
G1 X137.136 Y110.164 E0.9275
G1 X136.947 Y111.179 E0.9584
G1 X136.944 Y111.191 E0.9588
G1 X136.516 Y112.651 E1.0043
G1 X136.511 Y112.663 E1.0047
G1 X136.121 Y113.619 E1.0356
G1 X136.116 Y113.630 E1.0360
G1 X135.525 Y114.738 E1.0736
G1 X135.520 Y114.747 E1.0739
G1 X135.074 Y115.442 E1.0986
G1 X135.068 Y115.450 E1.0989
G1 X134.305 Y116.448 E1.1365
G1 X134.297 Y116.457 E1.1369
G1 X133.589 Y117.209 E1.1678
G1 X133.581 Y117.218 E1.1682
G1 X132.431 Y118.214 E1.2137
G1 X132.421 Y118.222 E1.2141
G1 X131.575 Y118.815 E1.2450
G1 X131.565 Y118.822 E1.2454
G1 X130.469 Y119.435 E1.2829
G1 X130.460 Y119.439 E1.2832
G1 X129.709 Y119.782 E1.3080
G1 X129.700 Y119.786 E1.3083
G1 X128.519 Y120.213 E1.3458
G1 X128.507 Y120.217 E1.3462
G1 X127.505 Y120.467 E1.3771
G1 X127.493 Y120.469 E1.3775
G1 X125.884 Y120.701 E1.4261
G1 X125.870 Y120.702 E1.4266
G1 X124.630 Y120.727 E1.4637
G1 X124.615 Y120.727 E1.4642
G1 X122.998 Y120.561 E1.5128
G1 X122.986 Y120.559 E1.5132
G1 X121.975 Y120.350 E1.5441
G1 X121.963 Y120.347 E1.5445
G1 X120.765 Y119.969 E1.5820
G1 X120.756 Y119.965 E1.5823
G1 X119.991 Y119.653 E1.6071
G1 X119.982 Y119.649 E1.6074
G1 X118.955 Y119.128 E1.6419
G1 X118.946 Y119.123 E1.6422
G1 X118.242 Y118.690 E1.6669
G1 X118.234 Y118.685 E1.6672
G1 X117.304 Y118.004 E1.7017
G1 X117.297 Y117.998 E1.7020
G1 X116.672 Y117.457 E1.7267
G1 X116.665 Y117.450 E1.7270
G1 X115.786 Y116.553 E1.7646
G1 X115.778 Y116.544 E1.7649
G1 X115.134 Y115.736 E1.7959
G1 X115.127 Y115.726 E1.7962
G1 X114.304 Y114.446 E1.8418
G1 X114.298 Y114.436 E1.8422
G1 X113.831 Y113.514 E1.8731
G1 X113.826 Y113.503 E1.8734
G1 X113.338 Y112.234 E1.9141
G1 X113.334 Y112.223 E1.9145
G1 X113.064 Y111.226 E1.9454
G1 X113.061 Y111.214 E1.9458
G1 X112.814 Y109.712 E1.9913
G1 X112.812 Y109.700 E1.9917
G1 X112.749 Y108.669 E2.0226
G1 X112.749 Y108.657 E2.0230
G1 X112.805 Y107.299 E2.0637
G1 X112.806 Y107.287 E2.0640
G1 X112.953 Y106.264 E2.0950
G1 X112.955 Y106.252 E2.0953
G1 X113.349 Y104.676 E2.1440
G1 X113.353 Y104.662 E2.1444
G1 X113.799 Y103.504 E2.1815
G1 X113.805 Y103.491 E2.1820
G1 X114.569 Y102.057 E2.2306
G1 X114.575 Y102.046 E2.2310
G1 X115.151 Y101.189 E2.2619
G1 X115.159 Y101.179 E2.2623
G1 X115.900 Y100.287 E2.2970
G1 X116.028 Y100.134 F1200
G92 E0
G1 E-1.5000 F1800
G1 Z0.650 F1002
; inner perimeter
; inner perimeter
; outer perimeter
G1 X123.743 Y107.245 F4800
G1 Z0.150 F1002
G1 E0.0000 F1800
G92 E0
G1 X123.844 Y107.150 E0.0042 F960
G1 X124.079 Y106.978 E0.0129
G1 X124.335 Y106.848 E0.0215
G1 X124.609 Y106.762 E0.0301
G1 X124.897 Y106.720 E0.0388
G1 X125.036 Y106.718 E0.0429
G1 X125.174 Y106.726 E0.0471
G1 X125.461 Y106.779 E0.0558
G1 X125.731 Y106.877 E0.0644
G1 X125.981 Y107.017 E0.0730
G1 X126.209 Y107.199 E0.0817
G1 X126.303 Y107.294 E0.0857
G1 X126.480 Y107.526 E0.0945
G1 X126.617 Y107.783 E0.1032
G1 X126.665 Y107.908 E0.1072
G1 X126.736 Y108.191 E0.1159
G1 X126.759 Y108.477 E0.1245
G1 X126.736 Y108.763 E0.1331
G1 X126.665 Y109.046 E0.1418
G1 X126.617 Y109.171 E0.1458
G1 X126.480 Y109.428 E0.1546
G1 X126.303 Y109.660 E0.1633
G1 X126.209 Y109.755 E0.1673
G1 X125.981 Y109.937 E0.1760
G1 X125.731 Y110.077 E0.1846
G1 X125.461 Y110.175 E0.1932
G1 X125.174 Y110.228 E0.2019
G1 X125.041 Y110.236 E0.2059
G1 X124.745 Y110.218 E0.2148
G1 X124.613 Y110.194 E0.2188
G1 X124.335 Y110.106 E0.2275
G1 X124.079 Y109.976 E0.2361
G1 X123.848 Y109.807 E0.2447
G1 X123.644 Y109.598 E0.2534
G1 X123.563 Y109.492 E0.2575
G1 X123.415 Y109.240 E0.2662
G1 X123.312 Y108.973 E0.2748
G1 X123.253 Y108.687 E0.2835
G1 X123.242 Y108.554 E0.2875
G1 X123.254 Y108.262 E0.2962
G1 X123.313 Y107.977 E0.3050
G1 X123.356 Y107.850 E0.3090
G1 X123.476 Y107.601 E0.3172
G1 X123.317 Y108.030 E0.3309
G1 X123.263 Y108.352 E0.3407
G1 X123.271 Y108.679 E0.3505
G1 X123.339 Y108.998 E0.3602
G1 X123.465 Y109.299 E0.3700
G1 X123.646 Y109.571 E0.3798
G1 X123.874 Y109.805 E0.3896
G1 X124.141 Y109.992 E0.3993
G1 X124.439 Y110.125 E0.4091
G1 X124.757 Y110.201 E0.4189
G1 X125.083 Y110.216 E0.4287
G1 X125.406 Y110.170 E0.4384
G1 X125.715 Y110.064 E0.4482
G1 X125.999 Y109.903 E0.4580
