; G-Code generated by Simplify3D(R) Version 4.1.1
; Feb 7, 2021 at 12:44:08 AM
; Settings Summary
;   processName,prusa
;   applyToModels,blv-mgn-push limit switch Y
;   profileName,Prusa Research Original Prusa i3 MK2 fast seb (modified)
;   profileVersion,2019-08-26 22:56:25
;   baseProfile,Prusa Research Original Prusa i3 MK2
;   printMaterial,PLA
;   printQuality,Fast
;   printExtruders,
;   extruderName,Primary Extruder
;   extruderToolheadNumber,0
;   extruderDiameter,0.4
;   extruderAutoWidth,1
;   extruderWidth,0.48
;   extrusionMultiplier,1
;   extruderUseRetract,1
;   extruderRetractionDistance,1.5
;   extruderExtraRestartDistance,0
;   extruderRetractionZLift,0
;   extruderRetractionSpeed,1800
;   extruderUseCoasting,1
;   extruderCoastingDistance,0.2
;   extruderUseWipe,1
;   extruderWipeDistance,2
;   primaryExtruder,0
;   layerHeight,0.3
;   topSolidLayers,2
;   bottomSolidLayers,2
;   perimeterOutlines,2
;   printPerimetersInsideOut,0
;   startPointOption,2
;   startPointOriginX,0
;   startPointOriginY,0
;   sequentialIslands,0
;   spiralVaseMode,0
;   firstLayerHeightPercentage,150
;   firstLayerWidthPercentage,100
;   firstLayerUnderspeed,0.15
;   useRaft,0
;   raftExtruder,0
;   raftTopLayers,2
;   raftBaseLayers,1
;   raftOffset,3
;   raftSeparationDistance,0.14
;   raftTopInfill,100
;   aboveRaftSpeedMultiplier,0.3
;   useSkirt,0
;   skirtExtruder,0
;   skirtLayers,1
;   skirtOutlines,2
;   skirtOffset,4
;   usePrimePillar,0
;   primePillarExtruder,999
;   primePillarWidth,12
;   primePillarLocation,7
;   primePillarSpeedMultiplier,1
;   useOozeShield,0
;   oozeShieldExtruder,999
;   oozeShieldOffset,2
;   oozeShieldOutlines,1
;   oozeShieldSidewallShape,1
;   oozeShieldSidewallAngle,30
;   oozeShieldSpeedMultiplier,1
;   infillExtruder,0
;   internalInfillPattern,Rectilinear
;   externalInfillPattern,Rectilinear
;   infillPercentage,15
;   outlineOverlapPercentage,20
;   infillExtrusionWidthPercentage,100
;   minInfillLength,5
;   infillLayerInterval,1
;   internalInfillAngles,45,-45
;   overlapInternalInfillAngles,0
;   externalInfillAngles,45,-45
;   generateSupport,1
;   supportExtruder,0
;   supportInfillPercentage,25
;   supportExtraInflation,0
;   supportBaseLayers,0
;   denseSupportExtruder,0
;   denseSupportLayers,0
;   denseSupportInfillPercentage,70
;   supportLayerInterval,1
;   supportHorizontalPartOffset,0.3
;   supportUpperSeparationLayers,1
;   supportLowerSeparationLayers,1
;   supportType,1
;   supportGridSpacing,1
;   maxOverhangAngle,50
;   supportAngles,0,30
;   temperatureName,Primary Extruder,Heated Bed
;   temperatureNumber,0,0
;   temperatureSetpointCount,1,1
;   temperatureSetpointLayers,1,1
;   temperatureSetpointTemperatures,215,60
;   temperatureStabilizeAtStartup,1,1
;   temperatureHeatedBed,0,1
;   fanLayers,1,2
;   fanSpeeds,0,100
;   blipFanToFullPower,0
;   adjustSpeedForCooling,1
;   minSpeedLayerTime,15
;   minCoolingSpeedSlowdown,20
;   increaseFanForCooling,0
;   minFanLayerTime,45
;   maxCoolingFanSpeed,100
;   increaseFanForBridging,1
;   bridgingFanSpeed,100
;   use5D,1
;   relativeEdistances,0
;   allowEaxisZeroing,1
;   independentExtruderAxes,0
;   includeM10123,0
;   stickySupport,1
;   applyToolheadOffsets,0
;   gcodeXoffset,0
;   gcodeYoffset,0
;   gcodeZoffset,0
;   overrideMachineDefinition,1
;   machineTypeOverride,0
;   strokeXoverride,250
;   strokeYoverride,210
;   strokeZoverride,200
;   originOffsetXoverride,0
;   originOffsetYoverride,0
;   originOffsetZoverride,0
;   homeXdirOverride,-1
;   homeYdirOverride,-1
;   homeZdirOverride,-1
;   flipXoverride,1
;   flipYoverride,-1
;   flipZoverride,1
;   toolheadOffsets,0,0|0,0|0,0|0,0|0,0|0,0
;   overrideFirmwareConfiguration,1
;   firmwareTypeOverride,RepRap (Marlin/Repetier/Sprinter)
;   GPXconfigOverride,r2
;   baudRateOverride,250000
;   overridePrinterModels,1
;   printerModelsOverride
;   startingGcode,M115 U3.0.7 ; use the latest firmware version,G28 W ; home all axes without mesh bed leveling,G80 ; run mesh bed leveling routine,G1 Y-3.0 F1000.0 ; prepare to prime,G92 E0 ; reset extrusion distance,G1 X60.0 E9.0  F1000.0 ; priming,G1 X100.0 E12.5  F1000.0 ; priming
;   layerChangeGcode,
;   retractionGcode,
;   toolChangeGcode,
;   endingGcode,M106 S0 ; turn off cooling fan,M104 S0 ; turn off extruder,M140 S0 ; turn off bed,G1 X0 Y200 ; part removal,M84 ; disable motors
;   exportFileFormat,gcode
;   celebration,0
;   celebrationSong,Random Song
;   postProcessing,
;   defaultSpeed,4800
;   outlineUnderspeed,0.8
;   solidInfillUnderspeed,0.8
;   supportUnderspeed,0.8
;   rapidXYspeed,4800
;   rapidZspeed,1002
;   minBridgingArea,50
;   bridgingExtraInflation,0
;   bridgingExtrusionMultiplier,1
;   bridgingSpeedMultiplier,0.7
;   useFixedBridgingAngle,0
;   fixedBridgingAngle,0
;   applyBridgingToPerimeters,0
;   filamentDiameters,1.75|1.75|1.75|1.75|1.75|1.75
;   filamentPricesPerKg,46|46|46|46|46|46
;   filamentDensities,1.1|1.25|1.25|1.25|1.25|1.25
;   useMinPrintHeight,0
;   minPrintHeight,5
;   useMaxPrintHeight,0
;   maxPrintHeight,1
;   useDiaphragm,0
;   diaphragmLayerInterval,20
;   robustSlicing,1
;   mergeAllIntoSolid,0
;   onlyRetractWhenCrossingOutline,1
;   retractBetweenLayers,1
;   useRetractionMinTravel,0
;   retractionMinTravel,3
;   retractWhileWiping,1
;   onlyWipeOutlines,1
;   avoidCrossingOutline,0
;   maxMovementDetourFactor,3
;   toolChangeRetractionDistance,12
;   toolChangeExtraRestartDistance,-0.5
;   toolChangeRetractionSpeed,600
;   externalThinWallType,1
;   internalThinWallType,1
;   thinWallAllowedOverlapPercentage,25
;   singleExtrusionMinLength,1
;   singleExtrusionMinPrintingWidthPercentage,50
;   singleExtrusionMaxPrintingWidthPercentage,200
;   singleExtrusionEndpointExtension,0.2
;   horizontalSizeCompensation,0
G90
M82
M106 S0
M140 S60
M190 S60
M104 S215 T0
M109 S215 T0
M115 U3.0.7 ; use the latest firmware version
G28 W ; home all axes without mesh bed leveling
G80 ; run mesh bed leveling routine
G1 Y-3.0 F1000.0 ; prepare to prime
G92 E0 ; reset extrusion distance
G1 X60.0 E9.0  F1000.0 ; priming
G1 X100.0 E12.5  F1000.0 ; priming
; process prusa
; layer 1, Z = 0.450
T0
G92 E0.0000
G1 E-1.5000 F1800
; feature outer perimeter
; tool H0.450 W0.480
G1 Z0.450 F1002
G1 X121.740 Y105.240 F4800
G1 E0.0000 F1800
G92 E0.0000
G1 X128.260 Y105.240 E0.5855 F576
G1 X128.260 Y142.490 E3.9307
G1 X121.740 Y142.490 E4.5162
G1 X121.740 Y105.440 E7.8434
G1 X121.740 Y105.240 F576
G1 X123.740 Y105.240 F576
; feature inner perimeter
G1 X123.899 Y105.720 F4800
G92 E0.0000
G1 X123.326 Y106.268 E0.0712 F648
G1 X123.087 Y106.597 E0.1078
G1 X122.906 Y106.996 E0.1471
G1 X122.813 Y107.334 E0.1785
G1 X122.777 Y107.730 E0.2143
G1 X122.813 Y108.127 E0.2501
G1 X122.919 Y108.512 E0.2859
G1 X123.092 Y108.871 E0.3217
G1 X123.326 Y109.193 E0.3575
G1 X123.614 Y109.468 E0.3932
G1 X123.947 Y109.688 E0.4290
G1 X124.313 Y109.845 E0.4648
G1 X124.702 Y109.933 E0.5006
G1 X125.100 Y109.951 E0.5364
G1 X125.495 Y109.898 E0.5722
G1 X125.874 Y109.775 E0.6080
G1 X126.225 Y109.586 E0.6438
G1 X126.536 Y109.337 E0.6796
G1 X126.798 Y109.037 E0.7153
G1 X127.003 Y108.695 E0.7511
G1 X127.143 Y108.322 E0.7869
G1 X127.214 Y107.930 E0.8227
G1 X127.214 Y107.531 E0.8585
G1 X127.143 Y107.139 E0.8943
G1 X127.003 Y106.766 E0.9301
G1 X126.798 Y106.424 E0.9659
G1 X126.536 Y106.124 E1.0016
G1 X126.332 Y105.961 E1.0251
G1 X126.417 Y105.720 E1.0480
G1 X127.780 Y105.720 E1.1705
G1 X127.780 Y142.010 E4.4294
G1 X122.220 Y142.010 E4.9287
G1 X122.220 Y105.720 E8.1877
G1 X123.699 Y105.720 E8.3205
G1 X123.899 Y105.720 F648
; feature outer perimeter
G1 X124.175 Y106.197 F4800
G92 E0.0000
G1 X123.915 Y106.369 E0.0280 F576
G1 X123.689 Y106.585 E0.0561
G1 X123.504 Y106.840 E0.0843
G1 X123.359 Y107.160 E0.1159
G1 X123.287 Y107.420 E0.1401
G1 X123.259 Y107.730 E0.1681
G1 X123.287 Y108.041 E0.1962
G1 X123.370 Y108.342 E0.2242
G1 X123.505 Y108.623 E0.2522
G1 X123.689 Y108.876 E0.2802
G1 X123.915 Y109.092 E0.3083
G1 X124.175 Y109.264 E0.3363
G1 X124.462 Y109.386 E0.3643
G1 X124.766 Y109.456 E0.3924
G1 X125.078 Y109.470 E0.4204
G1 X125.387 Y109.428 E0.4484
G1 X125.684 Y109.331 E0.4764
G1 X125.959 Y109.183 E0.5045
G1 X126.203 Y108.989 E0.5325
G1 X126.408 Y108.754 E0.5605
G1 X126.569 Y108.486 E0.5886
G1 X126.678 Y108.194 E0.6166
G1 X126.734 Y107.887 E0.6446
G1 X126.734 Y107.574 E0.6726
G1 X126.678 Y107.267 E0.7007
G1 X126.569 Y106.975 E0.7287
G1 X126.408 Y106.707 E0.7567
G1 X126.203 Y106.472 E0.7848
G1 X125.959 Y106.278 E0.8128
G1 X125.684 Y106.130 E0.8408
G1 X125.387 Y106.033 E0.8689
G1 X125.078 Y105.991 E0.8969
G1 X124.766 Y106.005 E0.9249
G1 X124.462 Y106.075 E0.9529
G1 X124.359 Y106.119 E0.9630
G1 X124.175 Y106.197 F576
G1 X123.915 Y106.369 F576
G1 X123.689 Y106.585
G1 X123.504 Y106.840
G1 X123.359 Y107.160
G1 X123.287 Y107.420
G1 X123.259 Y107.730
G1 X123.270 Y107.858
G1 X124.766 Y126.005 F4800
G92 E0.0000
G1 X124.462 Y126.075 E0.0280 F576
G1 X124.175 Y126.197 E0.0561
G1 X123.915 Y126.369 E0.0841
G1 X123.689 Y126.585 E0.1121
G1 X123.505 Y126.838 E0.1401
G1 X123.370 Y127.119 E0.1682
G1 X123.287 Y127.420 E0.1962
G1 X123.259 Y127.730 E0.2242
G1 X123.287 Y128.041 E0.2523
G1 X123.370 Y128.342 E0.2803
G1 X123.505 Y128.623 E0.3083
G1 X123.689 Y128.876 E0.3363
G1 X123.915 Y129.092 E0.3644
G1 X124.175 Y129.264 E0.3924
G1 X124.462 Y129.386 E0.4204
G1 X124.766 Y129.456 E0.4485
G1 X125.078 Y129.470 E0.4765
G1 X125.387 Y129.428 E0.5045
G1 X125.684 Y129.331 E0.5325
G1 X125.959 Y129.183 E0.5606
G1 X126.203 Y128.989 E0.5886
G1 X126.408 Y128.754 E0.6166
G1 X126.569 Y128.486 E0.6447
G1 X126.678 Y128.194 E0.6727
G1 X126.734 Y127.887 E0.7007
G1 X126.734 Y127.574 E0.7288
G1 X126.678 Y127.267 E0.7568
G1 X126.568 Y126.972 E0.7851
G1 X126.380 Y126.675 E0.8167
G1 X126.203 Y126.472 E0.8408
G1 X125.959 Y126.278 E0.8688
G1 X125.684 Y126.130 E0.8969
G1 X125.387 Y126.033 E0.9249
G1 X125.078 Y125.991 E0.9529
G1 X124.966 Y125.996 E0.9630
G1 X124.766 Y126.005 F576
G1 X124.462 Y126.075 F576
G1 X124.175 Y126.197
G1 X123.915 Y126.369
G1 X123.689 Y126.585
G1 X123.505 Y126.838
G1 X123.370 Y127.119
G1 X123.336 Y127.241
; feature inner perimeter
G1 X122.919 Y126.949 F4800
G92 E0.0000
G1 X122.813 Y127.334 E0.0358 F648
G1 X122.777 Y127.730 E0.0716
G1 X122.813 Y128.127 E0.1074
G1 X122.919 Y128.512 E0.1432
G1 X123.092 Y128.871 E0.1789
G1 X123.326 Y129.193 E0.2147
G1 X123.614 Y129.468 E0.2505
G1 X123.947 Y129.688 E0.2863
G1 X124.313 Y129.845 E0.3221
G1 X124.702 Y129.933 E0.3579
G1 X125.100 Y129.951 E0.3937
G1 X125.495 Y129.898 E0.4295
G1 X125.874 Y129.775 E0.4652
G1 X126.225 Y129.586 E0.5010
G1 X126.536 Y129.337 E0.5368
G1 X126.798 Y129.037 E0.5726
G1 X127.003 Y128.695 E0.6084
G1 X127.143 Y128.322 E0.6442
G1 X127.214 Y127.930 E0.6800
G1 X127.214 Y127.531 E0.7158
G1 X127.143 Y127.139 E0.7516
G1 X127.000 Y126.758 E0.7881
G1 X126.766 Y126.387 E0.8275
G1 X126.536 Y126.124 E0.8589
G1 X126.225 Y125.875 E0.8947
G1 X125.874 Y125.686 E0.9304
G1 X125.495 Y125.563 E0.9662
G1 X125.100 Y125.510 E1.0020
G1 X124.702 Y125.528 E1.0378
G1 X124.313 Y125.616 E1.0736
G1 X123.947 Y125.773 E1.1094
G1 X123.614 Y125.993 E1.1452
G1 X123.326 Y126.268 E1.1810
G1 X123.092 Y126.590 E1.2167
G1 X123.006 Y126.769 E1.2346
G1 X122.919 Y126.949 F648
G92 E0.0000
G1 E-1.5000 F1800
; feature internal single extrusion
; tool H0.450 W0.240
G1 X123.999 Y105.997 F4800
G1 E0.0000 F1800
G92 E0.0000
G1 X124.072 Y105.942 E0.0041 F576
G1 X124.225 Y105.841 E0.0123
G1 X124.302 Y105.791 E0.0164
G1 X124.380 Y105.742 E0.0206
G1 X124.462 Y105.697 E0.0248
; tool H0.450 W0.281
G1 X124.545 Y105.653 E0.0297
; tool H0.450 W0.310
G1 X124.596 Y105.637 E0.0328
; tool H0.450 W0.304
G1 X124.687 Y105.627 E0.0380
; tool H0.450 W0.289
G1 X124.779 Y105.622 E0.0430
; tool H0.450 W0.278
G1 X125.053 Y105.616 E0.0572
; tool H0.450 W0.274
G1 X125.144 Y105.618 E0.0619
; tool H0.450 W0.295
G1 X125.418 Y105.637 E0.0771
; tool H0.450 W0.323
G1 X125.510 Y105.646 E0.0827
; tool H0.450 W0.361
G1 X125.693 Y105.675 E0.0952
; tool H0.450 W0.404
G1 X125.784 Y105.689 E0.1022
; tool H0.450 W0.434
G1 X125.876 Y105.705 E0.1097
G1 X126.073 Y105.738 F576
; feature solid layer
; tool H0.450 W0.480
G1 X127.247 Y106.427 F4800
G92 E0.0000
G1 X127.255 Y106.434 E0.0009 F576
G1 X127.396 Y106.575 F576
G1 X127.207 Y109.102 F4800
G92 E0.0000
G1 X127.396 Y109.291 E0.0240 F576
G1 X127.396 Y109.969 E0.0850
G1 X126.914 Y109.488 E0.1461
G1 X126.803 Y109.616 E0.1614
G1 X126.558 Y109.811 E0.1894
G1 X127.396 Y110.648 E0.2958
G1 X127.396 Y111.327 E0.3568
G1 X126.137 Y110.069 E0.5166
G1 X126.025 Y110.129 E0.5281
G1 X125.643 Y110.253 E0.5641
G1 X127.396 Y112.006 E0.7867
G1 X127.396 Y112.685 E0.8477
G1 X125.044 Y110.333 E1.1464
G1 X124.650 Y110.315 E1.1818
G1 X124.258 Y110.226 E1.2179
G1 X127.396 Y113.364 E1.6164
G1 X127.396 Y114.042 E1.6773
G1 X122.604 Y109.250 E2.2859
G1 X122.604 Y109.929 E2.3469
G1 X127.396 Y114.721 E2.9554
G1 X127.396 Y115.400 E3.0164
G1 X122.604 Y110.608 E3.6250
G1 X122.604 Y111.287 E3.6859
G1 X127.396 Y116.079 E4.2945
G1 X127.396 Y116.758 E4.3555
G1 X122.604 Y111.966 E4.9641
G1 X122.604 Y112.645 E5.0250
G1 X127.396 Y117.437 E5.6336
G1 X127.396 Y118.115 E5.6946
G1 X122.604 Y113.323 E6.3031
G1 X122.604 Y114.002 E6.3641
G1 X127.396 Y118.794 E6.9727
G1 X127.396 Y119.473 E7.0337
G1 X122.604 Y114.681 E7.6422
G1 X122.604 Y115.360 E7.7032
G1 X127.396 Y120.152 E8.3118
G1 X127.396 Y120.831 E8.3727
G1 X122.604 Y116.039 E8.9813
G1 X122.604 Y116.717 E9.0423
G1 X127.396 Y121.509 E9.6509
G1 X127.396 Y122.188 E9.7118
G1 X122.604 Y117.396 E10.3204
G1 X122.604 Y118.075 E10.3814
G1 X127.396 Y122.867 E10.9899
G1 X127.396 Y123.546 E11.0509
G1 X122.604 Y118.754 E11.6595
G1 X122.604 Y119.433 E11.7204
G1 X127.396 Y124.225 E12.3290
G1 X127.396 Y124.904 E12.3900
G1 X122.604 Y120.112 E12.9986
G1 X122.604 Y120.790 E13.0595
G1 X127.396 Y125.582 E13.6681
G1 X127.396 Y126.261 E13.7291
G1 X122.604 Y121.469 E14.3377
G1 X122.604 Y122.148 E14.3986
G1 X125.674 Y125.218 E14.7885
G1 X125.580 Y125.187 E14.7973
G1 X125.117 Y125.125 E14.8393
G1 X124.911 Y125.134 E14.8578
G1 X122.604 Y122.827 E15.1508
G1 X122.604 Y123.506 E15.2117
G1 X124.319 Y125.221 E15.4296
G1 X124.194 Y125.250 E15.4411
G1 X123.826 Y125.407 E15.4770
G1 X122.604 Y124.185 E15.6323
G1 X122.604 Y124.863 E15.6932
G1 X123.409 Y125.668 E15.7954
G1 X123.374 Y125.691 E15.7992
G1 X123.056 Y125.995 E15.8386
G1 X122.604 Y125.542 E15.8961
G1 X122.604 Y126.221 E15.9570
G1 X122.626 Y126.243 E15.9598
G1 X122.767 Y126.384 F576
G92 E0.0000
G1 E-1.5000 F1800
G1 X127.325 Y128.905 F4800
G1 E0.0000 F1800
G92 E0.0000
G1 X127.396 Y128.977 E0.0091 F576
G1 X127.396 Y129.655 E0.0700
G1 X127.061 Y129.320 E0.1126
G1 X126.803 Y129.616 E0.1478
G1 X126.733 Y129.671 E0.1558
G1 X127.396 Y130.334 E0.2400
G1 X127.396 Y131.013 E0.3010
G1 X126.342 Y129.959 E0.4349
G1 X126.025 Y130.129 E0.4672
G1 X125.880 Y130.176 E0.4808
G1 X127.396 Y131.692 E0.6733
G1 X127.396 Y132.371 E0.7343
G1 X125.332 Y130.307 E0.9963
G1 X125.117 Y130.336 E1.0159
G1 X124.662 Y130.316 E1.0567
G1 X127.396 Y133.049 E1.4039
G1 X127.396 Y133.728 E1.4649
G1 X123.562 Y129.894 E1.9518
G1 X123.374 Y129.770 E1.9720
G1 X123.036 Y129.447 E2.0140
G1 X122.826 Y129.159 E2.0460
G1 X122.604 Y128.936 E2.0743
G1 X122.604 Y129.615 E2.1352
G1 X127.396 Y134.407 E2.7438
G1 X127.396 Y135.086 E2.8048
G1 X122.604 Y130.294 E3.4133
G1 X122.604 Y130.973 E3.4743
G1 X127.396 Y135.765 E4.0829
G1 X127.396 Y136.444 E4.1438
G1 X122.604 Y131.652 E4.7524
G1 X122.604 Y132.330 E4.8134
G1 X127.396 Y137.122 E5.4220
G1 X127.396 Y137.801 E5.4829
G1 X122.604 Y133.009 E6.0915
