; generated by PrusaSlicer 2.3.0+win64 on 2021-02-18 at 22:06:48 UTC

; 

; external perimeters extrusion width = 0.45mm
; perimeters extrusion width = 0.45mm
; infill extrusion width = 0.45mm
; solid infill extrusion width = 0.45mm
; top infill extrusion width = 0.40mm
; first layer extrusion width = 0.42mm

M107
;TYPE:Custom
G90 ; use absolute coordinates
M83 ; extruder relative mode
M104 S170 ; set extruder temp for bed leveling
M140 S60 ; set bed temp
M109 R170 ; wait for bed leveling extruder temp
M190 S60 ; wait for bed temp
G28 ; home all without mesh bed level
G29 S1 ; mesh bed leveling 
M104 S215 ; set extruder temp
G90 ; use absolute coordinates
G92 E0.0
G0 X20 Y23 Z25 F4800
G1 Z3 F720
M109 S215 ; wait for extruder temp

; intro line
G92 E0 ; reset extrusion distance
G1 Z0.2 F720
G1 X24
G1 X90.0 E9.0  F1000.0 ; priming
G1 X130.0 E12.5  F1000.0 ; priming

G92 E0.0

;M221 S95 ; set flow
G21 ; set units to millimeters
G90 ; use absolute coordinates
M82 ; use absolute distances for extrusion
G92 E0
M900 K0.05 ; Filament gcode LA 1.5
M900 K30 ; Filament gcode LA 1.0
;LAYER_CHANGE
;Z:0.35
;HEIGHT:0.35
G1 Z0.350 F7800.000
;AFTER_LAYER_CHANGE
;0.35
G1 E-2.00000 F2400.000
G92 E0
G1 X150.794 Y149.978 F7800.000
G1 E2.00000 F2400.000
;TYPE:Skirt
;WIDTH:0.42
G1 F1800.000
G1 X152.568 Y149.297 E2.08582
G1 X154.405 Y149.056 E2.16949
G1 X165.480 Y149.055 E2.66971
G1 X167.281 Y149.262 E2.75158
G1 X168.812 Y149.792 E2.82479
G1 X179.152 Y154.951 E3.34672
G1 X179.901 Y155.395 E3.38604
G1 X180.781 Y156.073 E3.43622
G1 X181.353 Y156.636 E3.47245
G1 X181.920 Y157.344 E3.51344
G1 X182.519 Y158.289 E3.56397
G1 X183.035 Y159.502 E3.62350
G1 X183.284 Y160.446 E3.66759
G1 X183.437 Y161.706 E3.72494
G1 X183.424 Y168.490 E4.03134
G1 X183.178 Y170.029 E4.10172
G1 X182.637 Y171.471 E4.17132
G1 X182.124 Y172.374 E4.21821
G1 X181.319 Y173.402 E4.27718
G1 X180.637 Y174.047 E4.31958
G1 X179.607 Y174.797 E4.37713
G1 X169.080 Y180.085 E4.90924
G1 X167.594 Y180.660 E4.98119
G1 X166.809 Y180.824 E5.01743
G1 X165.607 Y180.943 E5.07197
G1 X154.327 Y180.942 E5.58146
G1 X152.580 Y180.706 E5.66109
G1 X151.028 Y180.137 E5.73573
G1 X150.193 Y179.669 E5.77898
G1 X149.262 Y178.963 E5.83176
G1 X148.647 Y178.365 E5.87052
G1 X148.027 Y177.586 E5.91545
G1 X147.515 Y176.777 E5.95869
G1 X147.086 Y175.818 E6.00614
G1 X146.832 Y175.064 E6.04210
G1 X146.672 Y174.278 E6.07833
G1 X146.555 Y173.014 E6.13567
G1 X146.559 Y156.815 E6.86735
G1 X146.794 Y155.080 E6.94642
G1 X147.363 Y153.529 E7.02105
G1 X147.783 Y152.766 E7.06037
G1 X148.360 Y151.979 E7.10445
G1 X149.367 Y150.949 E7.16952
G1 X150.745 Y150.012 E7.24478
G1 E5.24478 F2400.000
G92 E0
G1 X154.387 Y156.805 F7800.000
G1 E2.00000 F2400.000
;TYPE:Perimeter
G1 F1800.000
G1 X154.615 Y156.760 E2.01047
G1 X165.558 Y156.783 E2.50476
G1 X165.659 Y156.841 E2.51002
G1 X165.717 Y156.942 E2.51528
G1 X165.740 Y157.115 E2.52319
G1 X165.740 Y158.115 E2.56835
G1 X165.854 Y158.977 E2.60761
G1 X166.231 Y159.887 E2.65212
G1 X166.831 Y160.669 E2.69663
G1 X167.613 Y161.269 E2.74114
G1 X168.523 Y161.646 E2.78565
G1 X169.385 Y161.760 E2.82491
G1 X175.385 Y161.760 E3.09591
G1 X175.613 Y161.805 E3.10641
G1 X175.695 Y161.887 E3.11167
G1 X175.717 Y161.942 E3.11432
G1 X175.740 Y162.115 E3.12223
G1 X175.740 Y167.885 E3.38281
G1 X175.695 Y168.113 E3.39331
G1 X175.613 Y168.195 E3.39857
G1 X175.558 Y168.217 E3.40122
G1 X175.385 Y168.240 E3.40913
G1 X169.385 Y168.240 E3.68013
G1 X168.523 Y168.354 E3.71939
G1 X167.613 Y168.731 E3.76390
G1 X166.831 Y169.331 E3.80841
G1 X166.231 Y170.113 E3.85292
G1 X165.854 Y171.023 E3.89743
G1 X165.740 Y171.885 E3.93669
G1 X165.740 Y172.885 E3.98186
G1 X165.717 Y173.058 E3.98976
G1 X165.659 Y173.159 E3.99503
G1 X165.558 Y173.217 E4.00029
G1 X165.385 Y173.240 E4.00819
G1 X154.615 Y173.240 E4.49462
G1 X154.387 Y173.195 E4.50511
G1 X154.341 Y173.159 E4.50776
G1 X154.283 Y173.058 E4.51302
G1 X154.260 Y172.885 E4.52093
G1 X154.260 Y172.115 E4.55568
G1 X154.305 Y171.887 E4.56617
G1 X154.341 Y171.841 E4.56883
G1 X154.442 Y171.783 E4.57409
G1 X154.615 Y171.760 E4.58200
G1 X160.615 Y171.760 E4.85300
G1 X161.477 Y171.646 E4.89226
G1 X162.387 Y171.269 E4.93677
G1 X163.169 Y170.669 E4.98128
G1 X163.769 Y169.887 E5.02579
G1 X164.146 Y168.977 E5.07030
G1 X164.260 Y168.115 E5.10956
G1 X164.260 Y161.885 E5.39098
G1 X164.146 Y161.023 E5.43024
G1 X163.769 Y160.113 E5.47475
G1 X163.169 Y159.331 E5.51926
G1 X162.387 Y158.731 E5.56377
G1 X161.477 Y158.354 E5.60828
G1 X160.615 Y158.240 E5.64753
G1 X154.615 Y158.240 E5.91854
G1 X154.442 Y158.217 E5.92645
G1 X154.341 Y158.159 E5.93171
G1 X154.305 Y158.113 E5.93436
G1 X154.260 Y157.885 E5.94485
G1 X154.260 Y157.115 E5.97960
G1 X154.283 Y156.942 E5.98751
G1 X154.340 Y156.842 E5.99272
G1 X154.004 Y156.714 F7800.000
G1 F1800.000
G1 X154.095 Y156.595 E5.99947
G1 X154.214 Y156.504 E6.00623
G1 X154.352 Y156.447 E6.01298
G1 X154.592 Y156.415 E6.02395
G1 X165.485 Y156.425 E6.51592
G1 X165.648 Y156.447 E6.52338
G1 X165.786 Y156.504 E6.53013
G1 X165.905 Y156.595 E6.53689
G1 X165.996 Y156.714 E6.54364
G1 X166.053 Y156.852 E6.55040
G1 X166.085 Y157.093 E6.56138
G1 X166.085 Y158.093 E6.60654
G1 X166.190 Y158.887 E6.64273
G1 X166.532 Y159.714 E6.68314
G1 X167.077 Y160.423 E6.72355
G1 X167.786 Y160.968 E6.76395
G1 X168.613 Y161.310 E6.80436
G1 X169.407 Y161.415 E6.84055
G1 X175.407 Y161.415 E7.11155
G1 X175.648 Y161.447 E7.12253
G1 X175.786 Y161.504 E7.12929
G1 X175.905 Y161.595 E7.13604
G1 X175.996 Y161.714 E7.14280
G1 X176.053 Y161.852 E7.14955
G1 X176.085 Y162.093 E7.16053
G1 X176.085 Y167.907 E7.42316
G1 X176.053 Y168.148 E7.43414
G1 X175.996 Y168.286 E7.44089
G1 X175.905 Y168.405 E7.44765
G1 X175.786 Y168.496 E7.45440
G1 X175.648 Y168.553 E7.46116
G1 X175.407 Y168.585 E7.47214
G1 X169.407 Y168.585 E7.74314
G1 X168.613 Y168.690 E7.77933
G1 X167.786 Y169.032 E7.81974
G1 X167.077 Y169.577 E7.86015
G1 X166.532 Y170.286 E7.90055
G1 X166.190 Y171.113 E7.94096
G1 X166.085 Y171.907 E7.97715
G1 X166.085 Y172.907 E8.02231
G1 X166.053 Y173.148 E8.03329
G1 X165.996 Y173.286 E8.04005
G1 X165.905 Y173.405 E8.04680
G1 X165.786 Y173.496 E8.05356
G1 X165.648 Y173.553 E8.06031
G1 X165.407 Y173.585 E8.07129
G1 X154.593 Y173.585 E8.55976
G1 X154.352 Y173.553 E8.57074
G1 X154.214 Y173.496 E8.57749
G1 X154.095 Y173.405 E8.58425
G1 X154.004 Y173.286 E8.59100
G1 X153.947 Y173.148 E8.59776
G1 X153.915 Y172.907 E8.60874
G1 X153.915 Y172.093 E8.64553
G1 X153.947 Y171.852 E8.65651
G1 X154.004 Y171.714 E8.66326
G1 X154.095 Y171.595 E8.67002
G1 X154.214 Y171.504 E8.67677
G1 X154.352 Y171.447 E8.68353
G1 X154.593 Y171.415 E8.69451
G1 X160.593 Y171.415 E8.96551
G1 X161.387 Y171.310 E9.00170
G1 X162.214 Y170.968 E9.04211
G1 X162.923 Y170.423 E9.08251
G1 X163.468 Y169.714 E9.12292
G1 X163.810 Y168.887 E9.16333
G1 X163.915 Y168.093 E9.19952
G1 X163.915 Y161.907 E9.47890
G1 X163.810 Y161.113 E9.51508
G1 X163.468 Y160.286 E9.55549
G1 X162.923 Y159.577 E9.59590
G1 X162.214 Y159.032 E9.63631
G1 X161.387 Y158.690 E9.67672
G1 X160.593 Y158.585 E9.71290
G1 X154.593 Y158.585 E9.98391
G1 X154.352 Y158.553 E9.99489
G1 X154.214 Y158.496 E10.00164
G1 X154.095 Y158.405 E10.00840
G1 X154.004 Y158.286 E10.01515
G1 X153.947 Y158.148 E10.02191
G1 X153.915 Y157.907 E10.03289
G1 X153.915 Y157.093 E10.06968
G1 X153.947 Y156.852 E10.08066
G1 X153.981 Y156.769 E10.08470
G1 X153.662 Y156.637 F7800.000
;TYPE:External perimeter
G1 F1800.000
G1 X153.703 Y156.540 E10.08946
G1 X153.849 Y156.349 E10.10032
G1 X154.040 Y156.203 E10.11118
G1 X154.262 Y156.111 E10.12203
G1 X154.570 Y156.070 E10.13608
G1 X165.507 Y156.080 E10.63009
G1 X165.738 Y156.111 E10.64061
G1 X165.960 Y156.203 E10.65147
G1 X166.151 Y156.349 E10.66232
G1 X166.297 Y156.540 E10.67318
G1 X166.389 Y156.762 E10.68404
G1 X166.430 Y157.070 E10.69809
G1 X166.430 Y158.070 E10.74326
G1 X166.526 Y158.797 E10.77637
G1 X166.833 Y159.540 E10.81268
G1 X167.323 Y160.177 E10.84898
G1 X167.960 Y160.667 E10.88529
G1 X168.703 Y160.974 E10.92160
G1 X169.430 Y161.070 E10.95471
G1 X175.430 Y161.070 E11.22572
G1 X175.738 Y161.111 E11.23977
G1 X175.960 Y161.203 E11.25062
G1 X176.151 Y161.349 E11.26148
G1 X176.297 Y161.540 E11.27234
G1 X176.389 Y161.762 E11.28319
G1 X176.430 Y162.070 E11.29725
G1 X176.430 Y167.930 E11.56191
G1 X176.389 Y168.238 E11.57597
G1 X176.297 Y168.460 E11.58682
G1 X176.151 Y168.651 E11.59768
G1 X175.960 Y168.797 E11.60854
G1 X175.738 Y168.889 E11.61939
G1 X175.430 Y168.930 E11.63345
G1 X169.430 Y168.930 E11.90445
G1 X168.703 Y169.026 E11.93756
G1 X167.960 Y169.333 E11.97387
G1 X167.323 Y169.823 E12.01018
G1 X166.833 Y170.460 E12.04648
G1 X166.526 Y171.203 E12.08279
G1 X166.430 Y171.930 E12.11590
G1 X166.430 Y172.930 E12.16107
G1 X166.389 Y173.238 E12.17512
G1 X166.297 Y173.460 E12.18598
G1 X166.151 Y173.651 E12.19684
G1 X165.960 Y173.797 E12.20769
G1 X165.738 Y173.889 E12.21855
G1 X165.430 Y173.930 E12.23260
G1 X154.570 Y173.930 E12.72311
G1 X154.262 Y173.889 E12.73716
G1 X154.040 Y173.797 E12.74801
G1 X153.849 Y173.651 E12.75887
G1 X153.703 Y173.460 E12.76973
G1 X153.611 Y173.238 E12.78059
G1 X153.570 Y172.930 E12.79464
G1 X153.570 Y172.070 E12.83347
G1 X153.611 Y171.762 E12.84752
G1 X153.703 Y171.540 E12.85838
G1 X153.849 Y171.349 E12.86923
G1 X154.040 Y171.203 E12.88009
G1 X154.262 Y171.111 E12.89095
G1 X154.570 Y171.070 E12.90500
G1 X160.570 Y171.070 E13.17600
G1 X161.297 Y170.974 E13.20912
G1 X162.040 Y170.667 E13.24542
G1 X162.677 Y170.177 E13.28173
G1 X163.167 Y169.540 E13.31804
G1 X163.474 Y168.797 E13.35435
G1 X163.570 Y168.070 E13.38746
G1 X163.570 Y161.930 E13.66480
G1 X163.474 Y161.203 E13.69791
G1 X163.167 Y160.460 E13.73422
G1 X162.677 Y159.823 E13.77052
G1 X162.040 Y159.333 E13.80683
G1 X161.297 Y159.026 E13.84314
G1 X160.570 Y158.930 E13.87625
G1 X154.570 Y158.930 E14.14726
G1 X154.262 Y158.889 E14.16131
G1 X154.040 Y158.797 E14.17216
G1 X153.849 Y158.651 E14.18302
G1 X153.703 Y158.460 E14.19388
G1 X153.611 Y158.238 E14.20473
G1 X153.570 Y157.930 E14.21879
G1 X153.570 Y157.070 E14.25762
G1 X153.611 Y156.762 E14.27167
G1 X153.639 Y156.692 E14.27506
G1 X153.766 Y156.617 F7800.000
G1 E12.27506 F2400.000
G92 E0
G1 X164.921 Y156.873 F7800.000
G1 E2.00000 F2400.000
;TYPE:Solid infill
;WIDTH:0.422138
G1 F1800.000
G1 X165.482 Y157.433 E2.03603
G1 X165.482 Y157.924 E2.05833
G1 X164.585 Y157.028 E2.11595
G1 X164.094 Y157.027 E2.13828
G1 X165.524 Y158.458 E2.23022
G1 X165.599 Y159.023 E2.25613
G1 X163.447 Y156.872 E2.39441
G1 E0.39441 F2400.000
G92 E0
G1 X175.637 Y162.681 F7800.000
G1 E2.00000 F2400.000
G1 F1800.000
G1 X174.974 Y162.018 E2.04258
G1 X174.483 Y162.018 E2.06489
G1 X175.482 Y163.017 E2.12904
G1 X175.482 Y163.507 E2.15134
G1 X173.993 Y162.018 E2.24703
G1 X173.502 Y162.018 E2.26934
G1 X175.482 Y163.998 E2.39657
G1 X175.482 Y164.489 E2.41888
G1 X173.011 Y162.018 E2.57766
G1 X172.520 Y162.018 E2.59996
G1 X175.482 Y164.980 E2.79028
G1 X175.482 Y165.470 E2.81259
G1 X172.030 Y162.018 E3.03445
G1 X171.539 Y162.018 E3.05676
G1 X175.482 Y165.961 E3.31016
G1 X175.482 Y166.452 E3.33247
G1 X171.048 Y162.018 E3.61742
G1 X170.557 Y162.018 E3.63972
G1 X175.482 Y166.943 E3.95622
G1 X175.482 Y167.433 E3.97852
G1 X170.067 Y162.018 E4.32656
G1 X169.576 Y162.018 E4.34886
G1 X175.471 Y167.913 E4.72775
G1 X175.460 Y167.969 E4.73034
G1 X175.048 Y167.982 E4.74905
G1 X169.042 Y161.976 E5.13507
G1 X168.477 Y161.901 E5.16098
G1 X174.557 Y167.982 E5.55178
G1 X174.067 Y167.982 E5.57408
G1 X167.650 Y161.565 E5.98652
G1 X167.482 Y161.495 E5.99476
G1 X166.646 Y160.854 E6.04264
G1 X166.005 Y160.018 E6.09052
G1 X165.935 Y159.850 E6.09876
G1 X163.111 Y157.026 E6.28027
G1 X162.620 Y157.026 E6.30259
G1 X173.576 Y167.982 E7.00673
G1 X173.085 Y167.982 E7.02904
G1 X162.129 Y157.025 E7.73321
G1 X161.638 Y157.025 E7.75553
G1 X172.594 Y167.982 E8.45973
G1 X172.103 Y167.982 E8.48204
G1 X161.147 Y157.025 E9.18626
G1 X160.655 Y157.024 E9.20859
G1 X161.866 Y158.235 E9.28640
G1 X161.545 Y158.102 E9.30221
G1 X161.196 Y158.056 E9.31818
G1 X160.164 Y157.024 E9.38452
G1 X159.673 Y157.023 E9.40684
G1 X160.631 Y157.982 E9.46844
G1 X160.140 Y157.982 E9.49074
G1 X159.182 Y157.023 E9.55237
G1 X158.690 Y157.022 E9.57469
G1 X159.650 Y157.982 E9.63635
G1 X159.159 Y157.982 E9.65865
G1 X158.199 Y157.022 E9.72034
G1 X157.708 Y157.021 E9.74266
G1 X158.668 Y157.982 E9.80438
G1 X158.177 Y157.982 E9.82668
G1 X157.217 Y157.021 E9.88842
G1 X156.725 Y157.020 E9.91075
G1 X157.687 Y157.982 E9.97252
G1 X157.196 Y157.982 E9.99483
G1 X156.234 Y157.020 E10.05663
G1 X155.743 Y157.020 E10.07895
G1 X156.705 Y157.982 E10.14078
G1 X156.214 Y157.982 E10.16309
G1 X155.252 Y157.019 E10.22495
G1 X154.761 Y157.019 E10.24727
G1 X155.723 Y157.982 E10.30917
G1 X155.233 Y157.982 E10.33147
G1 X154.518 Y157.267 E10.37738
G1 X154.518 Y157.758 E10.39968
G1 X154.897 Y158.137 E10.42402
G1 E8.42402 F2400.000
G92 E0
G1 X163.978 Y160.347 F7800.000
G1 E2.00000 F2400.000
G1 F1800.000
G1 X171.613 Y167.982 E2.49067
G1 X171.122 Y167.982 E2.51298
G1 X164.444 Y161.304 E2.94217
G1 X164.518 Y161.869 E2.96807
G1 X170.631 Y167.982 E3.36095
G1 X170.140 Y167.982 E3.38325
G1 X164.518 Y162.360 E3.74459
G1 X164.518 Y162.850 E3.76689
G1 X169.650 Y167.982 E4.09669
G1 X169.368 Y167.982 E4.10950
G1 X169.183 Y168.006 E4.11796
G1 X164.518 Y163.341 E4.41777
G1 X164.518 Y163.832 E4.44008
G1 X168.749 Y168.063 E4.71201
G1 X168.455 Y168.102 E4.72549
G1 X168.344 Y168.148 E4.73099
G1 X164.518 Y164.323 E4.97685
G1 X164.518 Y164.813 E4.99915
G1 X167.997 Y168.292 E5.22271
G1 X167.650 Y168.435 E5.23978
G1 X164.518 Y165.304 E5.44103
G1 X164.518 Y165.795 E5.46333
G1 X167.338 Y168.615 E5.64458
G1 X167.061 Y168.828 E5.66049
G1 X164.518 Y166.286 E5.82390
G1 X164.518 Y166.777 E5.84620
G1 X166.783 Y169.041 E5.99176
G1 X166.646 Y169.146 E5.99960
G1 X166.538 Y169.287 E6.00766
G1 X164.518 Y167.267 E6.13748
G1 X164.518 Y167.758 E6.15978
G1 X166.325 Y169.565 E6.27590
G1 X166.112 Y169.842 E6.29181
G1 X164.505 Y168.235 E6.39510
G1 X164.448 Y168.669 E6.41498
G1 X165.933 Y170.155 E6.51046
G1 X165.790 Y170.502 E6.52754
G1 X164.379 Y169.091 E6.61820
G1 X164.235 Y169.438 E6.63527
G1 X165.646 Y170.849 E6.72593
G1 X165.602 Y170.955 E6.73118
G1 X165.562 Y171.256 E6.74494
G1 X164.092 Y169.785 E6.83946
G1 X163.995 Y170.018 E6.85091
G1 X163.925 Y170.109 E6.85615
G1 X165.505 Y171.689 E6.95770
G1 X165.482 Y171.868 E6.96587
G1 X165.482 Y172.157 E6.97900
G1 X163.712 Y170.387 E7.09274
G1 X163.499 Y170.665 E7.10865
G1 X165.482 Y172.647 E7.23608
G1 X165.468 Y172.968 E7.25068
G1 X165.325 Y172.982 E7.25722
G1 X163.265 Y170.922 E7.38960
G1 X162.988 Y171.135 E7.40551
G1 X164.834 Y172.982 E7.52421
G1 X164.343 Y172.982 E7.54651
G1 X162.710 Y171.348 E7.65151
G1 X162.518 Y171.495 E7.66250
G1 X162.411 Y171.540 E7.66777
G1 X163.853 Y172.982 E7.76046
G1 X163.362 Y172.982 E7.78276
G1 X162.064 Y171.683 E7.86620
G1 X161.717 Y171.827 E7.88327
G1 X162.871 Y172.982 E7.95747
G1 X162.380 Y172.982 E7.97978
G1 X161.326 Y171.927 E8.04755
G1 X160.892 Y171.984 E8.06743
G1 X161.890 Y172.982 E8.13153
G1 X161.399 Y172.982 E8.15384
G1 X160.436 Y172.018 E8.21574
G1 X159.945 Y172.018 E8.23804
G1 X160.908 Y172.982 E8.29994
G1 X160.417 Y172.982 E8.32225
G1 X159.454 Y172.018 E8.38415
G1 X158.963 Y172.018 E8.40646
G1 X159.927 Y172.982 E8.46836
G1 X159.436 Y172.982 E8.49066
G1 X158.473 Y172.018 E8.55256
G1 X157.982 Y172.018 E8.57487
G1 X158.945 Y172.982 E8.63677
G1 X158.454 Y172.982 E8.65908
G1 X157.491 Y172.018 E8.72098
G1 X157.000 Y172.018 E8.74328
G1 X157.963 Y172.982 E8.80518
G1 X157.473 Y172.982 E8.82749
G1 X156.510 Y172.018 E8.88939
G1 X156.019 Y172.018 E8.91169
G1 X156.982 Y172.982 E8.97360
G1 X156.491 Y172.982 E8.99590
G1 X155.528 Y172.018 E9.05780
G1 X155.037 Y172.018 E9.08011
G1 X156.000 Y172.982 E9.14201
G1 X155.510 Y172.982 E9.16431
G1 X154.556 Y172.028 E9.22557
G1 X154.540 Y172.031 E9.22631
G1 X154.518 Y172.141 E9.23142
G1 X154.518 Y172.481 E9.24689
G1 X155.174 Y173.137 E9.28903
M106 S51
;LAYER_CHANGE
;Z:0.65
;HEIGHT:0.3
G1 Z0.650 F7800.000
;AFTER_LAYER_CHANGE
;0.65
G10 S210 ; set temperature
G1 E7.28903 F2400.000
G92 E0
G1 X152.580 Y180.706 F7800.000
G1 E2.00000 F2400.000
;TYPE:Skirt
;WIDTH:0.42
G1 F4800.000
