; G-Code generated by Simplify3D(R) Version 4.1.1
; Feb 24, 2021 at 6:22:08 PM
; Settings Summary
;   processName,Process1
;   applyToModels,Extrusion_Test
;   profileName,BLV_MGN (modified)
;   profileVersion,2021-02-21 18:43:46
;   baseProfile,Default
;   printMaterial,PLA
;   printQuality,Medium
;   printExtruders,
;   extruderName,Extruder 1
;   extruderToolheadNumber,0
;   extruderDiameter,0.4
;   extruderAutoWidth,0
;   extruderWidth,0.4
;   extrusionMultiplier,0.9
;   extruderUseRetract,1
;   extruderRetractionDistance,1
;   extruderExtraRestartDistance,0
;   extruderRetractionZLift,0
;   extruderRetractionSpeed,1800
;   extruderUseCoasting,0
;   extruderCoastingDistance,0.2
;   extruderUseWipe,0
;   extruderWipeDistance,5
;   primaryExtruder,0
;   layerHeight,0.2
;   topSolidLayers,3
;   bottomSolidLayers,3
;   perimeterOutlines,2
;   printPerimetersInsideOut,1
;   startPointOption,2
;   startPointOriginX,0
;   startPointOriginY,0
;   sequentialIslands,0
;   spiralVaseMode,0
;   firstLayerHeightPercentage,125
;   firstLayerWidthPercentage,100
;   firstLayerUnderspeed,0.5
;   useRaft,0
;   raftExtruder,0
;   raftTopLayers,3
;   raftBaseLayers,2
;   raftOffset,3
;   raftSeparationDistance,0.14
;   raftTopInfill,100
;   aboveRaftSpeedMultiplier,0.3
;   useSkirt,1
;   skirtExtruder,0
;   skirtLayers,1
;   skirtOutlines,2
;   skirtOffset,4
;   usePrimePillar,0
;   primePillarExtruder,999
;   primePillarWidth,12
;   primePillarLocation,7
;   primePillarSpeedMultiplier,1
;   useOozeShield,0
;   oozeShieldExtruder,999
;   oozeShieldOffset,2
;   oozeShieldOutlines,1
;   oozeShieldSidewallShape,1
;   oozeShieldSidewallAngle,30
;   oozeShieldSpeedMultiplier,1
;   infillExtruder,0
;   internalInfillPattern,Rectilinear
;   externalInfillPattern,Rectilinear
;   infillPercentage,20
;   outlineOverlapPercentage,15
;   infillExtrusionWidthPercentage,100
;   minInfillLength,5
;   infillLayerInterval,1
;   internalInfillAngles,45,-45
;   overlapInternalInfillAngles,0
;   externalInfillAngles,45,-45
;   generateSupport,0
;   supportExtruder,0
;   supportInfillPercentage,30
;   supportExtraInflation,0
;   supportBaseLayers,0
;   denseSupportExtruder,0
;   denseSupportLayers,0
;   denseSupportInfillPercentage,70
;   supportLayerInterval,1
;   supportHorizontalPartOffset,0.3
;   supportUpperSeparationLayers,1
;   supportLowerSeparationLayers,1
;   supportType,0
;   supportGridSpacing,4
;   maxOverhangAngle,45
;   supportAngles,0
;   temperatureName,Extruder 1,Heated Bed
;   temperatureNumber,0,0
;   temperatureSetpointCount,1,1
;   temperatureSetpointLayers,1,1
;   temperatureSetpointTemperatures,210,60
;   temperatureStabilizeAtStartup,1,1
;   temperatureHeatedBed,0,1
;   fanLayers,1,2
;   fanSpeeds,0,80
;   blipFanToFullPower,0
;   adjustSpeedForCooling,0
;   minSpeedLayerTime,15
;   minCoolingSpeedSlowdown,20
;   increaseFanForCooling,1
;   minFanLayerTime,45
;   maxCoolingFanSpeed,100
;   increaseFanForBridging,1
;   bridgingFanSpeed,100
;   use5D,1
;   relativeEdistances,1
;   allowEaxisZeroing,1
;   independentExtruderAxes,0
;   includeM10123,0
;   stickySupport,1
;   applyToolheadOffsets,0
;   gcodeXoffset,24
;   gcodeYoffset,22
;   gcodeZoffset,0
;   overrideMachineDefinition,1
;   machineTypeOverride,0
;   strokeXoverride,310
;   strokeYoverride,310
;   strokeZoverride,335
;   originOffsetXoverride,0
;   originOffsetYoverride,0
;   originOffsetZoverride,0
;   homeXdirOverride,-1
;   homeYdirOverride,1
;   homeZdirOverride,-1
;   flipXoverride,1
;   flipYoverride,-1
;   flipZoverride,1
;   toolheadOffsets,0,0|0,0|0,0|0,0|0,0|0,0
;   overrideFirmwareConfiguration,1
;   firmwareTypeOverride,RepRap (Marlin/Repetier/Sprinter)
;   GPXconfigOverride,r2
;   baudRateOverride,115200
;   overridePrinterModels,0
;   printerModelsOverride
;   startingGcode,; use real coordinates as they are not modified by the global gcode offset,G90 ; use absolute coordinates,M83 ; extruder relative mode,M104 S170 ; set extruder temp for bed leveling,M140 S[bed0_temperature]  ; set bed temp,M109 R170 ; wait for bed leveling extruder temp,M190 S[bed0_temperature] ; wait for bed temp,G28 ; home all without mesh bed level,G29 S1 ; mesh bed leveling ,;{IF NEWTOOL=0} M104 S[extruder0_temperature] ; when using mutltitool,M104 S[extruder0_temperature] ; set extruder temp,G90 ; use absolute coordinates,G92 E0.0,M109 S[extruder0_temperature] ; wait for extruder temp,G29 S1,M98 P"/macros/purge_and_prime",M98 P"/macros/set_baby_step",,G92 E0.0,
;   layerChangeGcode,
;   retractionGcode,
;   toolChangeGcode,
;   endingGcode,G1 E-2 F2100 ; retract,M98 P"/macros/remove_baby_step",,; Move print head up,M98 P"/macros/rise30mm",,G4 S2 ; wait,M104 S0 ; turn off temperature,M140 S0 ; turn off heatbed,M107 ; turn off fan,;M221 S100 ; reset flow,M84 ; disable motors
;   exportFileFormat,gcode
;   celebration,0
;   celebrationSong,Random Song
;   postProcessing,
;   defaultSpeed,4800
;   outlineUnderspeed,0.5
;   solidInfillUnderspeed,0.8
;   supportUnderspeed,0.8
;   rapidXYspeed,4800
;   rapidZspeed,1002
;   minBridgingArea,50
;   bridgingExtraInflation,0
;   bridgingExtrusionMultiplier,1
;   bridgingSpeedMultiplier,1
;   useFixedBridgingAngle,0
;   fixedBridgingAngle,0
;   applyBridgingToPerimeters,0
;   filamentDiameters,1.75|1.75|1.75|1.75|1.75|1.75
;   filamentPricesPerKg,46|46|46|46|46|46
;   filamentDensities,1.25|1.25|1.25|1.25|1.25|1.25
;   useMinPrintHeight,0
;   minPrintHeight,0
;   useMaxPrintHeight,0
;   maxPrintHeight,0
;   useDiaphragm,0
;   diaphragmLayerInterval,20
;   robustSlicing,1
;   mergeAllIntoSolid,0
;   onlyRetractWhenCrossingOutline,1
;   retractBetweenLayers,1
;   useRetractionMinTravel,0
;   retractionMinTravel,3
;   retractWhileWiping,0
;   onlyWipeOutlines,1
;   avoidCrossingOutline,0
;   maxMovementDetourFactor,3
;   toolChangeRetractionDistance,12
;   toolChangeExtraRestartDistance,-0.5
;   toolChangeRetractionSpeed,600
;   externalThinWallType,0
;   internalThinWallType,2
;   thinWallAllowedOverlapPercentage,10
;   singleExtrusionMinLength,1
;   singleExtrusionMinPrintingWidthPercentage,50
;   singleExtrusionMaxPrintingWidthPercentage,200
;   singleExtrusionEndpointExtension,0.2
;   horizontalSizeCompensation,0
G90
M83
M106 S141
; use real coordinates as they are not modified by the global gcode offset
G90 ; use absolute coordinates
M83 ; extruder relative mode
M104 S170 ; set extruder temp for bed leveling
M140 S60  ; set bed temp
M109 R170 ; wait for bed leveling extruder temp
M190 S60 ; wait for bed temp
G28 ; home all without mesh bed level
G29 S1 ; mesh bed leveling 
;{IF NEWTOOL=0} M104 S210 ; when using mutltitool
M104 S210 ; set extruder temp
G90 ; use absolute coordinates
G92 E0.0
M109 S210 ; wait for extruder temp
G29 S1
M98 P"/macros/purge_and_prime"
M98 P"/macros/set_baby_step"
G92 E0.0
; process Process1
; layer 1, Z = 0.250
T0
G1 E-1.0000 F1800
; feature skirt
; tool H0.250 W0.400
G1 Z0.250 F1002
G1 X164.546 Y164.619 F4800
G1 E1.0000 F1800
G1 X165.292 Y164.046 E0.0352 F2400
G1 X165.814 Y163.745 E0.0226
G1 X166.683 Y163.385 E0.0352
G1 X167.266 Y163.229 E0.0226
G1 X168.096 Y163.120 E0.0313
G1 X168.398 Y163.100 E0.0113
G1 X179.672 Y163.109 E0.4219
G1 X179.971 Y163.128 E0.0112
G1 X180.734 Y163.229 E0.0288
G1 X181.317 Y163.385 E0.0226
G1 X182.186 Y163.745 E0.0352
G1 X182.708 Y164.046 E0.0226
G1 X183.454 Y164.619 E0.0352
G1 X183.881 Y165.046 E0.0226
G1 X184.454 Y165.792 E0.0352
G1 X184.755 Y166.314 E0.0226
G1 X185.115 Y167.183 E0.0352
G1 X185.271 Y167.766 E0.0226
G1 X185.315 Y168.100 E0.0126
G1 X189.605 Y168.100 E0.1605
G1 X189.905 Y168.120 E0.0113
G1 X190.734 Y168.229 E0.0313
G1 X191.317 Y168.385 E0.0226
G1 X192.186 Y168.745 E0.0352
G1 X192.708 Y169.046 E0.0226
G1 X193.454 Y169.619 E0.0352
G1 X193.881 Y170.046 E0.0226
G1 X194.454 Y170.792 E0.0352
G1 X194.755 Y171.314 E0.0226
G1 X195.115 Y172.183 E0.0352
G1 X195.271 Y172.766 E0.0226
G1 X195.380 Y173.595 E0.0313
G1 X195.400 Y173.895 E0.0113
G1 X195.400 Y180.105 E0.2323
G1 X195.380 Y180.405 E0.0113
G1 X195.271 Y181.234 E0.0313
G1 X195.115 Y181.817 E0.0226
G1 X194.755 Y182.686 E0.0352
G1 X194.454 Y183.208 E0.0226
G1 X193.881 Y183.954 E0.0352
G1 X193.454 Y184.381 E0.0226
G1 X192.708 Y184.954 E0.0352
G1 X192.186 Y185.255 E0.0226
G1 X191.317 Y185.615 E0.0352
G1 X190.734 Y185.771 E0.0226
G1 X189.905 Y185.880 E0.0313
G1 X189.605 Y185.900 E0.0113
G1 X185.315 Y185.900 E0.1605
G1 X185.271 Y186.234 E0.0126
G1 X185.115 Y186.817 E0.0226
G1 X184.755 Y187.686 E0.0352
G1 X184.454 Y188.208 E0.0226
G1 X183.881 Y188.954 E0.0352
G1 X183.454 Y189.381 E0.0226
G1 X182.708 Y189.954 E0.0352
G1 X182.186 Y190.255 E0.0226
G1 X181.317 Y190.615 E0.0352
G1 X180.734 Y190.771 E0.0226
G1 X179.905 Y190.880 E0.0313
G1 X179.605 Y190.900 E0.0113
G1 X168.395 Y190.900 E0.4194
G1 X168.095 Y190.880 E0.0113
G1 X167.266 Y190.771 E0.0313
G1 X166.683 Y190.615 E0.0226
G1 X165.814 Y190.255 E0.0352
G1 X165.292 Y189.954 E0.0226
G1 X164.546 Y189.381 E0.0352
G1 X164.119 Y188.954 E0.0226
G1 X163.546 Y188.208 E0.0352
G1 X163.245 Y187.686 E0.0226
G1 X162.885 Y186.817 E0.0352
G1 X162.729 Y186.234 E0.0226
G1 X162.620 Y185.405 E0.0313
G1 X162.600 Y185.105 E0.0113
G1 X162.600 Y183.895 E0.0453
G1 X162.620 Y183.595 E0.0113
G1 X162.729 Y182.766 E0.0313
G1 X162.885 Y182.183 E0.0226
G1 X163.245 Y181.314 E0.0352
G1 X163.546 Y180.792 E0.0226
G1 X164.119 Y180.046 E0.0352
G1 X164.546 Y179.619 E0.0226
G1 X165.292 Y179.046 E0.0352
G1 X165.814 Y178.745 E0.0226
G1 X166.683 Y178.385 E0.0352
G1 X167.266 Y178.229 E0.0226
G1 X168.095 Y178.120 E0.0313
G1 X168.395 Y178.100 E0.0113
G1 X172.600 Y178.100 E0.1573
G1 X172.600 Y175.900 E0.0823
G1 X168.395 Y175.900 E0.1573
G1 X168.095 Y175.880 E0.0113
G1 X167.266 Y175.771 E0.0313
G1 X166.683 Y175.615 E0.0226
G1 X165.814 Y175.255 E0.0352
G1 X165.292 Y174.954 E0.0226
G1 X164.545 Y174.381 E0.0352
G1 X164.119 Y173.954 E0.0226
G1 X163.546 Y173.208 E0.0352
G1 X163.245 Y172.686 E0.0226
G1 X162.885 Y171.817 E0.0352
G1 X162.729 Y171.234 E0.0226
G1 X162.620 Y170.405 E0.0313
G1 X162.600 Y170.105 E0.0113
G1 X162.600 Y168.895 E0.0453
G1 X162.620 Y168.595 E0.0113
G1 X162.729 Y167.766 E0.0313
G1 X162.885 Y167.183 E0.0226
G1 X163.245 Y166.314 E0.0352
G1 X163.546 Y165.792 E0.0226
G1 X164.119 Y165.046 E0.0352
G1 X164.546 Y164.619 E0.0226
G1 E-1.0000 F1800
G1 X164.810 Y164.920 F4800
G1 E1.0000 F1800
G1 X165.515 Y164.380 E0.0332 F2400
G1 X165.992 Y164.104 E0.0206
G1 X166.812 Y163.764 E0.0332
G1 X167.344 Y163.622 E0.0206
G1 X168.135 Y163.518 E0.0298
G1 X168.411 Y163.500 E0.0104
G1 X179.659 Y163.509 E0.4209
G1 X179.932 Y163.527 E0.0102
G1 X180.656 Y163.622 E0.0273
G1 X181.188 Y163.764 E0.0206
G1 X182.009 Y164.104 E0.0332
G1 X182.485 Y164.380 E0.0206
G1 X183.190 Y164.920 E0.0332
G1 X183.579 Y165.310 E0.0206
G1 X184.120 Y166.015 E0.0332
G1 X184.396 Y166.491 E0.0206
G1 X184.736 Y167.312 E0.0332
G1 X184.878 Y167.844 E0.0206
G1 X184.964 Y168.500 E0.0248
G1 X189.592 Y168.500 E0.1731
G1 X189.866 Y168.518 E0.0103
G1 X190.656 Y168.622 E0.0298
G1 X191.188 Y168.764 E0.0206
G1 X192.009 Y169.104 E0.0332
G1 X192.485 Y169.380 E0.0206
G1 X193.190 Y169.920 E0.0332
G1 X193.579 Y170.310 E0.0206
G1 X194.120 Y171.015 E0.0332
G1 X194.396 Y171.491 E0.0206
G1 X194.736 Y172.312 E0.0332
G1 X194.878 Y172.844 E0.0206
G1 X194.982 Y173.634 E0.0298
G1 X195.000 Y173.908 E0.0103
G1 X195.000 Y180.092 E0.2314
G1 X194.982 Y180.366 E0.0103
G1 X194.878 Y181.156 E0.0298
G1 X194.736 Y181.688 E0.0206
G1 X194.396 Y182.509 E0.0332
G1 X194.120 Y182.985 E0.0206
G1 X193.579 Y183.690 E0.0332
G1 X193.190 Y184.079 E0.0206
G1 X192.485 Y184.620 E0.0332
G1 X192.009 Y184.896 E0.0206
G1 X191.188 Y185.236 E0.0332
G1 X190.656 Y185.378 E0.0206
G1 X189.866 Y185.482 E0.0298
G1 X189.592 Y185.500 E0.0103
G1 X184.964 Y185.500 E0.1731
G1 X184.878 Y186.156 E0.0248
G1 X184.736 Y186.688 E0.0206
G1 X184.396 Y187.509 E0.0332
G1 X184.120 Y187.985 E0.0206
G1 X183.579 Y188.690 E0.0332
G1 X183.190 Y189.079 E0.0206
G1 X182.485 Y189.620 E0.0332
G1 X182.009 Y189.896 E0.0206
G1 X181.188 Y190.236 E0.0332
G1 X180.656 Y190.378 E0.0206
G1 X179.866 Y190.482 E0.0298
G1 X179.592 Y190.500 E0.0103
G1 X168.408 Y190.500 E0.4184
G1 X168.134 Y190.482 E0.0103
G1 X167.344 Y190.378 E0.0298
G1 X166.812 Y190.236 E0.0206
G1 X165.991 Y189.896 E0.0332
G1 X165.515 Y189.620 E0.0206
G1 X164.810 Y189.079 E0.0332
G1 X164.420 Y188.690 E0.0206
G1 X163.880 Y187.985 E0.0332
G1 X163.604 Y187.509 E0.0206
G1 X163.264 Y186.688 E0.0332
G1 X163.122 Y186.156 E0.0206
G1 X163.018 Y185.366 E0.0298
G1 X163.000 Y185.092 E0.0103
G1 X163.000 Y183.908 E0.0443
G1 X163.018 Y183.634 E0.0103
G1 X163.122 Y182.844 E0.0298
G1 X163.264 Y182.312 E0.0206
G1 X163.604 Y181.491 E0.0332
G1 X163.880 Y181.015 E0.0206
G1 X164.420 Y180.310 E0.0332
G1 X164.810 Y179.920 E0.0206
G1 X165.515 Y179.380 E0.0332
G1 X165.992 Y179.104 E0.0206
G1 X166.812 Y178.764 E0.0332
G1 X167.344 Y178.622 E0.0206
G1 X168.134 Y178.518 E0.0298
G1 X168.408 Y178.500 E0.0103
G1 X173.000 Y178.500 E0.1718
G1 X173.000 Y175.500 E0.1123
G1 X168.408 Y175.500 E0.1718
G1 X168.134 Y175.482 E0.0103
G1 X167.344 Y175.378 E0.0298
G1 X166.812 Y175.236 E0.0206
G1 X165.992 Y174.896 E0.0332
G1 X165.515 Y174.620 E0.0206
G1 X164.810 Y174.079 E0.0332
G1 X164.420 Y173.690 E0.0206
G1 X163.880 Y172.985 E0.0332
G1 X163.604 Y172.509 E0.0206
G1 X163.265 Y171.688 E0.0332
G1 X163.122 Y171.156 E0.0206
G1 X163.018 Y170.366 E0.0298
G1 X163.000 Y170.092 E0.0103
G1 X163.000 Y168.908 E0.0443
G1 X163.018 Y168.634 E0.0103
G1 X163.122 Y167.844 E0.0298
G1 X163.264 Y167.312 E0.0206
G1 X163.604 Y166.491 E0.0332
G1 X163.880 Y166.015 E0.0206
G1 X164.420 Y165.310 E0.0332
G1 X164.810 Y164.920 E0.0206
G1 E-1.0000 F1800
; feature inner perimeter
G1 X168.013 Y168.513 F4800
G1 E1.0000 F1800
G1 X168.156 Y168.404 E0.0067 F1800
G1 X168.322 Y168.335 E0.0067
G1 X168.585 Y168.300 E0.0099
G1 X179.479 Y168.308 E0.4076
G1 X179.678 Y168.335 E0.0075
G1 X179.844 Y168.403 E0.0067
G1 X179.987 Y168.513 E0.0067
G1 X180.097 Y168.656 E0.0067
G1 X180.165 Y168.822 E0.0067
G1 X180.200 Y169.085 E0.0099
G1 X180.200 Y170.085 E0.0374
G1 X180.302 Y170.857 E0.0291
G1 X180.632 Y171.656 E0.0323
G1 X181.071 Y172.227 E0.0269
G1 X181.159 Y172.341 E0.0054
G1 X181.844 Y172.868 E0.0323
G1 X182.643 Y173.198 E0.0323
G1 X183.415 Y173.300 E0.0291
G1 X189.415 Y173.300 E0.2245
G1 X189.678 Y173.335 E0.0099
G1 X189.844 Y173.403 E0.0067
G1 X189.987 Y173.513 E0.0067
G1 X190.097 Y173.656 E0.0067
G1 X190.165 Y173.822 E0.0067
G1 X190.200 Y174.085 E0.0099
G1 X190.200 Y179.915 E0.2181
G1 X190.165 Y180.178 E0.0099
G1 X190.096 Y180.344 E0.0067
G1 X189.987 Y180.487 E0.0067
G1 X189.844 Y180.596 E0.0067
G1 X189.678 Y180.665 E0.0067
G1 X189.415 Y180.700 E0.0099
G1 X183.415 Y180.700 E0.2245
G1 X182.643 Y180.802 E0.0291
G1 X181.844 Y181.132 E0.0323
G1 X181.159 Y181.659 E0.0323
G1 X180.632 Y182.344 E0.0323
G1 X180.302 Y183.143 E0.0323
G1 X180.200 Y183.915 E0.0291
G1 X180.200 Y184.915 E0.0374
G1 X180.165 Y185.178 E0.0099
G1 X180.096 Y185.344 E0.0067
G1 X179.987 Y185.487 E0.0067
G1 X179.844 Y185.596 E0.0067
G1 X179.678 Y185.665 E0.0067
G1 X179.415 Y185.700 E0.0099
G1 X168.585 Y185.700 E0.4052
G1 X168.322 Y185.665 E0.0099
G1 X168.156 Y185.597 E0.0067
G1 X168.013 Y185.487 E0.0067
G1 X167.904 Y185.344 E0.0067
G1 X167.835 Y185.178 E0.0067
G1 X167.800 Y184.915 E0.0099
G1 X167.800 Y184.085 E0.0310
G1 X167.835 Y183.822 E0.0099
G1 X167.904 Y183.656 E0.0067
G1 X168.013 Y183.513 E0.0067
G1 X168.156 Y183.404 E0.0067
G1 X168.322 Y183.335 E0.0067
G1 X168.585 Y183.300 E0.0099
G1 X174.585 Y183.300 E0.2245
G1 X175.357 Y183.198 E0.0291
G1 X176.156 Y182.868 E0.0323
