; generated by PrusaSlicer 2.3.0+win64 on 2021-02-23 at 20:10:03 UTC

; 

; external perimeters extrusion width = 0.45mm
; perimeters extrusion width = 0.45mm
; infill extrusion width = 0.45mm
; solid infill extrusion width = 0.45mm
; top infill extrusion width = 0.40mm
; first layer extrusion width = 0.42mm

M107
;TYPE:Custom
G90 ; use absolute coordinates
M83 ; extruder relative mode
M104 S170 ; set extruder temp for bed leveling
M140 S60 ; set bed temp
M109 R170 ; wait for bed leveling extruder temp
M190 S60 ; wait for bed temp
G28 ; home all without mesh bed level
G29 S1 ; mesh bed leveling 
M104 S220 ; set extruder temp
G90 ; use absolute coordinates
G92 E0.0
G0 X20 Y23 Z25 F4800
G1 Z3 F720
M109 S220 ; wait for extruder temp
M290 R0 S-0.20

M98 P"/macros/purge_and_prime"

G92 E0.0

;M221 S95 ; set flow
G21 ; set units to millimeters
G90 ; use absolute coordinates
M82 ; use absolute distances for extrusion
G92 E0
M900 K0 ; Filament gcode
;LAYER_CHANGE
;Z:0.25
;HEIGHT:0.25
G1 Z0.250 F7800.000
;AFTER_LAYER_CHANGE
;0.25
G1 E-2.00000 F2400.000
G92 E0
G1 X150.849 Y150.062 F7800.000
G1 E2.00000 F2400.000
;TYPE:Skirt
;WIDTH:0.42
G1 F1800.000
G1 X152.599 Y149.392 E2.07135
G1 X154.418 Y149.155 E2.14118
G1 X165.472 Y149.154 E2.56211
G1 X167.247 Y149.356 E2.63013
G1 X168.760 Y149.877 E2.69107
G1 X179.102 Y155.036 E3.13113
G1 X179.841 Y155.474 E3.16386
G1 X180.699 Y156.134 E3.20508
G1 X181.274 Y156.696 E3.23568
G1 X181.829 Y157.387 E3.26941
G1 X182.427 Y158.327 E3.31184
G1 X182.936 Y159.520 E3.36122
G1 X183.186 Y160.465 E3.39845
G1 X183.338 Y161.706 E3.44606
G1 X183.325 Y168.483 E3.70411
G1 X183.081 Y170.007 E3.76291
G1 X182.549 Y171.425 E3.82056
G1 X182.038 Y172.324 E3.85992
G1 X181.250 Y173.330 E3.90860
G1 X180.567 Y173.977 E3.94440
G1 X179.553 Y174.713 E3.99212
G1 X169.029 Y180.000 E4.44058
G1 X167.564 Y180.565 E4.50038
G1 X166.777 Y180.728 E4.53098
G1 X165.601 Y180.845 E4.57598
G1 X154.335 Y180.843 E5.00497
G1 X152.614 Y180.611 E5.07110
G1 X151.075 Y180.049 E5.13348
G1 X150.243 Y179.583 E5.16977
G1 X149.339 Y178.898 E5.21298
G1 X148.722 Y178.299 E5.24571
G1 X148.111 Y177.534 E5.28300
G1 X147.605 Y176.734 E5.31905
G1 X147.181 Y175.789 E5.35847
G1 X146.925 Y175.028 E5.38907
G1 X146.767 Y174.246 E5.41943
G1 X146.654 Y173.007 E5.46679
G1 X146.657 Y156.822 E6.08309
G1 X146.890 Y155.107 E6.14898
G1 X147.451 Y153.575 E6.21112
G1 X147.865 Y152.822 E6.24385
G1 X148.433 Y152.047 E6.28043
G1 X149.442 Y151.015 E6.33538
G1 X150.799 Y150.095 E6.39781
G1 E4.39781 F2400.000
G92 E0
G1 X154.429 Y156.878 F7800.000
G1 E2.00000 F2400.000
;TYPE:Perimeter
G1 F1800.000
G1 X154.620 Y156.843 E2.00740
G1 X165.431 Y156.849 E2.41902
G1 X165.537 Y156.863 E2.42309
G1 X165.622 Y156.929 E2.42721
G1 X165.657 Y157.121 E2.43463
G1 X165.657 Y158.121 E2.47270
G1 X165.773 Y158.999 E2.50642
G1 X166.158 Y159.929 E2.54477
G1 X166.772 Y160.728 E2.58313
G1 X167.571 Y161.342 E2.62149
G1 X168.501 Y161.727 E2.65984
G1 X169.379 Y161.843 E2.69356
G1 X175.379 Y161.843 E2.92202
G1 X175.571 Y161.878 E2.92943
G1 X175.637 Y161.963 E2.93356
G1 X175.657 Y162.121 E2.93960
G1 X175.657 Y167.879 E3.15887
G1 X175.622 Y168.071 E3.16628
G1 X175.537 Y168.137 E3.17040
G1 X175.379 Y168.157 E3.17644
G1 X169.379 Y168.157 E3.40491
G1 X168.501 Y168.273 E3.43863
G1 X167.571 Y168.658 E3.47698
G1 X166.772 Y169.272 E3.51534
G1 X166.158 Y170.071 E3.55369
G1 X165.773 Y171.001 E3.59205
G1 X165.657 Y171.879 E3.62576
G1 X165.657 Y172.879 E3.66384
G1 X165.622 Y173.071 E3.67125
G1 X165.537 Y173.137 E3.67537
G1 X165.379 Y173.157 E3.68142
G1 X154.621 Y173.157 E4.09107
G1 X154.429 Y173.122 E4.09848
G1 X154.363 Y173.037 E4.10260
G1 X154.343 Y172.879 E4.10865
G1 X154.343 Y172.121 E4.13753
G1 X154.378 Y171.929 E4.14494
G1 X154.463 Y171.863 E4.14906
G1 X154.621 Y171.843 E4.15510
G1 X160.621 Y171.843 E4.38357
G1 X161.499 Y171.727 E4.41729
G1 X162.429 Y171.342 E4.45564
G1 X163.228 Y170.728 E4.49400
G1 X163.842 Y169.929 E4.53235
G1 X164.227 Y168.999 E4.57071
G1 X164.343 Y168.121 E4.60443
G1 X164.343 Y161.879 E4.84209
G1 X164.227 Y161.001 E4.87581
G1 X163.842 Y160.071 E4.91416
G1 X163.228 Y159.272 E4.95252
G1 X162.429 Y158.658 E4.99087
G1 X161.499 Y158.273 E5.02923
G1 X160.621 Y158.157 E5.06294
G1 X154.621 Y158.157 E5.29141
G1 X154.463 Y158.137 E5.29745
G1 X154.378 Y158.071 E5.30158
G1 X154.343 Y157.879 E5.30899
G1 X154.343 Y157.121 E5.33787
G1 X154.363 Y156.963 E5.34391
G1 X154.386 Y156.918 E5.34583
G1 X154.058 Y156.745 F7800.000
G1 F1800.000
G1 X154.139 Y156.639 E5.35091
G1 X154.245 Y156.558 E5.35599
G1 X154.368 Y156.506 E5.36107
G1 X154.597 Y156.476 E5.36985
G1 X165.455 Y156.483 E5.78331
G1 X165.632 Y156.506 E5.79012
G1 X165.755 Y156.558 E5.79520
G1 X165.861 Y156.639 E5.80028
G1 X165.942 Y156.745 E5.80536
G1 X165.993 Y156.868 E5.81044
G1 X166.024 Y157.097 E5.81923
G1 X166.024 Y158.097 E5.85731
G1 X166.130 Y158.903 E5.88828
G1 X166.478 Y159.745 E5.92296
G1 X167.033 Y160.467 E5.95764
G1 X167.755 Y161.022 E5.99232
G1 X168.597 Y161.370 E6.02701
G1 X169.403 Y161.476 E6.05797
G1 X175.403 Y161.476 E6.28644
G1 X175.632 Y161.506 E6.29523
G1 X175.755 Y161.558 E6.30031
G1 X175.861 Y161.639 E6.30539
G1 X175.942 Y161.745 E6.31047
G1 X175.993 Y161.868 E6.31555
G1 X176.024 Y162.097 E6.32434
G1 X176.024 Y167.903 E6.54544
G1 X175.993 Y168.132 E6.55423
G1 X175.942 Y168.255 E6.55931
G1 X175.861 Y168.361 E6.56439
G1 X175.755 Y168.442 E6.56947
G1 X175.632 Y168.494 E6.57455
G1 X175.403 Y168.524 E6.58334
G1 X169.403 Y168.524 E6.81181
G1 X168.597 Y168.630 E6.84277
G1 X167.755 Y168.978 E6.87746
G1 X167.033 Y169.533 E6.91214
G1 X166.478 Y170.255 E6.94682
G1 X166.130 Y171.097 E6.98150
G1 X166.024 Y171.903 E7.01247
G1 X166.024 Y172.903 E7.05055
G1 X165.993 Y173.132 E7.05934
G1 X165.942 Y173.255 E7.06442
G1 X165.861 Y173.361 E7.06950
G1 X165.755 Y173.442 E7.07458
G1 X165.632 Y173.494 E7.07966
G1 X165.403 Y173.524 E7.08845
G1 X154.597 Y173.524 E7.49994
G1 X154.368 Y173.494 E7.50873
G1 X154.245 Y173.442 E7.51381
G1 X154.139 Y173.361 E7.51889
G1 X154.058 Y173.255 E7.52397
G1 X154.006 Y173.132 E7.52904
G1 X153.976 Y172.903 E7.53784
G1 X153.976 Y172.097 E7.56855
G1 X154.006 Y171.868 E7.57734
G1 X154.058 Y171.745 E7.58242
G1 X154.139 Y171.639 E7.58750
G1 X154.245 Y171.558 E7.59258
G1 X154.368 Y171.507 E7.59766
G1 X154.597 Y171.476 E7.60645
G1 X160.597 Y171.476 E7.83492
G1 X161.403 Y171.370 E7.86588
G1 X162.245 Y171.022 E7.90057
G1 X162.967 Y170.467 E7.93525
G1 X163.522 Y169.745 E7.96993
G1 X163.870 Y168.903 E8.00461
G1 X163.976 Y168.097 E8.03558
G1 X163.976 Y161.903 E8.27141
G1 X163.870 Y161.097 E8.30238
G1 X163.522 Y160.255 E8.33706
G1 X162.967 Y159.533 E8.37175
G1 X162.245 Y158.978 E8.40643
G1 X161.403 Y158.630 E8.44111
G1 X160.597 Y158.524 E8.47208
G1 X154.597 Y158.524 E8.70054
G1 X154.368 Y158.494 E8.70934
G1 X154.245 Y158.442 E8.71442
G1 X154.139 Y158.361 E8.71949
G1 X154.058 Y158.255 E8.72457
G1 X154.006 Y158.132 E8.72965
G1 X153.976 Y157.903 E8.73845
G1 X153.976 Y157.097 E8.76916
G1 X154.006 Y156.868 E8.77795
G1 X154.035 Y156.800 E8.78074
G1 X153.696 Y156.660 F7800.000
;TYPE:External perimeter
G1 F1800.000
G1 X153.738 Y156.560 E8.78486
G1 X153.877 Y156.377 E8.79362
G1 X154.060 Y156.238 E8.80237
G1 X154.272 Y156.150 E8.81112
G1 X154.573 Y156.110 E8.82266
G1 X165.479 Y156.117 E9.23795
G1 X165.728 Y156.150 E9.24751
G1 X165.940 Y156.238 E9.25626
G1 X166.123 Y156.377 E9.26501
G1 X166.262 Y156.560 E9.27376
G1 X166.350 Y156.772 E9.28251
G1 X166.390 Y157.073 E9.29406
G1 X166.390 Y158.073 E9.33214
G1 X166.487 Y158.807 E9.36035
G1 X166.798 Y159.560 E9.39136
G1 X167.294 Y160.206 E9.42237
G1 X167.940 Y160.702 E9.45338
G1 X168.693 Y161.013 E9.48439
G1 X169.427 Y161.110 E9.51261
G1 X175.427 Y161.110 E9.74107
G1 X175.728 Y161.150 E9.75262
G1 X175.940 Y161.238 E9.76137
G1 X176.123 Y161.377 E9.77012
G1 X176.262 Y161.560 E9.77887
G1 X176.350 Y161.772 E9.78762
G1 X176.390 Y162.073 E9.79917
G1 X176.390 Y167.927 E10.02209
G1 X176.350 Y168.228 E10.03364
G1 X176.262 Y168.440 E10.04239
G1 X176.123 Y168.623 E10.05114
G1 X175.940 Y168.762 E10.05989
G1 X175.728 Y168.850 E10.06865
G1 X175.427 Y168.890 E10.08019
G1 X169.427 Y168.890 E10.30866
G1 X168.693 Y168.987 E10.33687
G1 X167.940 Y169.298 E10.36788
G1 X167.294 Y169.794 E10.39889
G1 X166.798 Y170.440 E10.42990
G1 X166.487 Y171.193 E10.46091
G1 X166.390 Y171.927 E10.48913
G1 X166.390 Y172.927 E10.52720
G1 X166.350 Y173.228 E10.53875
G1 X166.262 Y173.440 E10.54750
G1 X166.123 Y173.623 E10.55625
G1 X165.940 Y173.762 E10.56500
G1 X165.728 Y173.850 E10.57375
G1 X165.427 Y173.890 E10.58530
G1 X154.573 Y173.890 E10.99861
G1 X154.272 Y173.850 E11.01016
G1 X154.060 Y173.762 E11.01891
G1 X153.877 Y173.623 E11.02766
G1 X153.738 Y173.440 E11.03641
G1 X153.650 Y173.228 E11.04517
G1 X153.610 Y172.927 E11.05671
G1 X153.610 Y172.073 E11.08925
G1 X153.650 Y171.772 E11.10079
G1 X153.738 Y171.560 E11.10955
G1 X153.877 Y171.377 E11.11830
G1 X154.060 Y171.238 E11.12705
G1 X154.272 Y171.150 E11.13580
G1 X154.573 Y171.110 E11.14735
G1 X160.573 Y171.110 E11.37581
G1 X161.307 Y171.013 E11.40403
G1 X162.060 Y170.702 E11.43504
G1 X162.706 Y170.206 E11.46605
G1 X163.202 Y169.560 E11.49706
G1 X163.513 Y168.807 E11.52806
G1 X163.610 Y168.073 E11.55628
G1 X163.610 Y161.927 E11.79029
G1 X163.513 Y161.193 E11.81850
G1 X163.202 Y160.440 E11.84951
G1 X162.706 Y159.794 E11.88052
G1 X162.060 Y159.298 E11.91153
G1 X161.307 Y158.987 E11.94254
G1 X160.573 Y158.890 E11.97075
G1 X154.573 Y158.890 E12.19922
G1 X154.272 Y158.850 E12.21077
G1 X154.060 Y158.762 E12.21952
G1 X153.877 Y158.623 E12.22827
G1 X153.738 Y158.440 E12.23702
G1 X153.650 Y158.228 E12.24577
G1 X153.610 Y157.927 E12.25732
G1 X153.610 Y157.073 E12.28986
G1 X153.650 Y156.772 E12.30140
G1 X153.673 Y156.715 E12.30375
G1 X153.802 Y156.639 F7800.000
G1 E10.30375 F2400.000
G92 E0
G1 X165.547 Y157.408 F7800.000
G1 E2.00000 F2400.000
;TYPE:Solid infill
;WIDTH:0.420493
G1 F1800.000
G1 X165.263 Y157.124 E2.01532
G1 X164.744 Y157.124 E2.03511
G1 X165.383 Y157.762 E2.06953
G1 X165.383 Y158.139 E2.08389
G1 X165.404 Y158.302 E2.09018
G1 X164.225 Y157.123 E2.15376
G1 X163.706 Y157.123 E2.17355
G1 X165.705 Y159.122 E2.28135
G1 E0.28135 F2400.000
G92 E0
G1 X174.761 Y161.953 F7800.000
G1 E2.00000 F2400.000
G1 F1800.000
G1 X175.383 Y162.574 E2.03352
G1 X175.383 Y163.093 E2.05330
G1 X174.407 Y162.117 E2.10590
G1 X173.888 Y162.117 E2.12568
G1 X175.383 Y163.612 E2.20626
G1 X175.383 Y164.131 E2.22604
G1 X173.369 Y162.117 E2.33459
G1 X172.851 Y162.117 E2.35437
G1 X175.383 Y164.649 E2.49089
G1 X175.383 Y165.168 E2.51067
G1 X172.332 Y162.117 E2.67517
G1 X171.813 Y162.117 E2.69496
G1 X175.383 Y165.687 E2.88743
G1 X175.383 Y166.206 E2.90721
G1 X171.294 Y162.117 E3.12766
G1 X170.775 Y162.117 E3.14744
G1 X175.383 Y166.725 E3.39587
G1 X175.383 Y167.243 E3.41565
G1 X170.257 Y162.117 E3.69205
G1 X169.738 Y162.117 E3.71183
G1 X175.383 Y167.762 E4.01620
G1 X175.383 Y167.854 E4.01972
G1 X175.361 Y167.883 E4.02106
G1 X174.984 Y167.883 E4.03544
G1 X169.198 Y162.096 E4.34747
G1 X168.600 Y162.017 E4.37045
G1 X174.465 Y167.883 E4.68672
G1 X173.947 Y167.883 E4.70650
G1 X167.797 Y161.733 E5.03812
G1 X167.432 Y161.582 E5.05316
G1 X166.576 Y160.924 E5.09433
G1 X165.918 Y160.068 E5.13549
G1 X165.767 Y159.703 E5.15054
G1 X163.187 Y157.123 E5.28968
G1 X162.668 Y157.123 E5.30948
G1 X173.428 Y167.883 E5.88968
G1 X172.909 Y167.883 E5.90947
G1 X162.149 Y157.122 E6.48969
G1 X161.630 Y157.122 E6.50948
G1 X172.390 Y167.883 E7.08973
G1 X171.871 Y167.883 E7.10951
G1 X164.195 Y160.206 E7.52343
G1 X164.082 Y159.932 E7.53474
G1 X163.424 Y159.076 E7.57591
G1 X162.568 Y158.418 E7.61707
G1 X162.294 Y158.305 E7.62839
G1 X161.110 Y157.122 E7.69219
G1 X160.591 Y157.121 E7.71199
G1 X161.461 Y157.991 E7.75888
G1 X160.863 Y157.912 E7.78185
G1 X160.072 Y157.121 E7.82452
G1 X159.553 Y157.121 E7.84431
G1 X160.315 Y157.883 E7.88540
G1 X159.796 Y157.883 E7.90518
G1 X159.034 Y157.120 E7.94629
G1 X158.515 Y157.120 E7.96608
G1 X159.277 Y157.883 E8.00721
G1 X158.759 Y157.883 E8.02699
G1 X157.996 Y157.120 E8.06813
G1 X157.477 Y157.119 E8.08792
G1 X158.240 Y157.883 E8.12908
G1 X157.721 Y157.883 E8.14886
G1 X156.957 Y157.119 E8.19004
G1 X156.438 Y157.119 E8.20983
G1 X157.202 Y157.883 E8.25102
G1 X156.683 Y157.883 E8.27080
G1 X155.919 Y157.118 E8.31201
G1 X155.400 Y157.118 E8.33181
G1 X156.165 Y157.883 E8.37303
G1 X155.646 Y157.883 E8.39282
G1 X154.881 Y157.118 E8.43406
G1 X154.622 Y157.120 E8.44393
G1 X154.617 Y157.373 E8.45359
G1 X155.292 Y158.047 E8.48996
G1 E6.48996 F2400.000
G92 E0
G1 X164.257 Y160.787 F7800.000
G1 E2.00000 F2400.000
G1 F1800.000
G1 X171.353 Y167.883 E2.38259
G1 X170.834 Y167.883 E2.40237
G1 X164.588 Y161.637 E2.73917
G1 X164.617 Y161.861 E2.74781
G1 X164.617 Y162.185 E2.76015
G1 X170.315 Y167.883 E3.06738
G1 X169.796 Y167.883 E3.08716
G1 X164.617 Y162.704 E3.36642
G1 X164.617 Y163.223 E3.38620
G1 X169.287 Y167.892 E3.63800
G1 X168.829 Y167.953 E3.65563
G1 X164.617 Y163.741 E3.88272
G1 X164.617 Y164.260 E3.90250
G1 X168.382 Y168.025 E4.10550
G1 X168.015 Y168.177 E4.12064
G1 X164.617 Y164.779 E4.30386
G1 X164.617 Y165.298 E4.32364
G1 X167.648 Y168.329 E4.48708
G1 X167.432 Y168.418 E4.49601
G1 X167.312 Y168.511 E4.50180
G1 X164.617 Y165.817 E4.64708
G1 X164.617 Y166.335 E4.66686
G1 X167.018 Y168.736 E4.79632
G1 X166.725 Y168.961 E4.81042
G1 X164.617 Y166.854 E4.92405
G1 X164.617 Y167.373 E4.94383
G1 X166.465 Y169.220 E5.04344
G1 X166.239 Y169.514 E5.05754
G1 X164.617 Y167.892 E5.14501
G1 X164.617 Y168.139 E5.15443
G1 X164.586 Y168.379 E5.16366
G1 X166.014 Y169.807 E5.24068
G1 X165.918 Y169.932 E5.24669
G1 X165.831 Y170.143 E5.25538
G1 X164.525 Y168.837 E5.32578
G1 X164.495 Y169.070 E5.33475
G1 X164.420 Y169.251 E5.34219
G1 X165.679 Y170.510 E5.41008
G1 X165.527 Y170.877 E5.42522
G1 X164.268 Y169.618 E5.49311
G1 X164.116 Y169.984 E5.50825
G1 X165.454 Y171.322 E5.58036
G1 X165.393 Y171.780 E5.59799
G1 X163.908 Y170.295 E5.67810
G1 X163.682 Y170.588 E5.69221
G1 X165.383 Y172.288 E5.78388
G1 X165.383 Y172.807 E5.80366
G1 X163.457 Y170.882 E5.90749
G1 X163.174 Y171.117 E5.92153
G1 X164.939 Y172.883 E6.01674
G1 X164.420 Y172.883 E6.03652
G1 X162.880 Y171.342 E6.11958
G1 X162.586 Y171.567 E6.13369
G1 X163.902 Y172.883 E6.20461
G1 X163.383 Y172.883 E6.22439
G1 X162.224 Y171.724 E6.28686
G1 X161.857 Y171.876 E6.30200
G1 X162.864 Y172.883 E6.35628
G1 X162.345 Y172.883 E6.37606
G1 X161.471 Y172.008 E6.42322
G1 X161.012 Y172.068 E6.44085
G1 X161.826 Y172.883 E6.48476
G1 X161.308 Y172.883 E6.50454
G1 X160.543 Y172.117 E6.54580
G1 X160.024 Y172.117 E6.56558
G1 X160.789 Y172.883 E6.60683
G1 X160.270 Y172.883 E6.62662
G1 X159.505 Y172.117 E6.66787
G1 X158.986 Y172.117 E6.68765
G1 X159.751 Y172.883 E6.72891
G1 X159.232 Y172.883 E6.74869
G1 X158.467 Y172.117 E6.78994
G1 X157.949 Y172.117 E6.80973
G1 X158.714 Y172.883 E6.85098
G1 X158.195 Y172.883 E6.87076
G1 X157.430 Y172.117 E6.91202
G1 X156.911 Y172.117 E6.93180
G1 X157.676 Y172.883 E6.97306
G1 X157.157 Y172.883 E6.99284
G1 X156.392 Y172.117 E7.03409
G1 X155.873 Y172.117 E7.05387
G1 X156.638 Y172.883 E7.09513
G1 X156.120 Y172.883 E7.11491
G1 X155.355 Y172.117 E7.15617
G1 X154.836 Y172.117 E7.17595
G1 X155.601 Y172.883 E7.21720
G1 X155.082 Y172.883 E7.23698
G1 X154.453 Y172.253 E7.27093
M106 S76.5
;LAYER_CHANGE
;Z:0.45
;HEIGHT:0.2
G1 Z0.450 F7800.000
;AFTER_LAYER_CHANGE
;0.45
G1 E5.27093 F2400.000
G92 E0
G1 X146.925 Y175.028 F7800.000
G1 E2.00000 F2400.000
;TYPE:Skirt
;WIDTH:0.42
G1 F3600.000
G1 X146.767 Y174.246 E2.02500
G1 X146.654 Y173.007 E2.06400
G1 X146.657 Y156.822 E2.57148
G1 X146.890 Y155.107 E2.62574
G1 X147.451 Y153.575 E2.67691
G1 X147.865 Y152.822 E2.70386
G1 X148.433 Y152.047 E2.73398
G1 X149.442 Y151.015 E2.77922
G1 X150.849 Y150.062 E2.83251
G1 X152.599 Y149.392 E2.89126
G1 X154.418 Y149.155 E2.94877
G1 X165.472 Y149.154 E3.29537
G1 X167.247 Y149.356 E3.35138
G1 X168.760 Y149.877 E3.40156
G1 X179.102 Y155.036 E3.76392
G1 X179.841 Y155.474 E3.79087
G1 X180.699 Y156.134 E3.82481
G1 X181.274 Y156.696 E3.85001
G1 X181.829 Y157.387 E3.87778
G1 X182.427 Y158.327 E3.91273
G1 X182.936 Y159.520 E3.95339
G1 X183.186 Y160.465 E3.98404
G1 X183.338 Y161.706 E4.02325
