; G-Code generated by Simplify3D(R) Version 4.1.1
; Feb 20, 2021 at 12:08:51 AM
; Settings Summary
;   processName,Process1
;   applyToModels,Extrusion_Test
;   profileName,BLV_MGN (modified)
;   profileVersion,2021-02-19 23:03:24
;   baseProfile,Default
;   printMaterial,PLA
;   printQuality,Fast
;   printExtruders,
;   extruderName,Extruder 1
;   extruderToolheadNumber,0
;   extruderDiameter,0.4
;   extruderAutoWidth,0
;   extruderWidth,0.4
;   extrusionMultiplier,0.9
;   extruderUseRetract,1
;   extruderRetractionDistance,1
;   extruderExtraRestartDistance,0
;   extruderRetractionZLift,0
;   extruderRetractionSpeed,1800
;   extruderUseCoasting,0
;   extruderCoastingDistance,0.2
;   extruderUseWipe,0
;   extruderWipeDistance,5
;   primaryExtruder,0
;   layerHeight,0.3
;   topSolidLayers,3
;   bottomSolidLayers,3
;   perimeterOutlines,2
;   printPerimetersInsideOut,1
;   startPointOption,2
;   startPointOriginX,0
;   startPointOriginY,0
;   sequentialIslands,0
;   spiralVaseMode,0
;   firstLayerHeightPercentage,100
;   firstLayerWidthPercentage,100
;   firstLayerUnderspeed,0.5
;   useRaft,0
;   raftExtruder,0
;   raftTopLayers,3
;   raftBaseLayers,2
;   raftOffset,3
;   raftSeparationDistance,0.14
;   raftTopInfill,100
;   aboveRaftSpeedMultiplier,0.3
;   useSkirt,1
;   skirtExtruder,0
;   skirtLayers,1
;   skirtOutlines,2
;   skirtOffset,4
;   usePrimePillar,0
;   primePillarExtruder,999
;   primePillarWidth,12
;   primePillarLocation,7
;   primePillarSpeedMultiplier,1
;   useOozeShield,0
;   oozeShieldExtruder,999
;   oozeShieldOffset,2
;   oozeShieldOutlines,1
;   oozeShieldSidewallShape,1
;   oozeShieldSidewallAngle,30
;   oozeShieldSpeedMultiplier,1
;   infillExtruder,0
;   internalInfillPattern,Rectilinear
;   externalInfillPattern,Rectilinear
;   infillPercentage,15
;   outlineOverlapPercentage,15
;   infillExtrusionWidthPercentage,100
;   minInfillLength,5
;   infillLayerInterval,1
;   internalInfillAngles,45,-45
;   overlapInternalInfillAngles,0
;   externalInfillAngles,45,-45
;   generateSupport,0
;   supportExtruder,0
;   supportInfillPercentage,25
;   supportExtraInflation,0
;   supportBaseLayers,0
;   denseSupportExtruder,0
;   denseSupportLayers,0
;   denseSupportInfillPercentage,70
;   supportLayerInterval,1
;   supportHorizontalPartOffset,0.3
;   supportUpperSeparationLayers,1
;   supportLowerSeparationLayers,1
;   supportType,0
;   supportGridSpacing,4
;   maxOverhangAngle,45
;   supportAngles,0
;   temperatureName,Extruder 1,Heated Bed
;   temperatureNumber,0,0
;   temperatureSetpointCount,1,1
;   temperatureSetpointLayers,1,1
;   temperatureSetpointTemperatures,190,60
;   temperatureStabilizeAtStartup,1,1
;   temperatureHeatedBed,0,1
;   fanLayers,1,2
;   fanSpeeds,0,60
;   blipFanToFullPower,0
;   adjustSpeedForCooling,0
;   minSpeedLayerTime,15
;   minCoolingSpeedSlowdown,20
;   increaseFanForCooling,1
;   minFanLayerTime,45
;   maxCoolingFanSpeed,80
;   increaseFanForBridging,1
;   bridgingFanSpeed,80
;   use5D,1
;   relativeEdistances,1
;   allowEaxisZeroing,1
;   independentExtruderAxes,0
;   includeM10123,0
;   stickySupport,1
;   applyToolheadOffsets,0
;   gcodeXoffset,24
;   gcodeYoffset,22
;   gcodeZoffset,0
;   overrideMachineDefinition,1
;   machineTypeOverride,0
;   strokeXoverride,310
;   strokeYoverride,310
;   strokeZoverride,335
;   originOffsetXoverride,0
;   originOffsetYoverride,0
;   originOffsetZoverride,0
;   homeXdirOverride,-1
;   homeYdirOverride,1
;   homeZdirOverride,-1
;   flipXoverride,1
;   flipYoverride,-1
;   flipZoverride,1
;   toolheadOffsets,0,0|0,0|0,0|0,0|0,0|0,0
;   overrideFirmwareConfiguration,1
;   firmwareTypeOverride,RepRap (Marlin/Repetier/Sprinter)
;   GPXconfigOverride,r2
;   baudRateOverride,115200
;   overridePrinterModels,0
;   printerModelsOverride
;   startingGcode,; use real coordinates as they are not modified by the global gcode offset,G90 ; use absolute coordinates,M83 ; extruder relative mode,M104 S170 ; set extruder temp for bed leveling,M140 S[bed0_temperature]  ; set bed temp,M109 R170 ; wait for bed leveling extruder temp,M190 S[bed0_temperature] ; wait for bed temp,G28 ; home all without mesh bed level,G29 S1 ; mesh bed leveling ,;{IF NEWTOOL=0} M104 S[extruder0_temperature] ; when using mutltitool,M104 S[extruder0_temperature] ; set extruder temp,G90 ; use absolute coordinates,G92 E0.0,G0 X20 Y23 Z25 F4800,G1 Z3 F720,M109 S[extruder0_temperature] ; wait for extruder temp,,; intro line,G92 E0 ; reset extrusion distance,G1 Z0.2 F720,G1 X24,G1 X90.0 E9.0  F1000.0 ; priming,G1 X130.0 E12.5  F1000.0 ; priming,,G92 E0.0,,;M221 S95 ; set flow,
;   layerChangeGcode,
;   retractionGcode,
;   toolChangeGcode,
;   endingGcode,G1 E-2 F2100 ; retract,; Move print head up,while ((move.axes[2].userPosition + 5) <move.axes[2].max),	if iterations = 6,    	break,,	G1 X{move.axes[0].min+10} Y{move.axes[1].max+10} F4200 ; park print head,G4 ; wait,M104 S0 ; turn off temperature,M140 S0 ; turn off heatbed,M107 ; turn off fan,;M221 S100 ; reset flow,M84 ; disable motors
;   exportFileFormat,gcode
;   celebration,0
;   celebrationSong,Random Song
;   postProcessing,
;   defaultSpeed,4800
;   outlineUnderspeed,0.5
;   solidInfillUnderspeed,0.8
;   supportUnderspeed,0.8
;   rapidXYspeed,4800
;   rapidZspeed,1002
;   minBridgingArea,50
;   bridgingExtraInflation,0
;   bridgingExtrusionMultiplier,1
;   bridgingSpeedMultiplier,1
;   useFixedBridgingAngle,0
;   fixedBridgingAngle,0
;   applyBridgingToPerimeters,0
;   filamentDiameters,1.75|1.75|1.75|1.75|1.75|1.75
;   filamentPricesPerKg,46|46|46|46|46|46
;   filamentDensities,1.25|1.25|1.25|1.25|1.25|1.25
;   useMinPrintHeight,0
;   minPrintHeight,0
;   useMaxPrintHeight,0
;   maxPrintHeight,0
;   useDiaphragm,0
;   diaphragmLayerInterval,20
;   robustSlicing,1
;   mergeAllIntoSolid,0
;   onlyRetractWhenCrossingOutline,1
;   retractBetweenLayers,1
;   useRetractionMinTravel,0
;   retractionMinTravel,3
;   retractWhileWiping,0
;   onlyWipeOutlines,1
;   avoidCrossingOutline,0
;   maxMovementDetourFactor,3
;   toolChangeRetractionDistance,12
;   toolChangeExtraRestartDistance,-0.5
;   toolChangeRetractionSpeed,600
;   externalThinWallType,0
;   internalThinWallType,2
;   thinWallAllowedOverlapPercentage,10
;   singleExtrusionMinLength,1
;   singleExtrusionMinPrintingWidthPercentage,50
;   singleExtrusionMaxPrintingWidthPercentage,200
;   singleExtrusionEndpointExtension,0.2
;   horizontalSizeCompensation,0
G90
M83
M106 S141
; use real coordinates as they are not modified by the global gcode offset
G90 ; use absolute coordinates
M83 ; extruder relative mode
M104 S170 ; set extruder temp for bed leveling
M140 S60  ; set bed temp
M109 R170 ; wait for bed leveling extruder temp
M190 S60 ; wait for bed temp
G28 ; home all without mesh bed level
G29 S1 ; mesh bed leveling 
;{IF NEWTOOL=0} M104 S190 ; when using mutltitool
M104 S190 ; set extruder temp
G90 ; use absolute coordinates
G92 E0.0
G0 X20 Y23 Z25 F4800
G1 Z3 F720
M109 S190 ; wait for extruder temp
; intro line
G92 E0 ; reset extrusion distance
G1 Z0.2 F720
G1 X24
G1 X90.0 E9.0  F1000.0 ; priming
G1 X130.0 E12.5  F1000.0 ; priming
G92 E0.0
;M221 S95 ; set flow
; process Process1
; layer 1, Z = 0.300
T0
G1 E-1.0000 F1800
; feature skirt
; tool H0.300 W0.400
G1 Z0.300 F1002
G1 X164.531 Y164.605 F4800
G1 E1.0000 F1800
G1 X165.282 Y164.029 E0.0425 F2400
G1 X165.804 Y163.727 E0.0271
G1 X166.678 Y163.365 E0.0425
G1 X167.260 Y163.209 E0.0271
G1 X168.093 Y163.100 E0.0377
G1 X168.394 Y163.080 E0.0135
G1 X179.606 Y163.080 E0.5034
G1 X179.907 Y163.100 E0.0135
G1 X180.739 Y163.209 E0.0377
G1 X181.322 Y163.365 E0.0271
G1 X182.196 Y163.727 E0.0425
G1 X182.718 Y164.029 E0.0271
G1 X183.469 Y164.605 E0.0425
G1 X183.895 Y165.031 E0.0271
G1 X184.471 Y165.782 E0.0425
G1 X184.773 Y166.304 E0.0271
G1 X185.135 Y167.178 E0.0425
G1 X185.291 Y167.761 E0.0271
G1 X185.333 Y168.080 E0.0145
G1 X189.606 Y168.080 E0.1919
G1 X189.907 Y168.100 E0.0135
G1 X190.739 Y168.209 E0.0377
G1 X191.322 Y168.365 E0.0271
G1 X192.196 Y168.727 E0.0425
G1 X192.718 Y169.029 E0.0271
G1 X193.469 Y169.605 E0.0425
G1 X193.895 Y170.031 E0.0271
G1 X194.471 Y170.782 E0.0425
G1 X194.773 Y171.304 E0.0271
G1 X195.135 Y172.178 E0.0425
G1 X195.291 Y172.761 E0.0271
G1 X195.400 Y173.594 E0.0377
G1 X195.420 Y173.894 E0.0135
G1 X195.420 Y180.106 E0.2789
G1 X195.400 Y180.406 E0.0135
G1 X195.291 Y181.239 E0.0377
G1 X195.135 Y181.822 E0.0271
G1 X194.773 Y182.696 E0.0425
G1 X194.471 Y183.218 E0.0271
G1 X193.895 Y183.969 E0.0425
G1 X193.469 Y184.395 E0.0271
G1 X192.718 Y184.971 E0.0425
G1 X192.196 Y185.272 E0.0271
G1 X191.322 Y185.635 E0.0425
G1 X190.739 Y185.791 E0.0271
G1 X189.906 Y185.900 E0.0377
G1 X189.606 Y185.920 E0.0135
G1 X185.333 Y185.920 E0.1919
G1 X185.291 Y186.239 E0.0145
G1 X185.135 Y186.822 E0.0271
G1 X184.773 Y187.696 E0.0425
G1 X184.471 Y188.218 E0.0271
G1 X183.895 Y188.969 E0.0425
G1 X183.469 Y189.395 E0.0271
G1 X182.718 Y189.971 E0.0425
G1 X182.196 Y190.272 E0.0271
G1 X181.322 Y190.635 E0.0425
G1 X180.739 Y190.791 E0.0271
G1 X179.906 Y190.900 E0.0377
G1 X179.606 Y190.920 E0.0135
G1 X168.394 Y190.920 E0.5034
G1 X168.094 Y190.900 E0.0135
G1 X167.261 Y190.791 E0.0377
G1 X166.678 Y190.635 E0.0271
G1 X165.804 Y190.272 E0.0425
G1 X165.282 Y189.971 E0.0271
G1 X164.531 Y189.395 E0.0425
G1 X164.105 Y188.969 E0.0271
G1 X163.529 Y188.218 E0.0425
G1 X163.228 Y187.696 E0.0271
G1 X162.865 Y186.822 E0.0425
G1 X162.709 Y186.239 E0.0271
G1 X162.600 Y185.406 E0.0377
G1 X162.580 Y185.106 E0.0135
G1 X162.580 Y183.894 E0.0544
G1 X162.600 Y183.594 E0.0135
G1 X162.709 Y182.761 E0.0377
G1 X162.865 Y182.178 E0.0271
G1 X163.228 Y181.304 E0.0425
G1 X163.529 Y180.782 E0.0271
G1 X164.105 Y180.031 E0.0425
G1 X164.531 Y179.605 E0.0271
G1 X165.282 Y179.029 E0.0425
G1 X165.804 Y178.727 E0.0271
G1 X166.678 Y178.365 E0.0425
G1 X167.260 Y178.209 E0.0271
G1 X168.093 Y178.100 E0.0377
G1 X168.394 Y178.080 E0.0135
G1 X172.580 Y178.080 E0.1880
G1 X172.580 Y175.920 E0.0970
G1 X168.394 Y175.920 E0.1880
G1 X168.093 Y175.900 E0.0135
G1 X167.260 Y175.791 E0.0377
G1 X166.678 Y175.635 E0.0271
G1 X165.804 Y175.273 E0.0425
G1 X165.282 Y174.971 E0.0271
G1 X164.531 Y174.395 E0.0425
G1 X164.105 Y173.969 E0.0271
G1 X163.529 Y173.218 E0.0425
G1 X163.228 Y172.696 E0.0271
G1 X162.865 Y171.822 E0.0425
G1 X162.709 Y171.239 E0.0271
G1 X162.600 Y170.406 E0.0377
G1 X162.580 Y170.106 E0.0135
G1 X162.580 Y168.894 E0.0544
G1 X162.600 Y168.594 E0.0135
G1 X162.709 Y167.761 E0.0377
G1 X162.865 Y167.178 E0.0271
G1 X163.228 Y166.304 E0.0425
G1 X163.529 Y165.782 E0.0271
G1 X164.105 Y165.031 E0.0425
G1 X164.531 Y164.605 E0.0271
G1 E-1.0000 F1800
G1 X164.796 Y164.906 F4800
G1 E1.0000 F1800
G1 X165.505 Y164.362 E0.0401 F2400
G1 X165.981 Y164.087 E0.0247
G1 X166.807 Y163.745 E0.0401
G1 X167.339 Y163.603 E0.0247
G1 X168.133 Y163.498 E0.0360
G1 X168.407 Y163.480 E0.0123
G1 X179.593 Y163.480 E0.5023
G1 X179.867 Y163.498 E0.0123
G1 X180.661 Y163.603 E0.0360
G1 X181.193 Y163.745 E0.0247
G1 X182.019 Y164.087 E0.0401
G1 X182.496 Y164.362 E0.0247
G1 X183.204 Y164.906 E0.0401
G1 X183.594 Y165.296 E0.0247
G1 X184.138 Y166.004 E0.0401
G1 X184.413 Y166.481 E0.0247
G1 X184.755 Y167.307 E0.0401
G1 X184.898 Y167.839 E0.0247
G1 X184.982 Y168.480 E0.0290
G1 X189.593 Y168.480 E0.2070
G1 X189.867 Y168.498 E0.0123
G1 X190.661 Y168.603 E0.0360
G1 X191.193 Y168.745 E0.0247
G1 X192.019 Y169.087 E0.0401
G1 X192.496 Y169.362 E0.0247
G1 X193.204 Y169.906 E0.0401
G1 X193.594 Y170.296 E0.0247
G1 X194.138 Y171.004 E0.0401
G1 X194.413 Y171.481 E0.0247
G1 X194.755 Y172.307 E0.0401
G1 X194.898 Y172.839 E0.0247
G1 X195.002 Y173.633 E0.0360
G1 X195.020 Y173.907 E0.0123
G1 X195.020 Y180.093 E0.2777
G1 X195.002 Y180.367 E0.0123
G1 X194.898 Y181.161 E0.0360
G1 X194.755 Y181.693 E0.0247
G1 X194.413 Y182.519 E0.0401
G1 X194.138 Y182.996 E0.0247
G1 X193.594 Y183.705 E0.0401
G1 X193.204 Y184.094 E0.0247
G1 X192.496 Y184.638 E0.0401
G1 X192.019 Y184.913 E0.0247
G1 X191.193 Y185.255 E0.0401
G1 X190.661 Y185.398 E0.0247
G1 X189.867 Y185.502 E0.0360
G1 X189.593 Y185.520 E0.0123
G1 X184.982 Y185.520 E0.2070
G1 X184.898 Y186.161 E0.0290
G1 X184.755 Y186.693 E0.0247
G1 X184.413 Y187.519 E0.0401
G1 X184.138 Y187.996 E0.0247
G1 X183.594 Y188.705 E0.0401
G1 X183.204 Y189.094 E0.0247
G1 X182.496 Y189.638 E0.0401
G1 X182.019 Y189.913 E0.0247
G1 X181.193 Y190.255 E0.0401
G1 X180.661 Y190.398 E0.0247
G1 X179.867 Y190.502 E0.0360
G1 X179.593 Y190.520 E0.0123
G1 X168.407 Y190.520 E0.5023
G1 X168.133 Y190.502 E0.0123
G1 X167.339 Y190.398 E0.0360
G1 X166.807 Y190.255 E0.0247
G1 X165.981 Y189.913 E0.0401
G1 X165.504 Y189.638 E0.0247
G1 X164.796 Y189.094 E0.0401
G1 X164.406 Y188.704 E0.0247
G1 X163.862 Y187.996 E0.0401
G1 X163.587 Y187.519 E0.0247
G1 X163.245 Y186.693 E0.0401
G1 X163.102 Y186.161 E0.0247
G1 X162.998 Y185.367 E0.0360
G1 X162.980 Y185.093 E0.0123
G1 X162.980 Y183.907 E0.0532
G1 X162.998 Y183.633 E0.0123
G1 X163.102 Y182.839 E0.0360
G1 X163.245 Y182.307 E0.0247
G1 X163.587 Y181.481 E0.0401
G1 X163.862 Y181.004 E0.0247
G1 X164.406 Y180.296 E0.0401
G1 X164.796 Y179.906 E0.0247
G1 X165.505 Y179.362 E0.0401
G1 X165.981 Y179.087 E0.0247
G1 X166.807 Y178.745 E0.0401
G1 X167.339 Y178.603 E0.0247
G1 X168.133 Y178.498 E0.0360
G1 X168.407 Y178.480 E0.0123
G1 X172.980 Y178.480 E0.2053
G1 X172.980 Y175.520 E0.1329
G1 X168.407 Y175.520 E0.2053
G1 X168.132 Y175.502 E0.0124
G1 X167.339 Y175.397 E0.0360
G1 X166.807 Y175.255 E0.0247
G1 X165.981 Y174.913 E0.0401
G1 X165.505 Y174.638 E0.0247
G1 X164.796 Y174.094 E0.0401
G1 X164.406 Y173.704 E0.0247
G1 X163.862 Y172.995 E0.0401
G1 X163.587 Y172.519 E0.0247
G1 X163.245 Y171.693 E0.0401
G1 X163.102 Y171.161 E0.0247
G1 X162.998 Y170.367 E0.0360
G1 X162.980 Y170.093 E0.0123
G1 X162.980 Y168.907 E0.0532
G1 X162.998 Y168.633 E0.0123
G1 X163.102 Y167.839 E0.0360
G1 X163.245 Y167.307 E0.0247
G1 X163.587 Y166.481 E0.0401
G1 X163.862 Y166.004 E0.0247
G1 X164.406 Y165.296 E0.0401
G1 X164.796 Y164.906 E0.0247
G1 E-1.0000 F1800
; feature inner perimeter
G1 X167.999 Y168.499 F4800
G1 E1.0000 F1800
G1 X168.146 Y168.386 E0.0083 F1800
G1 X168.316 Y168.315 E0.0083
G1 X168.584 Y168.280 E0.0121
G1 X179.416 Y168.280 E0.4864
G1 X179.684 Y168.315 E0.0121
G1 X179.854 Y168.386 E0.0083
G1 X180.001 Y168.499 E0.0083
G1 X180.114 Y168.646 E0.0083
G1 X180.185 Y168.816 E0.0083
G1 X180.220 Y169.084 E0.0121
G1 X180.220 Y170.084 E0.0449
G1 X180.321 Y170.852 E0.0348
G1 X180.650 Y171.646 E0.0386
G1 X181.077 Y172.202 E0.0315
G1 X181.173 Y172.327 E0.0071
G1 X181.854 Y172.850 E0.0386
G1 X182.648 Y173.179 E0.0386
G1 X183.416 Y173.280 E0.0348
G1 X189.416 Y173.280 E0.2694
G1 X189.684 Y173.315 E0.0121
G1 X189.854 Y173.386 E0.0083
G1 X190.001 Y173.499 E0.0083
G1 X190.114 Y173.646 E0.0083
G1 X190.185 Y173.816 E0.0083
G1 X190.220 Y174.084 E0.0121
G1 X190.220 Y179.916 E0.2619
G1 X190.185 Y180.184 E0.0121
G1 X190.114 Y180.354 E0.0083
G1 X190.001 Y180.501 E0.0083
G1 X189.854 Y180.614 E0.0083
G1 X189.683 Y180.685 E0.0083
G1 X189.416 Y180.720 E0.0121
G1 X183.416 Y180.720 E0.2694
G1 X182.648 Y180.821 E0.0348
G1 X181.854 Y181.150 E0.0386
G1 X181.173 Y181.673 E0.0386
G1 X181.077 Y181.798 E0.0071
G1 X180.650 Y182.354 E0.0315
G1 X180.321 Y183.148 E0.0386
G1 X180.220 Y183.916 E0.0348
G1 X180.220 Y184.916 E0.0449
G1 X180.185 Y185.184 E0.0121
G1 X180.114 Y185.354 E0.0083
G1 X180.001 Y185.501 E0.0083
G1 X179.928 Y185.557 E0.0041
G1 X179.854 Y185.614 E0.0042
G1 X179.683 Y185.685 E0.0083
G1 X179.416 Y185.720 E0.0121
G1 X168.584 Y185.720 E0.4864
G1 X168.317 Y185.685 E0.0121
G1 X168.146 Y185.614 E0.0083
G1 X167.999 Y185.501 E0.0083
