; generated by PrusaSlicer 2.3.0+win64 on 2021-02-24 at 20:04:10 UTC

; 

; external perimeters extrusion width = 0.45mm
; perimeters extrusion width = 0.45mm
; infill extrusion width = 0.45mm
; solid infill extrusion width = 0.45mm
; top infill extrusion width = 0.40mm
; support material extrusion width = 0.35mm
; first layer extrusion width = 0.42mm

M107
;TYPE:Custom
G90 ; use absolute coordinates
M83 ; extruder relative mode
M104 S170 ; set extruder temp for bed leveling
M140 S60 ; set bed temp
M109 R170 ; wait for bed leveling extruder temp
M190 S60 ; wait for bed temp
G28 ; home all without mesh bed level
G29 S1 ; mesh bed leveling 
M104 S215 ; set extruder temp
G90 ; use absolute coordinates
G92 E0.0
G0 X20 Y23 Z25 F4800
G1 Z3 F720
M109 S215 ; wait for extruder temp
M98 P"/macros/set_baby_step"

M98 P"/macros/purge_and_prime"

G92 E0.0

;M221 S95 ; set flow
G21 ; set units to millimeters
G90 ; use absolute coordinates
M82 ; use absolute distances for extrusion
G92 E0
M900 K0.05 ; Filament gcode LA 1.5
M900 K30 ; Filament gcode LA 1.0
;LAYER_CHANGE
;Z:0.25
;HEIGHT:0.25
G1 Z0.250 F7800.000
;AFTER_LAYER_CHANGE
;0.25
G1 E-2.00000 F2400.000
G92 E0
G1 X218.822 Y150.189 F7800.000
G1 E2.00000 F2400.000
;TYPE:Skirt
;WIDTH:0.42
G1 F1800.000
G1 X220.572 Y149.520 E2.07206
G1 X222.391 Y149.282 E2.14259
G1 X233.445 Y149.281 E2.56773
G1 X235.220 Y149.484 E2.63643
G1 X236.734 Y150.004 E2.69798
G1 X247.075 Y155.164 E3.14244
G1 X247.815 Y155.602 E3.17550
G1 X248.673 Y156.262 E3.21713
G1 X249.247 Y156.824 E3.24803
G1 X249.802 Y157.514 E3.28210
G1 X250.400 Y158.454 E3.32496
G1 X250.909 Y159.647 E3.37484
G1 X251.160 Y160.592 E3.41244
G1 X251.311 Y161.833 E3.46052
G1 X251.299 Y168.610 E3.72115
G1 X251.054 Y170.135 E3.78054
G1 X250.522 Y171.553 E3.83877
G1 X250.012 Y172.451 E3.87852
G1 X249.223 Y173.458 E3.92768
G1 X248.541 Y174.104 E3.96385
G1 X247.526 Y174.840 E4.01204
G1 X237.002 Y180.127 E4.46498
G1 X235.537 Y180.693 E4.52538
G1 X234.750 Y180.856 E4.55629
G1 X233.574 Y180.972 E4.60174
G1 X222.308 Y180.971 E5.03502
G1 X220.587 Y180.739 E5.10181
G1 X219.048 Y180.177 E5.16482
G1 X218.217 Y179.711 E5.20146
G1 X217.312 Y179.026 E5.24511
G1 X216.695 Y178.427 E5.27817
G1 X216.085 Y177.661 E5.31583
G1 X215.578 Y176.862 E5.35224
G1 X215.154 Y175.917 E5.39205
G1 X214.898 Y175.155 E5.42296
G1 X214.741 Y174.374 E5.45362
G1 X214.627 Y173.135 E5.50146
G1 X214.630 Y156.950 E6.12392
G1 X214.864 Y155.235 E6.19047
G1 X215.424 Y153.702 E6.25323
G1 X215.839 Y152.949 E6.28629
G1 X216.406 Y152.174 E6.32323
G1 X217.416 Y151.143 E6.37873
G1 X218.773 Y150.223 E6.44179
G1 E4.44179 F2400.000
G92 E0
G1 X222.403 Y157.005 F7800.000
G1 E2.00000 F2400.000
;TYPE:Perimeter
G1 F1800.000
G1 X222.594 Y156.970 E2.00747
G1 X233.404 Y156.977 E2.42321
G1 X233.510 Y156.991 E2.42732
G1 X233.596 Y157.057 E2.43149
G1 X233.631 Y157.248 E2.43897
G1 X233.631 Y158.248 E2.47743
G1 X233.746 Y159.126 E2.51148
G1 X234.132 Y160.057 E2.55022
G1 X234.745 Y160.856 E2.58896
G1 X235.544 Y161.469 E2.62770
G1 X236.475 Y161.855 E2.66644
G1 X237.353 Y161.970 E2.70049
G1 X243.353 Y161.970 E2.93124
G1 X243.544 Y162.005 E2.93873
G1 X243.610 Y162.091 E2.94289
G1 X243.631 Y162.248 E2.94900
G1 X243.631 Y168.007 E3.17046
G1 X243.596 Y168.198 E3.17794
G1 X243.510 Y168.264 E3.18210
G1 X243.353 Y168.285 E3.18821
G1 X237.352 Y168.285 E3.41896
G1 X236.475 Y168.400 E3.45301
G1 X235.544 Y168.786 E3.49175
G1 X234.745 Y169.399 E3.53049
G1 X234.132 Y170.198 E3.56923
G1 X233.746 Y171.129 E3.60797
G1 X233.631 Y172.007 E3.64202
G1 X233.631 Y173.007 E3.68048
G1 X233.596 Y173.198 E3.68796
G1 X233.510 Y173.264 E3.69213
G1 X233.353 Y173.285 E3.69823
G1 X222.594 Y173.285 E4.11198
G1 X222.403 Y173.250 E4.11947
G1 X222.337 Y173.164 E4.12363
G1 X222.316 Y173.007 E4.12973
G1 X222.316 Y172.248 E4.15890
G1 X222.351 Y172.057 E4.16639
G1 X222.437 Y171.991 E4.17055
G1 X222.594 Y171.970 E4.17666
G1 X228.594 Y171.970 E4.40741
G1 X229.472 Y171.855 E4.44146
G1 X230.403 Y171.469 E4.48020
G1 X231.202 Y170.856 E4.51894
G1 X231.815 Y170.057 E4.55768
G1 X232.200 Y169.126 E4.59642
G1 X232.316 Y168.248 E4.63047
G1 X232.316 Y162.007 E4.87051
G1 X232.200 Y161.129 E4.90456
G1 X231.815 Y160.198 E4.94330
G1 X231.202 Y159.399 E4.98204
G1 X230.403 Y158.786 E5.02078
G1 X229.472 Y158.400 E5.05952
G1 X228.594 Y158.285 E5.09357
G1 X222.594 Y158.285 E5.32432
G1 X222.437 Y158.264 E5.33043
G1 X222.351 Y158.198 E5.33459
G1 X222.316 Y158.007 E5.34208
G1 X222.316 Y157.248 E5.37124
G1 X222.337 Y157.091 E5.37735
G1 X222.359 Y157.046 E5.37929
G1 X222.031 Y156.872 F7800.000
G1 F1800.000
G1 X222.112 Y156.766 E5.38442
G1 X222.218 Y156.685 E5.38955
G1 X222.341 Y156.634 E5.39468
G1 X222.570 Y156.604 E5.40355
G1 X233.428 Y156.611 E5.82114
G1 X233.606 Y156.634 E5.82802
G1 X233.729 Y156.685 E5.83315
G1 X233.835 Y156.766 E5.83828
G1 X233.916 Y156.872 E5.84341
G1 X233.967 Y156.995 E5.84854
G1 X233.997 Y157.224 E5.85742
G1 X233.997 Y158.224 E5.89588
G1 X234.103 Y159.031 E5.92716
G1 X234.452 Y159.872 E5.96219
G1 X235.006 Y160.595 E5.99722
G1 X235.729 Y161.149 E6.03225
G1 X236.570 Y161.498 E6.06728
G1 X237.377 Y161.604 E6.09855
G1 X243.377 Y161.604 E6.32930
G1 X243.606 Y161.634 E6.33818
G1 X243.729 Y161.685 E6.34331
G1 X243.835 Y161.766 E6.34844
G1 X243.916 Y161.872 E6.35357
G1 X243.967 Y161.995 E6.35870
G1 X243.997 Y162.224 E6.36759
G1 X243.997 Y168.031 E6.59089
G1 X243.967 Y168.260 E6.59978
G1 X243.916 Y168.383 E6.60490
G1 X243.835 Y168.489 E6.61003
G1 X243.729 Y168.570 E6.61516
G1 X243.606 Y168.621 E6.62029
G1 X243.377 Y168.651 E6.62917
G1 X237.377 Y168.651 E6.85993
G1 X236.570 Y168.757 E6.89120
G1 X235.729 Y169.106 E6.92623
G1 X235.006 Y169.660 E6.96126
G1 X234.452 Y170.383 E6.99629
G1 X234.103 Y171.225 E7.03132
G1 X233.997 Y172.031 E7.06259
G1 X233.997 Y173.031 E7.10105
G1 X233.967 Y173.260 E7.10994
G1 X233.916 Y173.383 E7.11506
G1 X233.835 Y173.489 E7.12019
G1 X233.729 Y173.570 E7.12532
G1 X233.606 Y173.621 E7.13045
G1 X233.377 Y173.651 E7.13934
G1 X222.570 Y173.651 E7.55494
G1 X222.341 Y173.621 E7.56382
G1 X222.218 Y173.570 E7.56895
G1 X222.112 Y173.489 E7.57408
G1 X222.031 Y173.383 E7.57921
G1 X221.980 Y173.260 E7.58434
G1 X221.950 Y173.031 E7.59322
G1 X221.950 Y172.224 E7.62423
G1 X221.980 Y171.995 E7.63312
G1 X222.031 Y171.872 E7.63825
G1 X222.112 Y171.766 E7.64338
G1 X222.218 Y171.685 E7.64850
G1 X222.341 Y171.634 E7.65363
G1 X222.570 Y171.604 E7.66252
G1 X228.570 Y171.604 E7.89327
G1 X229.376 Y171.498 E7.92454
G1 X230.218 Y171.149 E7.95957
G1 X230.940 Y170.595 E7.99460
G1 X231.495 Y169.872 E8.02963
G1 X231.843 Y169.031 E8.06466
G1 X231.950 Y168.224 E8.09594
G1 X231.950 Y162.031 E8.33413
G1 X231.843 Y161.225 E8.36540
G1 X231.495 Y160.383 E8.40043
G1 X230.940 Y159.660 E8.43546
G1 X230.218 Y159.106 E8.47049
G1 X229.376 Y158.757 E8.50552
G1 X228.570 Y158.651 E8.53680
G1 X222.570 Y158.651 E8.76755
G1 X222.341 Y158.621 E8.77643
G1 X222.218 Y158.570 E8.78156
G1 X222.112 Y158.489 E8.78669
G1 X222.031 Y158.383 E8.79182
G1 X221.980 Y158.260 E8.79695
G1 X221.950 Y158.031 E8.80583
G1 X221.950 Y157.224 E8.83685
G1 X221.980 Y156.995 E8.84573
G1 X222.008 Y156.928 E8.84855
G1 X221.669 Y156.787 F7800.000
;TYPE:External perimeter
G1 F1800.000
G1 X221.711 Y156.687 E8.85271
G1 X221.851 Y156.505 E8.86155
G1 X222.033 Y156.365 E8.87039
G1 X222.245 Y156.277 E8.87923
G1 X222.546 Y156.238 E8.89089
G1 X233.452 Y156.244 E9.31032
G1 X233.701 Y156.277 E9.31998
G1 X233.913 Y156.365 E9.32882
G1 X234.096 Y156.505 E9.33766
G1 X234.236 Y156.687 E9.34650
G1 X234.324 Y156.900 E9.35534
G1 X234.363 Y157.200 E9.36700
G1 X234.363 Y158.200 E9.40546
G1 X234.460 Y158.935 E9.43396
G1 X234.772 Y159.687 E9.46528
G1 X235.267 Y160.333 E9.49659
G1 X235.913 Y160.829 E9.52791
G1 X236.666 Y161.141 E9.55923
G1 X237.401 Y161.238 E9.58773
G1 X243.401 Y161.238 E9.81848
G1 X243.701 Y161.277 E9.83014
G1 X243.913 Y161.365 E9.83898
G1 X244.096 Y161.505 E9.84782
G1 X244.236 Y161.687 E9.85666
G1 X244.324 Y161.900 E9.86550
G1 X244.363 Y162.200 E9.87716
G1 X244.363 Y168.055 E10.10231
G1 X244.324 Y168.355 E10.11398
G1 X244.236 Y168.568 E10.12282
G1 X244.096 Y168.750 E10.13165
G1 X243.913 Y168.890 E10.14049
G1 X243.701 Y168.978 E10.14933
G1 X243.401 Y169.018 E10.16099
G1 X237.401 Y169.018 E10.39174
G1 X236.666 Y169.114 E10.42024
G1 X235.913 Y169.426 E10.45156
G1 X235.267 Y169.922 E10.48288
G1 X234.772 Y170.568 E10.51420
G1 X234.460 Y171.320 E10.54552
G1 X234.363 Y172.055 E10.57402
G1 X234.363 Y173.055 E10.61247
G1 X234.324 Y173.355 E10.62414
G1 X234.236 Y173.568 E10.63298
G1 X234.096 Y173.750 E10.64181
G1 X233.913 Y173.890 E10.65065
G1 X233.701 Y173.978 E10.65949
G1 X233.401 Y174.018 E10.67115
G1 X222.546 Y174.018 E11.08860
G1 X222.245 Y173.978 E11.10026
G1 X222.033 Y173.890 E11.10910
G1 X221.851 Y173.750 E11.11794
G1 X221.711 Y173.568 E11.12678
G1 X221.623 Y173.355 E11.13562
G1 X221.583 Y173.055 E11.14728
G1 X221.583 Y172.200 E11.18014
G1 X221.623 Y171.900 E11.19180
G1 X221.711 Y171.687 E11.20064
G1 X221.851 Y171.505 E11.20948
G1 X222.033 Y171.365 E11.21832
G1 X222.245 Y171.277 E11.22716
G1 X222.546 Y171.238 E11.23882
G1 X228.546 Y171.238 E11.46957
G1 X229.281 Y171.141 E11.49807
G1 X230.033 Y170.829 E11.52939
G1 X230.679 Y170.333 E11.56071
G1 X231.175 Y169.687 E11.59203
G1 X231.487 Y168.935 E11.62335
G1 X231.583 Y168.200 E11.65184
G1 X231.583 Y162.055 E11.88819
G1 X231.487 Y161.320 E11.91669
G1 X231.175 Y160.568 E11.94801
G1 X230.679 Y159.922 E11.97933
G1 X230.033 Y159.426 E12.01065
G1 X229.281 Y159.114 E12.04196
G1 X228.546 Y159.018 E12.07046
G1 X222.546 Y159.018 E12.30121
G1 X222.245 Y158.978 E12.31287
G1 X222.033 Y158.890 E12.32171
G1 X221.851 Y158.750 E12.33055
G1 X221.711 Y158.568 E12.33939
G1 X221.623 Y158.355 E12.34823
G1 X221.583 Y158.055 E12.35989
G1 X221.583 Y157.200 E12.39275
G1 X221.623 Y156.900 E12.40441
G1 X221.646 Y156.843 E12.40678
G1 X221.776 Y156.767 F7800.000
G1 E10.40678 F2400.000
G92 E0
G1 X233.521 Y157.536 F7800.000
G1 E2.00000 F2400.000
;TYPE:Solid infill
;WIDTH:0.420493
G1 F1800.000
G1 X233.237 Y157.252 E2.01547
G1 X232.718 Y157.251 E2.03546
G1 X233.356 Y157.890 E2.07022
G1 X233.356 Y158.266 E2.08473
G1 X233.377 Y158.430 E2.09109
G1 X232.198 Y157.251 E2.15530
G1 X231.679 Y157.251 E2.17529
G1 X233.678 Y159.250 E2.28416
G1 E0.28416 F2400.000
G92 E0
G1 X242.734 Y162.080 F7800.000
G1 E2.00000 F2400.000
G1 F1800.000
G1 X243.356 Y162.702 E2.03385
G1 X243.356 Y163.221 E2.05383
G1 X242.380 Y162.245 E2.10696
G1 X241.862 Y162.245 E2.12694
G1 X243.356 Y163.739 E2.20832
G1 X243.356 Y164.258 E2.22830
G1 X241.343 Y162.245 E2.33793
G1 X240.824 Y162.245 E2.35791
G1 X243.356 Y164.777 E2.49580
G1 X243.356 Y165.296 E2.51578
G1 X240.305 Y162.245 E2.68193
G1 X239.786 Y162.245 E2.70191
G1 X243.356 Y165.815 E2.89630
G1 X243.356 Y166.333 E2.91628
G1 X239.268 Y162.245 E3.13894
G1 X238.749 Y162.245 E3.15892
G1 X243.356 Y166.852 E3.40982
G1 X243.356 Y167.371 E3.42980
G1 X238.230 Y162.245 E3.70897
G1 X237.711 Y162.245 E3.72894
G1 X243.356 Y167.890 E4.03636
G1 X243.356 Y167.982 E4.03992
G1 X243.335 Y168.010 E4.04128
G1 X242.957 Y168.010 E4.05580
G1 X237.171 Y162.223 E4.37095
G1 X236.573 Y162.145 E4.39415
G1 X242.439 Y168.010 E4.71358
G1 X241.920 Y168.010 E4.73356
G1 X235.770 Y161.860 E5.06850
G1 X235.405 Y161.709 E5.08369
G1 X234.549 Y161.052 E5.12527
G1 X233.892 Y160.195 E5.16685
G1 X233.741 Y159.831 E5.18204
G1 X231.160 Y157.250 E5.32258
G1 X230.641 Y157.250 E5.34257
G1 X241.401 Y168.010 E5.92858
G1 X240.882 Y168.010 E5.94856
G1 X230.122 Y157.250 E6.53459
G1 X229.603 Y157.249 E6.55458
G1 X240.363 Y168.010 E7.14062
G1 X239.845 Y168.010 E7.16060
G1 X232.168 Y160.334 E7.57866
G1 X232.055 Y160.060 E7.59009
G1 X231.398 Y159.203 E7.63167
G1 X230.541 Y158.546 E7.67325
G1 X230.267 Y158.432 E7.68467
G1 X229.084 Y157.249 E7.74912
G1 X228.565 Y157.249 E7.76911
G1 X229.434 Y158.118 E7.81647
G1 X228.837 Y158.040 E7.83967
G1 X228.045 Y157.248 E7.88277
G1 X227.526 Y157.248 E7.90276
G1 X228.288 Y158.010 E7.94426
G1 X227.770 Y158.010 E7.96423
G1 X227.007 Y157.248 E8.00575
G1 X226.488 Y157.247 E8.02574
G1 X227.251 Y158.010 E8.06728
G1 X226.732 Y158.010 E8.08726
G1 X225.969 Y157.247 E8.12881
G1 X225.450 Y157.247 E8.14880
G1 X226.213 Y158.010 E8.19037
G1 X225.694 Y158.010 E8.21035
G1 X224.931 Y157.247 E8.25194
G1 X224.412 Y157.246 E8.27193
G1 X225.176 Y158.010 E8.31353
G1 X224.657 Y158.010 E8.33351
G1 X223.893 Y157.246 E8.37513
G1 X223.373 Y157.246 E8.39512
G1 X224.138 Y158.010 E8.43676
G1 X223.619 Y158.010 E8.45674
G1 X222.854 Y157.245 E8.49840
G1 X222.595 Y157.247 E8.50837
G1 X222.591 Y157.500 E8.51812
G1 X223.265 Y158.175 E8.55486
G1 E6.55486 F2400.000
G92 E0
G1 X232.231 Y160.915 F7800.000
G1 E2.00000 F2400.000
G1 F1800.000
G1 X239.326 Y168.010 E2.38642
G1 X238.807 Y168.010 E2.40640
G1 X232.561 Y161.764 E2.74656
G1 X232.591 Y161.989 E2.75529
G1 X232.591 Y162.313 E2.76775
G1 X238.288 Y168.010 E3.07805
G1 X237.770 Y168.010 E3.09803
G1 X232.591 Y162.831 E3.38008
G1 X232.591 Y163.350 E3.40006
G1 X237.260 Y168.020 E3.65438
G1 X236.802 Y168.080 E3.67219
G1 X232.591 Y163.869 E3.90154
G1 X232.591 Y164.388 E3.92152
G1 X236.355 Y168.152 E4.12656
G1 X235.989 Y168.304 E4.14185
G1 X232.591 Y164.906 E4.32690
G1 X232.591 Y165.425 E4.34688
G1 X235.622 Y168.456 E4.51195
G1 X235.405 Y168.546 E4.52097
G1 X235.285 Y168.638 E4.52682
G1 X232.591 Y165.944 E4.67355
G1 X232.591 Y166.463 E4.69353
G1 X234.991 Y168.864 E4.82428
G1 X234.698 Y169.089 E4.83853
G1 X232.591 Y166.982 E4.95329
G1 X232.591 Y167.500 E4.97327
G1 X234.438 Y169.348 E5.07387
G1 X234.213 Y169.641 E5.08812
G1 X232.591 Y168.019 E5.17646
G1 X232.591 Y168.266 E5.18597
G1 X232.559 Y168.506 E5.19530
G1 X233.987 Y169.935 E5.27309
G1 X233.892 Y170.060 E5.27915
G1 X233.804 Y170.270 E5.28794
G1 X232.499 Y168.965 E5.35904
G1 X232.468 Y169.198 E5.36810
G1 X232.393 Y169.378 E5.37561
G1 X233.652 Y170.637 E5.44418
G1 X233.500 Y171.004 E5.45947
G1 X232.241 Y169.745 E5.52804
G1 X232.089 Y170.112 E5.54333
G1 X233.427 Y171.449 E5.61617
G1 X233.366 Y171.908 E5.63397
G1 X231.881 Y170.422 E5.71488
G1 X231.656 Y170.716 E5.72913
G1 X233.356 Y172.416 E5.82172
G1 X233.356 Y172.935 E5.84170
G1 X231.430 Y171.009 E5.94656
G1 X231.147 Y171.244 E5.96075
G1 X232.912 Y173.010 E6.05691
G1 X232.394 Y173.010 E6.07689
G1 X230.853 Y171.470 E6.16078
G1 X230.560 Y171.695 E6.17503
G1 X231.875 Y173.010 E6.24665
G1 X231.356 Y173.010 E6.26663
G1 X230.197 Y171.852 E6.32973
G1 X229.831 Y172.004 E6.34502
G1 X230.837 Y173.010 E6.39984
G1 X230.318 Y173.010 E6.41982
G1 X229.444 Y172.136 E6.46746
G1 X228.985 Y172.196 E6.48526
G1 X229.800 Y173.010 E6.52961
G1 X229.281 Y173.010 E6.54959
G1 X228.516 Y172.245 E6.59126
G1 X227.997 Y172.245 E6.61123
G1 X228.762 Y173.010 E6.65290
G1 X228.243 Y173.010 E6.67288
G1 X227.478 Y172.245 E6.71455
G1 X226.959 Y172.245 E6.73453
G1 X227.724 Y173.010 E6.77620
G1 X227.206 Y173.010 E6.79618
G1 X226.441 Y172.245 E6.83784
G1 X225.922 Y172.245 E6.85782
G1 X226.687 Y173.010 E6.89949
G1 X226.168 Y173.010 E6.91947
G1 X225.403 Y172.245 E6.96114
G1 X224.884 Y172.245 E6.98112
G1 X225.649 Y173.010 E7.02279
G1 X225.131 Y173.010 E7.04277
G1 X224.365 Y172.245 E7.08443
G1 X223.847 Y172.245 E7.10441
G1 X224.612 Y173.010 E7.14608
G1 X224.093 Y173.010 E7.16606
G1 X223.328 Y172.245 E7.20773
G1 X222.809 Y172.245 E7.22771
G1 X223.574 Y173.010 E7.26938
G1 X223.055 Y173.010 E7.28935
G1 X222.426 Y172.381 E7.32364
M106 S51
;LAYER_CHANGE
;Z:0.45
;HEIGHT:0.2
G1 Z0.450 F7800.000
;AFTER_LAYER_CHANGE
;0.45
G10 S210 ; set temperature
G1 E5.32364 F2400.000
G92 E0
G1 X214.898 Y175.155 F7800.000
G1 E2.00000 F2400.000
;TYPE:Skirt
;WIDTH:0.42
G1 F3600.000
G1 X214.741 Y174.374 E2.02525
G1 X214.627 Y173.135 E2.06464
G1 X214.630 Y156.950 E2.57719
G1 X214.864 Y155.235 E2.63200
G1 X215.424 Y153.702 E2.68368
G1 X215.839 Y152.949 E2.71090
G1 X216.406 Y152.174 E2.74132
G1 X217.416 Y151.143 E2.78702
G1 X218.822 Y150.189 E2.84084
G1 X220.572 Y149.520 E2.90018
G1 X222.391 Y149.282 E2.95826
G1 X233.445 Y149.281 E3.30833
G1 X235.220 Y149.484 E3.36490
G1 X236.734 Y150.004 E3.41557
G1 X247.075 Y155.164 E3.78156
G1 X247.815 Y155.602 E3.80878
G1 X248.673 Y156.262 E3.84306
G1 X249.247 Y156.824 E3.86851
G1 X249.802 Y157.514 E3.89656
