; generated by PrusaSlicer 2.3.0+win64 on 2021-02-15 at 23:53:06 UTC

; 

; external perimeters extrusion width = 0.45mm
; perimeters extrusion width = 0.45mm
; infill extrusion width = 0.45mm
; solid infill extrusion width = 0.45mm
; top infill extrusion width = 0.40mm
; first layer extrusion width = 0.42mm

M107
M190 S60 ; set bed temperature and wait for it to be reached
G10 S215 ; set temperature
;TYPE:Custom
M98 P"homeall.g" ;G28 ; home all axes
G1 Z5 F5000 ; lift nozzle

G10 S215 ; set temperature
M116 ; wait for temperature to be reached
G21 ; set units to millimeters
G90 ; use absolute coordinates
M82 ; use absolute distances for extrusion
G92 E0
M900 K0.05 ; Filament gcode LA 1.5
M900 K30 ; Filament gcode LA 1.0
;LAYER_CHANGE
;Z:0.35
;HEIGHT:0.35
G1 Z0.350 F7800.000
G1 E-2.00000 F2400.000
G92 E0
G1 X88.500 Y120.145 F7800.000
G1 E2.00000 F2400.000
;TYPE:Skirt
;WIDTH:0.42
G1 F1200.000
G1 X89.233 Y119.725 E2.03820
G1 X90.173 Y119.330 E2.08425
G1 X91.187 Y119.055 E2.13170
G1 X92.484 Y118.904 E2.19066
G1 X151.811 Y116.993 E4.87167
G1 X162.935 Y116.990 E5.37411
G1 X221.966 Y117.408 E8.04049
G1 X223.156 Y117.520 E8.09448
G1 X223.972 Y117.689 E8.13211
G1 X225.381 Y118.234 E8.20031
G1 X235.697 Y123.399 E8.72141
G1 X237.118 Y124.430 E8.80069
G1 X238.160 Y125.613 E8.87192
G1 X238.714 Y126.491 E8.91881
G1 X239.184 Y127.575 E8.97216
G1 X239.435 Y128.460 E9.01372
G1 X239.591 Y129.543 E9.06314
G1 X239.616 Y136.236 E9.36547
G1 X239.337 Y138.132 E9.45200
G1 X238.803 Y139.517 E9.51907
G1 X238.160 Y140.573 E9.57492
G1 X237.204 Y141.677 E9.64085
G1 X235.946 Y142.639 E9.71240
G1 X225.185 Y148.043 E10.25630
G1 X223.773 Y148.548 E10.32402
G1 X222.179 Y148.771 E10.39672
G1 X103.711 Y150.268 E15.74806
G1 X92.555 Y150.267 E16.25191
G1 X91.297 Y150.132 E16.30905
G1 X90.367 Y149.905 E16.35230
G1 X89.199 Y149.426 E16.40931
G1 X88.284 Y148.873 E16.45760
G1 X87.283 Y148.047 E16.51625
G1 X86.464 Y147.079 E16.57350
G1 X85.899 Y146.186 E16.62123
G1 X85.426 Y145.091 E16.67513
G1 X85.141 Y144.022 E16.72510
G1 X84.996 Y142.631 E16.78827
G1 X84.995 Y126.571 E17.51363
G1 X85.151 Y125.091 E17.58086
G1 X85.397 Y124.159 E17.62439
G1 X85.846 Y123.087 E17.67690
G1 X86.294 Y122.326 E17.71678
G1 X86.955 Y121.470 E17.76564
G1 X87.604 Y120.826 E17.80692
G1 X88.452 Y120.181 E17.85504
G1 E15.85504 F2400.000
G92 E0
G1 X92.568 Y126.389 F7800.000
G1 E2.00000 F2400.000
;TYPE:Perimeter
G1 F1200.000
G1 X92.795 Y126.344 E2.01047
G1 X103.738 Y126.367 E2.50476
G1 X103.839 Y126.425 E2.51002
G1 X103.897 Y126.526 E2.51528
G1 X103.920 Y126.699 E2.52319
G1 X103.920 Y127.699 E2.56835
G1 X104.034 Y128.561 E2.60761
G1 X104.411 Y129.471 E2.65212
G1 X105.011 Y130.253 E2.69663
G1 X105.793 Y130.853 E2.74114
G1 X106.703 Y131.230 E2.78565
G1 X107.565 Y131.344 E2.82491
G1 X113.565 Y131.344 E3.09591
G1 X113.793 Y131.389 E3.10641
G1 X113.875 Y131.471 E3.11167
G1 X113.897 Y131.526 E3.11432
G1 X113.920 Y131.699 E3.12223
G1 X113.920 Y137.469 E3.38281
G1 X113.875 Y137.696 E3.39331
G1 X113.793 Y137.779 E3.39857
G1 X113.738 Y137.801 E3.40122
G1 X113.565 Y137.824 E3.40913
G1 X107.565 Y137.824 E3.68013
G1 X106.703 Y137.938 E3.71939
G1 X105.793 Y138.315 E3.76390
G1 X105.011 Y138.915 E3.80841
G1 X104.411 Y139.696 E3.85292
G1 X104.034 Y140.607 E3.89743
G1 X103.920 Y141.469 E3.93669
G1 X103.920 Y142.469 E3.98186
G1 X103.897 Y142.642 E3.98976
G1 X103.839 Y142.743 E3.99503
G1 X103.738 Y142.801 E4.00029
G1 X103.565 Y142.824 E4.00819
G1 X92.795 Y142.824 E4.49462
G1 X92.568 Y142.779 E4.50511
G1 X92.521 Y142.743 E4.50776
G1 X92.463 Y142.642 E4.51302
G1 X92.440 Y142.469 E4.52093
G1 X92.440 Y141.699 E4.55568
G1 X92.485 Y141.471 E4.56617
G1 X92.521 Y141.425 E4.56883
G1 X92.622 Y141.367 E4.57409
G1 X92.795 Y141.344 E4.58200
G1 X98.795 Y141.344 E4.85300
G1 X99.657 Y141.230 E4.89226
G1 X100.568 Y140.853 E4.93677
G1 X101.349 Y140.253 E4.98128
G1 X101.949 Y139.471 E5.02579
G1 X102.326 Y138.561 E5.07030
G1 X102.440 Y137.699 E5.10956
G1 X102.440 Y131.469 E5.39098
G1 X102.326 Y130.607 E5.43024
G1 X101.949 Y129.696 E5.47475
G1 X101.349 Y128.915 E5.51926
G1 X100.568 Y128.315 E5.56377
G1 X99.657 Y127.938 E5.60828
G1 X98.795 Y127.824 E5.64753
G1 X92.795 Y127.824 E5.91854
G1 X92.622 Y127.801 E5.92645
G1 X92.521 Y127.743 E5.93171
G1 X92.485 Y127.696 E5.93436
G1 X92.440 Y127.469 E5.94485
G1 X92.440 Y126.699 E5.97960
G1 X92.463 Y126.526 E5.98751
G1 X92.520 Y126.426 E5.99272
G1 X92.184 Y126.297 F7800.000
G1 F1200.000
G1 X92.275 Y126.179 E5.99947
G1 X92.394 Y126.088 E6.00623
G1 X92.532 Y126.031 E6.01298
G1 X92.773 Y125.999 E6.02395
G1 X103.665 Y126.009 E6.51592
G1 X103.828 Y126.031 E6.52338
G1 X103.966 Y126.088 E6.53013
G1 X104.085 Y126.179 E6.53689
G1 X104.176 Y126.297 E6.54364
G1 X104.233 Y126.436 E6.55040
G1 X104.265 Y126.677 E6.56138
G1 X104.265 Y127.677 E6.60654
G1 X104.370 Y128.471 E6.64273
G1 X104.712 Y129.297 E6.68314
G1 X105.257 Y130.007 E6.72355
G1 X105.966 Y130.552 E6.76395
G1 X106.793 Y130.894 E6.80436
G1 X107.587 Y130.999 E6.84055
G1 X113.587 Y130.999 E7.11155
G1 X113.828 Y131.031 E7.12253
G1 X113.966 Y131.088 E7.12929
G1 X114.085 Y131.179 E7.13604
G1 X114.176 Y131.297 E7.14280
G1 X114.233 Y131.436 E7.14955
G1 X114.265 Y131.677 E7.16053
G1 X114.265 Y137.491 E7.42316
G1 X114.233 Y137.732 E7.43414
G1 X114.176 Y137.870 E7.44089
G1 X114.085 Y137.989 E7.44765
G1 X113.966 Y138.080 E7.45440
G1 X113.828 Y138.137 E7.46116
G1 X113.587 Y138.169 E7.47214
G1 X107.587 Y138.169 E7.74314
G1 X106.793 Y138.274 E7.77933
G1 X105.966 Y138.616 E7.81974
G1 X105.257 Y139.161 E7.86015
G1 X104.712 Y139.870 E7.90055
G1 X104.370 Y140.697 E7.94096
G1 X104.265 Y141.491 E7.97715
G1 X104.265 Y142.491 E8.02231
G1 X104.233 Y142.732 E8.03329
G1 X104.176 Y142.870 E8.04005
G1 X104.085 Y142.989 E8.04680
G1 X103.966 Y143.080 E8.05356
G1 X103.828 Y143.137 E8.06031
G1 X103.587 Y143.169 E8.07129
G1 X92.773 Y143.169 E8.55976
G1 X92.532 Y143.137 E8.57074
G1 X92.394 Y143.080 E8.57749
G1 X92.275 Y142.989 E8.58425
G1 X92.184 Y142.870 E8.59100
G1 X92.127 Y142.732 E8.59776
G1 X92.095 Y142.491 E8.60874
G1 X92.095 Y141.677 E8.64553
G1 X92.127 Y141.436 E8.65651
G1 X92.184 Y141.297 E8.66326
G1 X92.275 Y141.179 E8.67002
G1 X92.394 Y141.088 E8.67677
G1 X92.532 Y141.031 E8.68353
G1 X92.773 Y140.999 E8.69451
G1 X98.773 Y140.999 E8.96551
G1 X99.567 Y140.894 E9.00170
G1 X100.394 Y140.552 E9.04211
G1 X101.103 Y140.007 E9.08251
G1 X101.648 Y139.297 E9.12292
G1 X101.990 Y138.471 E9.16333
G1 X102.095 Y137.677 E9.19952
G1 X102.095 Y131.491 E9.47890
G1 X101.990 Y130.697 E9.51508
G1 X101.648 Y129.870 E9.55549
G1 X101.103 Y129.161 E9.59590
G1 X100.394 Y128.616 E9.63631
G1 X99.567 Y128.274 E9.67672
G1 X98.773 Y128.169 E9.71290
G1 X92.773 Y128.169 E9.98391
G1 X92.532 Y128.137 E9.99489
G1 X92.394 Y128.080 E10.00164
G1 X92.275 Y127.989 E10.00840
G1 X92.184 Y127.870 E10.01515
G1 X92.127 Y127.732 E10.02191
G1 X92.095 Y127.491 E10.03289
G1 X92.095 Y126.677 E10.06968
G1 X92.127 Y126.436 E10.08066
G1 X92.161 Y126.353 E10.08470
G1 X91.842 Y126.221 F7800.000
;TYPE:External perimeter
G1 F1200.000
G1 X91.883 Y126.124 E10.08946
G1 X92.029 Y125.933 E10.10032
G1 X92.220 Y125.787 E10.11118
G1 X92.442 Y125.695 E10.12203
G1 X92.750 Y125.654 E10.13608
G1 X103.687 Y125.664 E10.63009
G1 X103.918 Y125.695 E10.64061
G1 X104.140 Y125.787 E10.65147
G1 X104.331 Y125.933 E10.66232
G1 X104.477 Y126.124 E10.67318
G1 X104.569 Y126.346 E10.68404
G1 X104.610 Y126.654 E10.69809
G1 X104.610 Y127.654 E10.74326
G1 X104.706 Y128.381 E10.77637
G1 X105.013 Y129.124 E10.81268
G1 X105.503 Y129.761 E10.84898
G1 X106.140 Y130.251 E10.88529
G1 X106.883 Y130.558 E10.92160
G1 X107.610 Y130.654 E10.95471
G1 X113.610 Y130.654 E11.22572
G1 X113.918 Y130.695 E11.23977
G1 X114.140 Y130.787 E11.25062
G1 X114.331 Y130.933 E11.26148
G1 X114.477 Y131.124 E11.27234
G1 X114.569 Y131.346 E11.28319
G1 X114.610 Y131.654 E11.29725
G1 X114.610 Y137.514 E11.56191
G1 X114.569 Y137.822 E11.57597
G1 X114.477 Y138.044 E11.58682
G1 X114.331 Y138.235 E11.59768
G1 X114.140 Y138.381 E11.60854
G1 X113.918 Y138.473 E11.61939
G1 X113.610 Y138.514 E11.63345
G1 X107.610 Y138.514 E11.90445
G1 X106.883 Y138.610 E11.93756
G1 X106.140 Y138.917 E11.97387
G1 X105.503 Y139.407 E12.01018
G1 X105.013 Y140.044 E12.04648
G1 X104.706 Y140.787 E12.08279
G1 X104.610 Y141.514 E12.11590
G1 X104.610 Y142.514 E12.16107
G1 X104.569 Y142.822 E12.17512
G1 X104.477 Y143.044 E12.18598
G1 X104.331 Y143.235 E12.19684
G1 X104.140 Y143.381 E12.20769
G1 X103.918 Y143.473 E12.21855
G1 X103.610 Y143.514 E12.23260
G1 X92.750 Y143.514 E12.72311
G1 X92.442 Y143.473 E12.73716
G1 X92.220 Y143.381 E12.74801
G1 X92.029 Y143.235 E12.75887
G1 X91.883 Y143.044 E12.76973
G1 X91.791 Y142.822 E12.78059
G1 X91.750 Y142.514 E12.79464
G1 X91.750 Y141.654 E12.83347
G1 X91.791 Y141.346 E12.84752
G1 X91.883 Y141.124 E12.85838
G1 X92.029 Y140.933 E12.86923
G1 X92.220 Y140.787 E12.88009
G1 X92.442 Y140.695 E12.89095
G1 X92.750 Y140.654 E12.90500
G1 X98.750 Y140.654 E13.17600
G1 X99.477 Y140.558 E13.20912
G1 X100.220 Y140.251 E13.24542
G1 X100.857 Y139.761 E13.28173
G1 X101.347 Y139.124 E13.31804
G1 X101.654 Y138.381 E13.35435
G1 X101.750 Y137.654 E13.38746
G1 X101.750 Y131.514 E13.66480
G1 X101.654 Y130.787 E13.69791
G1 X101.347 Y130.044 E13.73422
G1 X100.857 Y129.407 E13.77052
G1 X100.220 Y128.917 E13.80683
G1 X99.477 Y128.610 E13.84314
G1 X98.750 Y128.514 E13.87625
G1 X92.750 Y128.514 E14.14726
G1 X92.442 Y128.473 E14.16131
G1 X92.220 Y128.381 E14.17216
G1 X92.029 Y128.235 E14.18302
G1 X91.883 Y128.044 E14.19388
G1 X91.791 Y127.822 E14.20473
G1 X91.750 Y127.514 E14.21879
G1 X91.750 Y126.654 E14.25762
G1 X91.791 Y126.346 E14.27167
G1 X91.819 Y126.276 E14.27506
G1 X91.946 Y126.201 F7800.000
G1 E12.27506 F2400.000
G92 E0
G1 X103.101 Y126.457 F7800.000
G1 E2.00000 F2400.000
;TYPE:Solid infill
;WIDTH:0.422138
G1 F1200.000
G1 X103.662 Y127.017 E2.03603
G1 X103.662 Y127.508 E2.05833
G1 X102.765 Y126.612 E2.11595
G1 X102.274 Y126.611 E2.13828
G1 X103.704 Y128.042 E2.23022
G1 X103.779 Y128.607 E2.25613
G1 X101.627 Y126.455 E2.39441
G1 E0.39441 F2400.000
G92 E0
G1 X113.817 Y132.265 F7800.000
G1 E2.00000 F2400.000
G1 F1200.000
G1 X113.154 Y131.602 E2.04258
G1 X112.664 Y131.602 E2.06489
G1 X113.662 Y132.600 E2.12904
G1 X113.662 Y133.091 E2.15134
G1 X112.173 Y131.602 E2.24703
G1 X111.682 Y131.602 E2.26934
G1 X113.662 Y133.582 E2.39657
G1 X113.662 Y134.073 E2.41888
G1 X111.191 Y131.602 E2.57766
G1 X110.700 Y131.602 E2.59996
G1 X113.662 Y134.564 E2.79028
G1 X113.662 Y135.054 E2.81259
G1 X110.210 Y131.602 E3.03445
G1 X109.719 Y131.602 E3.05676
G1 X113.662 Y135.545 E3.31016
G1 X113.662 Y136.036 E3.33247
G1 X109.228 Y131.602 E3.61742
G1 X108.737 Y131.602 E3.63972
G1 X113.662 Y136.527 E3.95622
G1 X113.662 Y137.017 E3.97852
G1 X108.247 Y131.602 E4.32656
G1 X107.756 Y131.602 E4.34886
G1 X113.651 Y137.497 E4.72775
G1 X113.640 Y137.553 E4.73034
G1 X113.228 Y137.565 E4.74905
G1 X107.222 Y131.559 E5.13507
G1 X106.657 Y131.485 E5.16098
G1 X112.737 Y137.565 E5.55178
G1 X112.247 Y137.565 E5.57408
G1 X105.830 Y131.148 E5.98652
G1 X105.662 Y131.079 E5.99476
G1 X104.826 Y130.438 E6.04264
G1 X104.185 Y129.602 E6.09052
G1 X104.116 Y129.434 E6.09876
G1 X101.291 Y126.610 E6.28027
G1 X100.800 Y126.610 E6.30259
G1 X111.756 Y137.565 E7.00673
G1 X111.265 Y137.565 E7.02904
G1 X100.309 Y126.609 E7.73321
G1 X99.818 Y126.609 E7.75553
G1 X110.774 Y137.565 E8.45973
G1 X110.284 Y137.565 E8.48204
G1 X99.327 Y126.608 E9.18626
G1 X98.835 Y126.608 E9.20859
G1 X100.046 Y127.819 E9.28640
G1 X99.725 Y127.686 E9.30221
G1 X99.376 Y127.640 E9.31818
G1 X98.344 Y126.608 E9.38452
G1 X97.853 Y126.607 E9.40684
G1 X98.811 Y127.565 E9.46844
G1 X98.320 Y127.565 E9.49074
G1 X97.362 Y126.607 E9.55237
G1 X96.870 Y126.606 E9.57469
G1 X97.830 Y127.565 E9.63635
G1 X97.339 Y127.565 E9.65865
G1 X96.379 Y126.606 E9.72034
G1 X95.888 Y126.605 E9.74266
G1 X96.848 Y127.565 E9.80438
G1 X96.357 Y127.565 E9.82668
G1 X95.397 Y126.605 E9.88842
G1 X94.906 Y126.604 E9.91075
G1 X95.867 Y127.565 E9.97252
G1 X95.376 Y127.565 E9.99483
G1 X94.414 Y126.604 E10.05663
G1 X93.923 Y126.603 E10.07895
G1 X94.885 Y127.565 E10.14078
G1 X94.394 Y127.565 E10.16309
G1 X93.432 Y126.603 E10.22495
G1 X92.941 Y126.603 E10.24727
G1 X93.904 Y127.565 E10.30917
G1 X93.413 Y127.565 E10.33147
G1 X92.698 Y126.851 E10.37738
G1 X92.698 Y127.342 E10.39968
G1 X93.077 Y127.721 E10.42402
G1 E8.42402 F2400.000
G92 E0
G1 X102.158 Y129.931 F7800.000
G1 E2.00000 F2400.000
G1 F1200.000
G1 X109.793 Y137.565 E2.49067
G1 X109.302 Y137.565 E2.51298
G1 X102.624 Y130.888 E2.94217
G1 X102.698 Y131.453 E2.96807
G1 X108.811 Y137.565 E3.36095
G1 X108.320 Y137.565 E3.38325
G1 X102.698 Y131.944 E3.74459
G1 X102.698 Y132.434 E3.76689
G1 X107.830 Y137.565 E4.09669
G1 X107.548 Y137.565 E4.10950
G1 X107.363 Y137.590 E4.11796
G1 X102.698 Y132.925 E4.41777
G1 X102.698 Y133.416 E4.44008
G1 X106.930 Y137.647 E4.71201
G1 X106.635 Y137.686 E4.72549
G1 X106.524 Y137.732 E4.73099
G1 X102.698 Y133.907 E4.97685
G1 X102.698 Y134.397 E4.99915
G1 X106.177 Y137.876 E5.22271
G1 X105.830 Y138.019 E5.23978
G1 X102.698 Y134.888 E5.44103
G1 X102.698 Y135.379 E5.46333
G1 X105.519 Y138.199 E5.64458
G1 X105.241 Y138.412 E5.66049
G1 X102.698 Y135.870 E5.82390
G1 X102.698 Y136.360 E5.84620
G1 X104.963 Y138.625 E5.99176
G1 X104.826 Y138.730 E5.99960
G1 X104.718 Y138.871 E6.00766
G1 X102.698 Y136.851 E6.13748
G1 X102.698 Y137.342 E6.15978
G1 X104.505 Y139.149 E6.27590
G1 X104.292 Y139.426 E6.29181
G1 X102.685 Y137.819 E6.39510
G1 X102.628 Y138.253 E6.41498
G1 X104.113 Y139.738 E6.51046
G1 X103.970 Y140.086 E6.52754
G1 X102.559 Y138.675 E6.61820
G1 X102.415 Y139.022 E6.63527
G1 X103.826 Y140.433 E6.72593
G1 X103.782 Y140.539 E6.73118
G1 X103.742 Y140.840 E6.74494
G1 X102.272 Y139.369 E6.83946
G1 X102.175 Y139.602 E6.85091
G1 X102.105 Y139.693 E6.85615
G1 X103.685 Y141.273 E6.95770
G1 X103.662 Y141.452 E6.96587
G1 X103.662 Y141.740 E6.97900
G1 X101.892 Y139.971 E7.09274
G1 X101.679 Y140.249 E7.10865
G1 X103.662 Y142.231 E7.23608
G1 X103.648 Y142.552 E7.25068
G1 X103.505 Y142.565 E7.25722
G1 X101.445 Y140.506 E7.38960
G1 X101.168 Y140.719 E7.40551
G1 X103.014 Y142.565 E7.52421
G1 X102.524 Y142.565 E7.54651
G1 X100.890 Y140.932 E7.65151
G1 X100.698 Y141.079 E7.66250
G1 X100.591 Y141.123 E7.66777
G1 X102.033 Y142.565 E7.76046
G1 X101.542 Y142.565 E7.78276
G1 X100.244 Y141.267 E7.86620
G1 X99.897 Y141.411 E7.88327
G1 X101.051 Y142.565 E7.95747
G1 X100.560 Y142.565 E7.97978
G1 X99.506 Y141.511 E8.04755
G1 X99.072 Y141.568 E8.06743
G1 X100.070 Y142.565 E8.13153
G1 X99.579 Y142.565 E8.15384
G1 X98.616 Y141.602 E8.21574
G1 X98.125 Y141.602 E8.23804
G1 X99.088 Y142.565 E8.29994
G1 X98.597 Y142.565 E8.32225
G1 X97.634 Y141.602 E8.38415
G1 X97.143 Y141.602 E8.40646
G1 X98.107 Y142.565 E8.46836
G1 X97.616 Y142.565 E8.49066
G1 X96.653 Y141.602 E8.55256
G1 X96.162 Y141.602 E8.57487
G1 X97.125 Y142.565 E8.63677
G1 X96.634 Y142.565 E8.65908
G1 X95.671 Y141.602 E8.72098
G1 X95.180 Y141.602 E8.74328
G1 X96.143 Y142.565 E8.80518
G1 X95.653 Y142.565 E8.82749
G1 X94.690 Y141.602 E8.88939
G1 X94.199 Y141.602 E8.91169
G1 X95.162 Y142.565 E8.97360
G1 X94.671 Y142.565 E8.99590
G1 X93.708 Y141.602 E9.05780
G1 X93.217 Y141.602 E9.08011
G1 X94.180 Y142.565 E9.14201
G1 X93.690 Y142.565 E9.16431
G1 X92.737 Y141.612 E9.22557
G1 X92.720 Y141.614 E9.22631
G1 X92.698 Y141.725 E9.23142
G1 X92.698 Y142.065 E9.24689
G1 X93.354 Y142.721 E9.28903
G1 E7.28903 F2400.000
G92 E0
G1 X151.777 Y140.787 F7800.000
G1 E2.00000 F2400.000
;TYPE:Perimeter
;WIDTH:0.42
G1 F1200.000
G1 X151.731 Y140.559 E2.01049
G1 X151.731 Y139.790 E2.04524
G1 X151.777 Y139.562 E2.05573
G1 X151.812 Y139.515 E2.05839
G1 X151.913 Y139.457 E2.06365
G1 X152.087 Y139.434 E2.07156
G1 X158.087 Y139.434 E2.34256
G1 X158.949 Y139.321 E2.38182
G1 X159.859 Y138.944 E2.42633
G1 X160.641 Y138.344 E2.47084
G1 X161.241 Y137.562 E2.51535
G1 X161.618 Y136.652 E2.55986
G1 X161.731 Y135.790 E2.59912
G1 X161.731 Y129.559 E2.88054
G1 X161.618 Y128.697 E2.91980
G1 X161.241 Y127.787 E2.96431
G1 X160.641 Y127.005 E3.00882
G1 X159.859 Y126.405 E3.05333
G1 X158.949 Y126.028 E3.09784
G1 X158.087 Y125.915 E3.13710
