; G-Code originally generated by Simplify3D(R) Version 4.1.2, based on proposed code by vector76
;M80 ; power supply on
G90
M82
M106 S0
M140 S60
M190 S60
M104 S215 T0
M109 S215 T0
M291 P"Homing all axis" R"Printing.." S1 T2
G21		; metric values
G28		; home all
M98 P"/macros/load_meshbed"	; load mesh bed corresponding to the temp
M98 P"/macros/set_baby_step"	; set baby step
M98 P"/macros/purge_and_prime"; purge and do the prime line
G92 E0 F100		; reset extruder
G1 Z10 F3000 		; move z up little to prevent scratching of surface
G92 E0 		; reset extruder
M291 P"Printing started !" R"Printing.." S1 T3
; process Process1
; layer 1, Z = 0.300
T0
G92 E0.0000
G1 E-1 F2400 ; custom retraction
; skirt 1
G1 Z0.400 F1200
G1 X44.636 Y46.314 F6000
G1 Z0.200 F1200
G1 E0 F2400 ; custom un-retraction/prime
G92 E0.0000
G1 X46.314 Y44.636 E0.1023 F1800
G1 X73.686 Y44.636 E1.2822
G1 X75.364 Y46.314 E1.3844
G1 X75.364 Y73.686 E2.5643
G1 X73.686 Y75.364 E2.6666
G1 X46.314 Y75.364 E3.8465
G1 X44.636 Y73.686 E3.9487
G1 X44.636 Y46.314 E5.1286
G92 E0.0000
G1 E-1 F2400 ; custom retraction
G1 Z0.600 F1200
G1 X45.212 Y46.552 F6000
G1 Z0.200 F1200
G1 E0 F2400 ; custom un-retraction/prime
G92 E0.0000
G1 X46.552 Y45.212 E0.0817 F1800
G1 X73.44800000000001 Y45.212 E1.2410
G1 X74.788 Y46.552 E1.3227
G1 X74.788 Y73.44800000000001 E2.4820
G1 X73.44800000000001 Y74.788 E2.5637
G1 X46.552 Y74.788 E3.7231
G1 X45.212 Y73.44800000000001 E3.8048
G1 X45.212 Y46.552 E4.9641
G92 E0.0000
G1 E-1 F2400 ; custom retraction
; skirt 2
G1 Z0.400 F1200
G1 X44.636 Y236.314 F6000
G1 Z0.200 F1200
G1 E0 F2400 ; custom un-retraction/prime
G92 E0.0000
G1 X46.314 Y234.636 E0.1023 F1800
G1 X73.686 Y234.636 E1.2822
G1 X75.364 Y236.314 E1.3844
G1 X75.364 Y263.686 E2.5643
G1 X73.686 Y265.36400000000003 E2.6666
G1 X46.314 Y265.36400000000003 E3.8465
G1 X44.636 Y263.686 E3.9487
G1 X44.636 Y236.314 E5.1286
G92 E0.0000
G1 E-1 F2400 ; custom retraction
G1 Z0.600 F1200
G1 X45.212 Y236.552 F6000
G1 Z0.200 F1200
G1 E0 F2400 ; custom un-retraction/prime
G92 E0.0000
G1 X46.552 Y235.212 E0.0817 F1800
G1 X73.44800000000001 Y235.212 E1.2410
G1 X74.788 Y236.552 E1.3227
G1 X74.788 Y263.448 E2.4820
G1 X73.44800000000001 Y264.788 E2.5637
G1 X46.552 Y264.788 E3.7231
G1 X45.212 Y263.448 E3.8048
G1 X45.212 Y236.552 E4.9641
G92 E0.0000
G1 E-1 F2400 ; custom retraction
; skirt 3
G1 Z0.400 F1200
G1 X139.636 Y141.314 F6000
G1 Z0.200 F1200
G1 E0 F2400 ; custom un-retraction/prime
G92 E0.0000
G1 X141.314 Y139.636 E0.1023 F1800
G1 X168.686 Y139.636 E1.2822
G1 X170.364 Y141.314 E1.3844
G1 X170.364 Y168.686 E2.5643
G1 X168.686 Y170.364 E2.6666
G1 X141.314 Y170.364 E3.8465
G1 X139.636 Y168.686 E3.9487
G1 X139.636 Y141.314 E5.1286
G92 E0.0000
G1 E-1 F2400 ; custom retraction
G1 Z0.600 F1200
G1 X140.212 Y141.552 F6000
G1 Z0.200 F1200
G1 E0 F2400 ; custom un-retraction/prime
G92 E0.0000
G1 X141.552 Y140.212 E0.0817 F1800
G1 X168.448 Y140.212 E1.2410
G1 X169.788 Y141.552 E1.3227
G1 X169.788 Y168.448 E2.4820
G1 X168.448 Y169.788 E2.5637
G1 X141.552 Y169.788 E3.7231
G1 X140.212 Y168.448 E3.8048
G1 X140.212 Y141.552 E4.9641
G92 E0.0000
G1 E-1 F2400 ; custom retraction
; skirt 4
G1 Z0.400 F1200
G1 X234.636 Y46.314 F6000
G1 Z0.200 F1200
G1 E0 F2400 ; custom un-retraction/prime
G92 E0.0000
G1 X236.314 Y44.636 E0.1023 F1800
G1 X263.686 Y44.636 E1.2822
G1 X265.36400000000003 Y46.314 E1.3844
G1 X265.36400000000003 Y73.686 E2.5643
G1 X263.686 Y75.364 E2.6666
G1 X236.314 Y75.364 E3.8465
G1 X234.636 Y73.686 E3.9487
G1 X234.636 Y46.314 E5.1286
G92 E0.0000
G1 E-1 F2400 ; custom retraction
G1 Z0.600 F1200
G1 X235.212 Y46.552 F6000
G1 Z0.200 F1200
G1 E0 F2400 ; custom un-retraction/prime
G92 E0.0000
G1 X236.552 Y45.212 E0.0817 F1800
G1 X263.448 Y45.212 E1.2410
G1 X264.788 Y46.552 E1.3227
G1 X264.788 Y73.44800000000001 E2.4820
G1 X263.448 Y74.788 E2.5637
G1 X236.552 Y74.788 E3.7231
G1 X235.212 Y73.44800000000001 E3.8048
G1 X235.212 Y46.552 E4.9641
G92 E0.0000
G1 E-1 F2400 ; custom retraction
; skirt 5
G1 Z0.400 F1200
G1 X234.636 Y236.314 F6000
G1 Z0.200 F1200
G1 E0 F2400 ; custom un-retraction/prime
G92 E0.0000
G1 X236.314 Y234.636 E0.1023 F1800
G1 X263.686 Y234.636 E1.2822
G1 X265.36400000000003 Y236.314 E1.3844
G1 X265.36400000000003 Y263.686 E2.5643
G1 X263.686 Y265.36400000000003 E2.6666
G1 X236.314 Y265.36400000000003 E3.8465
G1 X234.636 Y263.686 E3.9487
G1 X234.636 Y236.314 E5.1286
G92 E0.0000
G1 E-1 F2400 ; custom retraction
G1 Z0.600 F1200
G1 X235.212 Y236.552 F6000
G1 Z0.200 F1200
G1 E0 F2400 ; custom un-retraction/prime
G92 E0.0000
G1 X236.552 Y235.212 E0.0817 F1800
G1 X263.448 Y235.212 E1.2410
G1 X264.788 Y236.552 E1.3227
G1 X264.788 Y263.448 E2.4820
G1 X263.448 Y264.788 E2.5637
G1 X236.552 Y264.788 E3.7231
G1 X235.212 Y263.448 E3.8048
G1 X235.212 Y236.552 E4.9641
G92 E0.0000
G1 E-1 F2400 ; custom retraction
; square 1
; feature inner perimeter
G1 Z0.600 F1200
G1 X47.788 Y47.788 F6000
G1 X47.788 Y48.202
G1 X48.94 Y48.94
G1 Z0.200 F1200
G1 E0 F2400 ; custom un-retraction/prime
G92 E0.0000
G1 X71.06 Y48.94 E0.9535 F1350
G1 X71.06 Y71.06 E1.9069
G1 X48.94 Y71.06 E2.8604
G1 X48.94 Y48.94 E3.8139
G1 X48.364 Y48.364 F6000
G92 E0.0000
G1 X71.636 Y48.364 E1.0031 F1350
G1 X71.636 Y71.636 E2.0063
G1 X48.364 Y71.636 E3.0094
G1 X48.364 Y48.364 E4.0125
; feature outer perimeter
G1 X47.788 Y47.788 F6000
G92 E0.0000
G1 X72.212 Y47.788 E1.0528 F900
G1 X72.212 Y72.212 E2.1056
G1 X47.788 Y72.212 E3.1584
G1 X47.788 Y47.788 E4.2111
; feature solid layer
G1 X70.465 Y49.286 F6000
G92 E0.0000
G1 X70.714 Y49.535 E0.0152 F1440
G1 X70.714 Y50.35 E0.0503
G1 X69.65 Y49.286 E0.1152
G1 X68.836 Y49.286 E0.1503
G1 X70.714 Y51.164 E0.2648
G1 X70.714 Y51.979 E0.2999
G1 X68.021 Y49.286 E0.4640
G1 X67.207 Y49.286 E0.4992
G1 X70.714 Y52.793 E0.7130
G1 X70.714 Y53.608 E0.7481
G1 X66.392 Y49.286 E1.0116
G1 X65.578 Y49.286 E1.0467
G1 X70.714 Y54.422 E1.3598
G1 X70.714 Y55.237 E1.3949
G1 X64.763 Y49.286 E1.7577
G1 X63.948 Y49.286 E1.7928
G1 X70.714 Y56.052 E2.2053
G1 X70.714 Y56.866 E2.2404
G1 X63.134 Y49.286 E2.7025
G1 X62.319 Y49.286 E2.7376
G1 X70.714 Y57.681 E3.2494
G1 X70.714 Y58.495 E3.2845
G1 X61.505 Y49.286 E3.8459
G1 X60.69 Y49.286 E3.8810
G1 X70.714 Y59.31 E4.4921
G1 X70.714 Y60.125 E4.5272
G1 X59.875 Y49.286 E5.1879
G1 X59.061 Y49.286 E5.2230
G1 X70.714 Y60.939 E5.9334
G1 X70.714 Y61.754 E5.9685
G1 X58.246 Y49.286 E6.7286
G1 X57.432 Y49.286 E6.7637
G1 X70.714 Y62.568 E7.5734
G1 X70.714 Y63.383 E7.6085
G1 X56.617 Y49.286 E8.4679
G1 X55.802 Y49.286 E8.5030
G1 X70.714 Y64.19800000000001 E9.4120
G1 X70.714 Y65.012 E9.4471
G1 X54.988 Y49.286 E10.4058
G1 X54.173 Y49.286 E10.4409
G1 X70.714 Y65.827 E11.4492
G1 X70.714 Y66.64099999999999 E11.4844
G1 X53.359 Y49.286 E12.5424
G1 X52.544 Y49.286 E12.5775
G1 X70.714 Y67.456 E13.6851
G1 X70.714 Y68.27000000000001 E13.7202
G1 X51.73 Y49.286 E14.8775
G1 X50.915 Y49.286 E14.9126
G1 X70.714 Y69.08500000000001 E16.1196
G1 X70.714 Y69.9 E16.1547
G1 X50.1 Y49.286 E17.4113
G1 X49.286 Y49.286 E17.4464
G1 X70.714 Y70.714 E18.7527
G1 X69.9 Y70.714 E18.7878
G1 X49.286 Y50.1 E20.0445
G1 X49.286 Y50.915 E20.0796
G1 X69.08500000000001 Y70.714 E21.2865
G1 X68.27000000000001 Y70.714 E21.3216
G1 X49.286 Y51.73 E22.4789
G1 X49.286 Y52.544 E22.5141
G1 X67.456 Y70.714 E23.6217
G1 X66.64099999999999 Y70.714 E23.6568
G1 X49.286 Y53.359 E24.7148
G1 X49.286 Y54.173 E24.7499
G1 X65.827 Y70.714 E25.7583
G1 X65.012 Y70.714 E25.7934
G1 X49.286 Y54.988 E26.7520
G1 X49.286 Y55.802 E26.7872
G1 X64.19800000000001 Y70.714 E27.6962
G1 X63.383 Y70.714 E27.7313
G1 X49.286 Y56.617 E28.5907
G1 X49.286 Y57.432 E28.6258
G1 X62.568 Y70.714 E29.4355
G1 X61.754 Y70.714 E29.4706
G1 X49.286 Y58.246 E30.2306
G1 X49.286 Y59.061 E30.2658
G1 X60.939 Y70.714 E30.9761
G1 X60.125 Y70.714 E31.0113
G1 X49.286 Y59.875 E31.6720
G1 X49.286 Y60.69 E31.7071
G1 X59.31 Y70.714 E32.3182
G1 X58.495 Y70.714 E32.3533
G1 X49.286 Y61.505 E32.9147
G1 X49.286 Y62.319 E32.9498
G1 X57.681 Y70.714 E33.4616
G1 X56.866 Y70.714 E33.4967
G1 X49.286 Y63.134 E33.9588
G1 X49.286 Y63.948 E33.9939
G1 X56.052 Y70.714 E34.4064
G1 X55.237 Y70.714 E34.4415
G1 X49.286 Y64.763 E34.8043
G1 X49.286 Y65.577 E34.8394
G1 X54.422 Y70.714 E35.1525
G1 X53.608 Y70.714 E35.1876
G1 X49.286 Y66.392 E35.4511
G1 X49.286 Y67.207 E35.4862
G1 X52.793 Y70.714 E35.7000
G1 X51.979 Y70.714 E35.7352
G1 X49.286 Y68.021 E35.8993
G1 X49.286 Y68.836 E35.9344
G1 X51.164 Y70.714 E36.0489
G1 X50.35 Y70.714 E36.0841
G1 X49.286 Y69.65 E36.1489
G1 X49.286 Y70.465 E36.1840
G1 X49.535 Y70.714 E36.1992
G92 E0.0000
G1 E-1 F2400 ; custom retraction
; square 2
; feature inner perimeter
G1 Z0.600 F1200
G1 X47.788 Y237.788 F6000
G1 X47.788 Y238.202
G1 X48.94 Y238.94
G1 Z0.200 F1200
G1 E0 F2400 ; custom un-retraction/prime
G92 E0.0000
G1 X71.06 Y238.94 E0.9535 F1350
G1 X71.06 Y261.06 E1.9069
G1 X48.94 Y261.06 E2.8604
G1 X48.94 Y238.94 E3.8139
G1 X48.364 Y238.364 F6000
G92 E0.0000
G1 X71.636 Y238.364 E1.0031 F1350
G1 X71.636 Y261.636 E2.0063
G1 X48.364 Y261.636 E3.0094
G1 X48.364 Y238.364 E4.0125
; feature outer perimeter
G1 X47.788 Y237.788 F6000
G92 E0.0000
G1 X72.212 Y237.788 E1.0528 F900
G1 X72.212 Y262.212 E2.1056
G1 X47.788 Y262.212 E3.1584
G1 X47.788 Y237.788 E4.2111
; feature solid layer
G1 X70.465 Y239.286 F6000
G92 E0.0000
G1 X70.714 Y239.535 E0.0152 F1440
G1 X70.714 Y240.35 E0.0503
G1 X69.65 Y239.286 E0.1152
G1 X68.836 Y239.286 E0.1503
G1 X70.714 Y241.164 E0.2648
G1 X70.714 Y241.97899999999998 E0.2999
G1 X68.021 Y239.286 E0.4640
G1 X67.207 Y239.286 E0.4992
G1 X70.714 Y242.793 E0.7130
G1 X70.714 Y243.608 E0.7481
G1 X66.392 Y239.286 E1.0116
G1 X65.578 Y239.286 E1.0467
G1 X70.714 Y244.422 E1.3598
G1 X70.714 Y245.237 E1.3949
G1 X64.763 Y239.286 E1.7577
G1 X63.948 Y239.286 E1.7928
G1 X70.714 Y246.052 E2.2053
G1 X70.714 Y246.86599999999999 E2.2404
G1 X63.134 Y239.286 E2.7025
G1 X62.319 Y239.286 E2.7376
G1 X70.714 Y247.68099999999998 E3.2494
G1 X70.714 Y248.495 E3.2845
G1 X61.505 Y239.286 E3.8459
G1 X60.69 Y239.286 E3.8810
G1 X70.714 Y249.31 E4.4921
G1 X70.714 Y250.125 E4.5272
G1 X59.875 Y239.286 E5.1879
G1 X59.061 Y239.286 E5.2230
G1 X70.714 Y250.939 E5.9334
G1 X70.714 Y251.754 E5.9685
G1 X58.246 Y239.286 E6.7286
G1 X57.432 Y239.286 E6.7637
G1 X70.714 Y252.56799999999998 E7.5734
G1 X70.714 Y253.383 E7.6085
G1 X56.617 Y239.286 E8.4679
G1 X55.802 Y239.286 E8.5030
G1 X70.714 Y254.198 E9.4120
G1 X70.714 Y255.012 E9.4471
G1 X54.988 Y239.286 E10.4058
G1 X54.173 Y239.286 E10.4409
G1 X70.714 Y255.827 E11.4492
G1 X70.714 Y256.641 E11.4844
G1 X53.359 Y239.286 E12.5424
G1 X52.544 Y239.286 E12.5775
G1 X70.714 Y257.456 E13.6851
G1 X70.714 Y258.27 E13.7202
G1 X51.73 Y239.286 E14.8775
G1 X50.915 Y239.286 E14.9126
G1 X70.714 Y259.085 E16.1196
G1 X70.714 Y259.9 E16.1547
G1 X50.1 Y239.286 E17.4113
G1 X49.286 Y239.286 E17.4464
G1 X70.714 Y260.714 E18.7527
G1 X69.9 Y260.714 E18.7878
G1 X49.286 Y240.1 E20.0445
G1 X49.286 Y240.915 E20.0796
G1 X69.08500000000001 Y260.714 E21.2865
G1 X68.27000000000001 Y260.714 E21.3216
G1 X49.286 Y241.73 E22.4789
G1 X49.286 Y242.54399999999998 E22.5141
G1 X67.456 Y260.714 E23.6217
G1 X66.64099999999999 Y260.714 E23.6568
G1 X49.286 Y243.359 E24.7148
G1 X49.286 Y244.173 E24.7499
G1 X65.827 Y260.714 E25.7583
G1 X65.012 Y260.714 E25.7934
G1 X49.286 Y244.988 E26.7520
G1 X49.286 Y245.802 E26.7872
G1 X64.19800000000001 Y260.714 E27.6962
G1 X63.383 Y260.714 E27.7313
G1 X49.286 Y246.617 E28.5907
G1 X49.286 Y247.43200000000002 E28.6258
G1 X62.568 Y260.714 E29.4355
G1 X61.754 Y260.714 E29.4706
G1 X49.286 Y248.246 E30.2306
G1 X49.286 Y249.061 E30.2658
G1 X60.939 Y260.714 E30.9761
G1 X60.125 Y260.714 E31.0113
G1 X49.286 Y249.875 E31.6720
G1 X49.286 Y250.69 E31.7071
G1 X59.31 Y260.714 E32.3182
G1 X58.495 Y260.714 E32.3533
G1 X49.286 Y251.505 E32.9147
G1 X49.286 Y252.31900000000002 E32.9498
G1 X57.681 Y260.714 E33.4616
G1 X56.866 Y260.714 E33.4967
G1 X49.286 Y253.13400000000001 E33.9588
G1 X49.286 Y253.948 E33.9939
G1 X56.052 Y260.714 E34.4064
G1 X55.237 Y260.714 E34.4415
G1 X49.286 Y254.763 E34.8043
G1 X49.286 Y255.577 E34.8394
G1 X54.422 Y260.714 E35.1525
G1 X53.608 Y260.714 E35.1876
G1 X49.286 Y256.392 E35.4511
G1 X49.286 Y257.207 E35.4862
G1 X52.793 Y260.714 E35.7000
G1 X51.979 Y260.714 E35.7352
G1 X49.286 Y258.021 E35.8993
G1 X49.286 Y258.836 E35.9344
G1 X51.164 Y260.714 E36.0489
G1 X50.35 Y260.714 E36.0841
G1 X49.286 Y259.65 E36.1489
G1 X49.286 Y260.46500000000003 E36.1840
G1 X49.535 Y260.714 E36.1992
G92 E0.0000
G1 E-1 F2400 ; custom retraction
; square 3
; feature inner perimeter
G1 Z0.600 F1200
G1 X142.788 Y142.788 F6000
G1 X142.788 Y143.202
G1 X143.94 Y143.94
G1 Z0.200 F1200
G1 E0 F2400 ; custom un-retraction/prime
G92 E0.0000
G1 X166.06 Y143.94 E0.9535 F1350
G1 X166.06 Y166.06 E1.9069
G1 X143.94 Y166.06 E2.8604
G1 X143.94 Y143.94 E3.8139
G1 X143.364 Y143.364 F6000
G92 E0.0000
G1 X166.636 Y143.364 E1.0031 F1350
G1 X166.636 Y166.636 E2.0063
G1 X143.364 Y166.636 E3.0094
G1 X143.364 Y143.364 E4.0125
; feature outer perimeter
G1 X142.788 Y142.788 F6000
G92 E0.0000
G1 X167.212 Y142.788 E1.0528 F900
G1 X167.212 Y167.212 E2.1056
G1 X142.788 Y167.212 E3.1584
G1 X142.788 Y142.788 E4.2111
; feature solid layer
G1 X165.465 Y144.286 F6000
G92 E0.0000
G1 X165.714 Y144.535 E0.0152 F1440
G1 X165.714 Y145.35 E0.0503
G1 X164.65 Y144.286 E0.1152
G1 X163.836 Y144.286 E0.1503
G1 X165.714 Y146.164 E0.2648
G1 X165.714 Y146.97899999999998 E0.2999
G1 X163.02100000000002 Y144.286 E0.4640
G1 X162.207 Y144.286 E0.4992
G1 X165.714 Y147.793 E0.7130
G1 X165.714 Y148.608 E0.7481
G1 X161.392 Y144.286 E1.0116
G1 X160.578 Y144.286 E1.0467
G1 X165.714 Y149.422 E1.3598
G1 X165.714 Y150.237 E1.3949
G1 X159.763 Y144.286 E1.7577
G1 X158.948 Y144.286 E1.7928
G1 X165.714 Y151.052 E2.2053
G1 X165.714 Y151.86599999999999 E2.2404
G1 X158.13400000000001 Y144.286 E2.7025
G1 X157.31900000000002 Y144.286 E2.7376
G1 X165.714 Y152.68099999999998 E3.2494
G1 X165.714 Y153.495 E3.2845
G1 X156.505 Y144.286 E3.8459
G1 X155.69 Y144.286 E3.8810
G1 X165.714 Y154.31 E4.4921
G1 X165.714 Y155.125 E4.5272
G1 X154.875 Y144.286 E5.1879
G1 X154.061 Y144.286 E5.2230
G1 X165.714 Y155.939 E5.9334
G1 X165.714 Y156.754 E5.9685
G1 X153.246 Y144.286 E6.7286
G1 X152.43200000000002 Y144.286 E6.7637
G1 X165.714 Y157.56799999999998 E7.5734
G1 X165.714 Y158.383 E7.6085
G1 X151.617 Y144.286 E8.4679
G1 X150.802 Y144.286 E8.5030
G1 X165.714 Y159.198 E9.4120
G1 X165.714 Y160.012 E9.4471
G1 X149.988 Y144.286 E10.4058
G1 X149.173 Y144.286 E10.4409
G1 X165.714 Y160.827 E11.4492
G1 X165.714 Y161.641 E11.4844
G1 X148.359 Y144.286 E12.5424
G1 X147.54399999999998 Y144.286 E12.5775
G1 X165.714 Y162.45600000000002 E13.6851
G1 X165.714 Y163.27 E13.7202
G1 X146.73 Y144.286 E14.8775
G1 X145.915 Y144.286 E14.9126
G1 X165.714 Y164.085 E16.1196
G1 X165.714 Y164.9 E16.1547
G1 X145.1 Y144.286 E17.4113
G1 X144.286 Y144.286 E17.4464
G1 X165.714 Y165.714 E18.7527
G1 X164.9 Y165.714 E18.7878
G1 X144.286 Y145.1 E20.0445
G1 X144.286 Y145.915 E20.0796
G1 X164.085 Y165.714 E21.2865
G1 X163.27 Y165.714 E21.3216
G1 X144.286 Y146.73 E22.4789
G1 X144.286 Y147.54399999999998 E22.5141
G1 X162.45600000000002 Y165.714 E23.6217
G1 X161.641 Y165.714 E23.6568
G1 X144.286 Y148.359 E24.7148
G1 X144.286 Y149.173 E24.7499
G1 X160.827 Y165.714 E25.7583
G1 X160.012 Y165.714 E25.7934
G1 X144.286 Y149.988 E26.7520
G1 X144.286 Y150.802 E26.7872
G1 X159.198 Y165.714 E27.6962
G1 X158.383 Y165.714 E27.7313
G1 X144.286 Y151.617 E28.5907
G1 X144.286 Y152.43200000000002 E28.6258
G1 X157.56799999999998 Y165.714 E29.4355
G1 X156.754 Y165.714 E29.4706
G1 X144.286 Y153.246 E30.2306
G1 X144.286 Y154.061 E30.2658
G1 X155.939 Y165.714 E30.9761
G1 X155.125 Y165.714 E31.0113
G1 X144.286 Y154.875 E31.6720
G1 X144.286 Y155.69 E31.7071
G1 X154.31 Y165.714 E32.3182
G1 X153.495 Y165.714 E32.3533
G1 X144.286 Y156.505 E32.9147
G1 X144.286 Y157.31900000000002 E32.9498
G1 X152.68099999999998 Y165.714 E33.4616
G1 X151.86599999999999 Y165.714 E33.4967
G1 X144.286 Y158.13400000000001 E33.9588
G1 X144.286 Y158.948 E33.9939
G1 X151.052 Y165.714 E34.4064
G1 X150.237 Y165.714 E34.4415
G1 X144.286 Y159.763 E34.8043
G1 X144.286 Y160.577 E34.8394
G1 X149.422 Y165.714 E35.1525
G1 X148.608 Y165.714 E35.1876
G1 X144.286 Y161.392 E35.4511
G1 X144.286 Y162.207 E35.4862
G1 X147.793 Y165.714 E35.7000
G1 X146.97899999999998 Y165.714 E35.7352
G1 X144.286 Y163.02100000000002 E35.8993
G1 X144.286 Y163.836 E35.9344
G1 X146.164 Y165.714 E36.0489
G1 X145.35 Y165.714 E36.0841
G1 X144.286 Y164.65 E36.1489
G1 X144.286 Y165.465 E36.1840
G1 X144.535 Y165.714 E36.1992
G92 E0.0000
G1 E-1 F2400 ; custom retraction
; square 4
; feature inner perimeter
G1 Z0.600 F1200
G1 X237.788 Y47.788 F6000
G1 X237.788 Y48.202
G1 X238.94 Y48.94
G1 Z0.200 F1200
G1 E0 F2400 ; custom un-retraction/prime
G92 E0.0000
G1 X261.06 Y48.94 E0.9535 F1350
G1 X261.06 Y71.06 E1.9069
G1 X238.94 Y71.06 E2.8604
G1 X238.94 Y48.94 E3.8139
G1 X238.364 Y48.364 F6000
G92 E0.0000
G1 X261.636 Y48.364 E1.0031 F1350
G1 X261.636 Y71.636 E2.0063
G1 X238.364 Y71.636 E3.0094
G1 X238.364 Y48.364 E4.0125
; feature outer perimeter
G1 X237.788 Y47.788 F6000
G92 E0.0000
G1 X262.212 Y47.788 E1.0528 F900
G1 X262.212 Y72.212 E2.1056
G1 X237.788 Y72.212 E3.1584
G1 X237.788 Y47.788 E4.2111
; feature solid layer
G1 X260.46500000000003 Y49.286 F6000
G92 E0.0000
G1 X260.714 Y49.535 E0.0152 F1440
G1 X260.714 Y50.35 E0.0503
G1 X259.65 Y49.286 E0.1152
G1 X258.836 Y49.286 E0.1503
G1 X260.714 Y51.164 E0.2648
G1 X260.714 Y51.979 E0.2999
G1 X258.021 Y49.286 E0.4640
G1 X257.207 Y49.286 E0.4992
G1 X260.714 Y52.793 E0.7130
G1 X260.714 Y53.608 E0.7481
G1 X256.392 Y49.286 E1.0116
G1 X255.578 Y49.286 E1.0467
G1 X260.714 Y54.422 E1.3598
G1 X260.714 Y55.237 E1.3949
G1 X254.763 Y49.286 E1.7577
G1 X253.948 Y49.286 E1.7928
G1 X260.714 Y56.052 E2.2053
G1 X260.714 Y56.866 E2.2404
G1 X253.13400000000001 Y49.286 E2.7025
G1 X252.31900000000002 Y49.286 E2.7376
G1 X260.714 Y57.681 E3.2494
G1 X260.714 Y58.495 E3.2845
G1 X251.505 Y49.286 E3.8459
G1 X250.69 Y49.286 E3.8810
G1 X260.714 Y59.31 E4.4921
G1 X260.714 Y60.125 E4.5272
G1 X249.875 Y49.286 E5.1879
G1 X249.061 Y49.286 E5.2230
G1 X260.714 Y60.939 E5.9334
G1 X260.714 Y61.754 E5.9685
G1 X248.246 Y49.286 E6.7286
G1 X247.43200000000002 Y49.286 E6.7637
G1 X260.714 Y62.568 E7.5734
G1 X260.714 Y63.383 E7.6085
G1 X246.617 Y49.286 E8.4679
G1 X245.802 Y49.286 E8.5030
G1 X260.714 Y64.19800000000001 E9.4120
G1 X260.714 Y65.012 E9.4471
G1 X244.988 Y49.286 E10.4058
G1 X244.173 Y49.286 E10.4409
G1 X260.714 Y65.827 E11.4492
G1 X260.714 Y66.64099999999999 E11.4844
G1 X243.359 Y49.286 E12.5424
G1 X242.54399999999998 Y49.286 E12.5775
G1 X260.714 Y67.456 E13.6851
G1 X260.714 Y68.27000000000001 E13.7202
G1 X241.73 Y49.286 E14.8775
G1 X240.915 Y49.286 E14.9126
G1 X260.714 Y69.08500000000001 E16.1196
G1 X260.714 Y69.9 E16.1547
G1 X240.1 Y49.286 E17.4113
G1 X239.286 Y49.286 E17.4464
G1 X260.714 Y70.714 E18.7527
G1 X259.9 Y70.714 E18.7878
G1 X239.286 Y50.1 E20.0445
G1 X239.286 Y50.915 E20.0796
G1 X259.085 Y70.714 E21.2865
G1 X258.27 Y70.714 E21.3216
G1 X239.286 Y51.73 E22.4789
G1 X239.286 Y52.544 E22.5141
G1 X257.456 Y70.714 E23.6217
G1 X256.641 Y70.714 E23.6568
G1 X239.286 Y53.359 E24.7148
G1 X239.286 Y54.173 E24.7499
G1 X255.827 Y70.714 E25.7583
G1 X255.012 Y70.714 E25.7934
G1 X239.286 Y54.988 E26.7520
G1 X239.286 Y55.802 E26.7872
G1 X254.198 Y70.714 E27.6962
G1 X253.383 Y70.714 E27.7313
G1 X239.286 Y56.617 E28.5907
G1 X239.286 Y57.432 E28.6258
G1 X252.56799999999998 Y70.714 E29.4355
G1 X251.754 Y70.714 E29.4706
G1 X239.286 Y58.246 E30.2306
G1 X239.286 Y59.061 E30.2658
G1 X250.939 Y70.714 E30.9761
G1 X250.125 Y70.714 E31.0113
G1 X239.286 Y59.875 E31.6720
G1 X239.286 Y60.69 E31.7071
G1 X249.31 Y70.714 E32.3182
G1 X248.495 Y70.714 E32.3533
G1 X239.286 Y61.505 E32.9147
G1 X239.286 Y62.319 E32.9498
G1 X247.68099999999998 Y70.714 E33.4616
G1 X246.86599999999999 Y70.714 E33.4967
G1 X239.286 Y63.134 E33.9588
G1 X239.286 Y63.948 E33.9939
G1 X246.052 Y70.714 E34.4064
G1 X245.237 Y70.714 E34.4415
G1 X239.286 Y64.763 E34.8043
G1 X239.286 Y65.577 E34.8394
G1 X244.422 Y70.714 E35.1525
G1 X243.608 Y70.714 E35.1876
G1 X239.286 Y66.392 E35.4511
G1 X239.286 Y67.207 E35.4862
G1 X242.793 Y70.714 E35.7000
G1 X241.97899999999998 Y70.714 E35.7352
G1 X239.286 Y68.021 E35.8993
G1 X239.286 Y68.836 E35.9344
G1 X241.164 Y70.714 E36.0489
G1 X240.35 Y70.714 E36.0841
G1 X239.286 Y69.65 E36.1489
G1 X239.286 Y70.465 E36.1840
G1 X239.535 Y70.714 E36.1992
G92 E0.0000
G1 E-1 F2400 ; custom retraction
; square 5
; feature inner perimeter
G1 Z0.600 F1200
G1 X237.788 Y237.788 F6000
G1 X237.788 Y238.202
G1 X238.94 Y238.94
G1 Z0.200 F1200
G1 E0 F2400 ; custom un-retraction/prime
G92 E0.0000
G1 X261.06 Y238.94 E0.9535 F1350
G1 X261.06 Y261.06 E1.9069
G1 X238.94 Y261.06 E2.8604
G1 X238.94 Y238.94 E3.8139
G1 X238.364 Y238.364 F6000
G92 E0.0000
G1 X261.636 Y238.364 E1.0031 F1350
G1 X261.636 Y261.636 E2.0063
G1 X238.364 Y261.636 E3.0094
G1 X238.364 Y238.364 E4.0125
; feature outer perimeter
G1 X237.788 Y237.788 F6000
G92 E0.0000
G1 X262.212 Y237.788 E1.0528 F900
G1 X262.212 Y262.212 E2.1056
G1 X237.788 Y262.212 E3.1584
G1 X237.788 Y237.788 E4.2111
; feature solid layer
G1 X260.46500000000003 Y239.286 F6000
G92 E0.0000
G1 X260.714 Y239.535 E0.0152 F1440
G1 X260.714 Y240.35 E0.0503
G1 X259.65 Y239.286 E0.1152
G1 X258.836 Y239.286 E0.1503
G1 X260.714 Y241.164 E0.2648
G1 X260.714 Y241.97899999999998 E0.2999
G1 X258.021 Y239.286 E0.4640
G1 X257.207 Y239.286 E0.4992
G1 X260.714 Y242.793 E0.7130
G1 X260.714 Y243.608 E0.7481
G1 X256.392 Y239.286 E1.0116
G1 X255.578 Y239.286 E1.0467
G1 X260.714 Y244.422 E1.3598
G1 X260.714 Y245.237 E1.3949
G1 X254.763 Y239.286 E1.7577
G1 X253.948 Y239.286 E1.7928
G1 X260.714 Y246.052 E2.2053
G1 X260.714 Y246.86599999999999 E2.2404
G1 X253.13400000000001 Y239.286 E2.7025
G1 X252.31900000000002 Y239.286 E2.7376
G1 X260.714 Y247.68099999999998 E3.2494
G1 X260.714 Y248.495 E3.2845
G1 X251.505 Y239.286 E3.8459
G1 X250.69 Y239.286 E3.8810
G1 X260.714 Y249.31 E4.4921
G1 X260.714 Y250.125 E4.5272
G1 X249.875 Y239.286 E5.1879
G1 X249.061 Y239.286 E5.2230
G1 X260.714 Y250.939 E5.9334
G1 X260.714 Y251.754 E5.9685
G1 X248.246 Y239.286 E6.7286
G1 X247.43200000000002 Y239.286 E6.7637
G1 X260.714 Y252.56799999999998 E7.5734
G1 X260.714 Y253.383 E7.6085
G1 X246.617 Y239.286 E8.4679
G1 X245.802 Y239.286 E8.5030
G1 X260.714 Y254.198 E9.4120
G1 X260.714 Y255.012 E9.4471
G1 X244.988 Y239.286 E10.4058
G1 X244.173 Y239.286 E10.4409
G1 X260.714 Y255.827 E11.4492
G1 X260.714 Y256.641 E11.4844
G1 X243.359 Y239.286 E12.5424
G1 X242.54399999999998 Y239.286 E12.5775
G1 X260.714 Y257.456 E13.6851
G1 X260.714 Y258.27 E13.7202
G1 X241.73 Y239.286 E14.8775
G1 X240.915 Y239.286 E14.9126
G1 X260.714 Y259.085 E16.1196
G1 X260.714 Y259.9 E16.1547
G1 X240.1 Y239.286 E17.4113
G1 X239.286 Y239.286 E17.4464
G1 X260.714 Y260.714 E18.7527
G1 X259.9 Y260.714 E18.7878
G1 X239.286 Y240.1 E20.0445
G1 X239.286 Y240.915 E20.0796
G1 X259.085 Y260.714 E21.2865
G1 X258.27 Y260.714 E21.3216
G1 X239.286 Y241.73 E22.4789
G1 X239.286 Y242.54399999999998 E22.5141
G1 X257.456 Y260.714 E23.6217
G1 X256.641 Y260.714 E23.6568
G1 X239.286 Y243.359 E24.7148
G1 X239.286 Y244.173 E24.7499
G1 X255.827 Y260.714 E25.7583
G1 X255.012 Y260.714 E25.7934
G1 X239.286 Y244.988 E26.7520
G1 X239.286 Y245.802 E26.7872
G1 X254.198 Y260.714 E27.6962
G1 X253.383 Y260.714 E27.7313
G1 X239.286 Y246.617 E28.5907
G1 X239.286 Y247.43200000000002 E28.6258
G1 X252.56799999999998 Y260.714 E29.4355
G1 X251.754 Y260.714 E29.4706
G1 X239.286 Y248.246 E30.2306
G1 X239.286 Y249.061 E30.2658
G1 X250.939 Y260.714 E30.9761
G1 X250.125 Y260.714 E31.0113
G1 X239.286 Y249.875 E31.6720
G1 X239.286 Y250.69 E31.7071
G1 X249.31 Y260.714 E32.3182
G1 X248.495 Y260.714 E32.3533
G1 X239.286 Y251.505 E32.9147
G1 X239.286 Y252.31900000000002 E32.9498
G1 X247.68099999999998 Y260.714 E33.4616
G1 X246.86599999999999 Y260.714 E33.4967
G1 X239.286 Y253.13400000000001 E33.9588
G1 X239.286 Y253.948 E33.9939
G1 X246.052 Y260.714 E34.4064
G1 X245.237 Y260.714 E34.4415
G1 X239.286 Y254.763 E34.8043
G1 X239.286 Y255.577 E34.8394
G1 X244.422 Y260.714 E35.1525
G1 X243.608 Y260.714 E35.1876
G1 X239.286 Y256.392 E35.4511
G1 X239.286 Y257.207 E35.4862
G1 X242.793 Y260.714 E35.7000
G1 X241.97899999999998 Y260.714 E35.7352
G1 X239.286 Y258.021 E35.8993
G1 X239.286 Y258.836 E35.9344
G1 X241.164 Y260.714 E36.0489
G1 X240.35 Y260.714 E36.0841
G1 X239.286 Y259.65 E36.1489
G1 X239.286 Y260.46500000000003 E36.1840
G1 X239.535 Y260.714 E36.1992
G92 E0.0000
G1 E-1 F2400 ; custom retraction
; layer end
G0 Z25
G28 X0 ; home X axis
M106 S0 ; turn off cooling fan
M104 S0 ; turn off extruder
M140 S0 ; turn off bed
M84 ; disable motors
