; generated by PrusaSlicer 2.3.0+win64 on 2021-02-18 at 20:26:38 UTC

; 

; external perimeters extrusion width = 0.45mm
; perimeters extrusion width = 0.45mm
; infill extrusion width = 0.45mm
; solid infill extrusion width = 0.45mm
; top infill extrusion width = 0.40mm
; first layer extrusion width = 0.42mm

M107
M190 S60 ; set bed temperature and wait for it to be reached
G10 S215 ; set temperature
;TYPE:Custom
G28 ; home all axes
;G1 Z5 F5000 ; lift nozzle
G29 S1
G10 S215 ; set temperature
M116 ; wait for temperature to be reached
G21 ; set units to millimeters
G90 ; use absolute coordinates
M82 ; use absolute distances for extrusion
G92 E0
M900 K0.05 ; Filament gcode LA 1.5
M900 K30 ; Filament gcode LA 1.0
;LAYER_CHANGE
;Z:0.35
;HEIGHT:0.35
G1 Z0.350 F7800.000
G1 E-2.00000 F2400.000
G92 E0
G1 X66.318 Y74.649 F7800.000
G1 E2.00000 F2400.000
;TYPE:Skirt
;WIDTH:0.42
G1 F1800.000
G1 X67.415 Y74.027 E2.05696
G1 X68.613 Y73.634 E2.11393
G1 X69.865 Y73.486 E2.17089
G1 X174.987 Y73.485 E6.91896
G1 X176.003 Y73.568 E6.96501
G1 X176.987 Y73.810 E7.01077
G1 X177.925 Y74.209 E7.05682
G1 X178.782 Y74.750 E7.10259
G1 X179.547 Y75.424 E7.14863
G1 X180.194 Y76.212 E7.19468
G1 X180.706 Y77.094 E7.24073
G1 X181.068 Y78.040 E7.28649
G1 X181.249 Y78.847 E7.32385
G1 X181.324 Y79.664 E7.36093
G1 X181.271 Y85.661 E7.63179
G1 X181.066 Y86.628 E7.67644
G1 X180.710 Y87.557 E7.72137
G1 X180.217 Y88.413 E7.76601
G1 X179.597 Y89.183 E7.81066
G1 X79.172 Y189.593 E14.22491
G1 X78.476 Y190.125 E14.26451
G1 X77.712 Y190.556 E14.30411
G1 X76.903 Y190.876 E14.34343
G1 X76.051 Y191.084 E14.38303
G1 X75.073 Y191.174 E14.42740
G1 X69.912 Y191.174 E14.66048
G1 X68.738 Y191.052 E14.71381
G1 X67.607 Y190.714 E14.76713
G1 X66.558 Y190.172 E14.82046
G1 X65.627 Y189.445 E14.87379
G1 X64.786 Y188.473 E14.93187
G1 X64.158 Y187.350 E14.98995
G1 X63.770 Y186.124 E15.04804
G1 X63.636 Y184.845 E15.10612
G1 X63.637 Y79.730 E19.85390
G1 X63.764 Y78.562 E19.90695
G1 X64.104 Y77.438 E19.96000
G1 X64.645 Y76.396 E20.01305
G1 X65.365 Y75.476 E20.06582
G1 X66.272 Y74.688 E20.12007
G1 E18.12007 F2400.000
G92 E0
G1 X71.081 Y80.929 F7800.000
G1 E2.00000 F2400.000
;TYPE:Perimeter
G1 F1800.000
G1 X173.881 Y80.929 E6.64322
G1 X173.881 Y83.730 E6.76971
G1 X73.881 Y83.730 E11.28644
G1 X73.881 Y183.730 E15.80317
G1 X71.081 Y183.730 E15.92966
G1 X71.081 Y80.989 E20.57017
G1 E18.57017 F2400.000
G92 E0
G1 X74.226 Y84.075 F7800.000
G1 E2.00000 F2400.000
G1 F1800.000
G1 X74.226 Y184.075 E6.51673
G1 X70.736 Y184.075 E6.67438
G1 X70.736 Y80.584 E11.34875
G1 X174.226 Y80.584 E16.02313
G1 X174.226 Y84.075 E16.18077
G1 X74.286 Y84.075 E20.69479
G1 X74.571 Y84.420 F7800.000
;TYPE:External perimeter
G1 F1800.000
G1 X74.571 Y184.420 E25.21153
G1 X70.391 Y184.420 E25.40033
G1 X70.391 Y80.240 E30.10586
G1 X174.571 Y80.240 E34.81139
G1 X174.571 Y84.420 E35.00019
G1 X74.631 Y84.420 E39.51421
G1 X74.171 Y84.425 F7800.000
G1 E37.51421 F2400.000
G92 E0
G1 X173.778 Y81.731 F7800.000
G1 E2.00000 F2400.000
;TYPE:Solid infill
;WIDTH:0.420677
G1 F1800.000
G1 X173.234 Y81.188 E2.03478
G1 X172.746 Y81.188 E2.05690
G1 X173.622 Y82.065 E2.11302
G1 X173.622 Y82.554 E2.13514
G1 X172.257 Y81.188 E2.22254
G1 X171.768 Y81.188 E2.24466
G1 X173.622 Y83.042 E2.36334
G1 X173.622 Y83.471 E2.38275
G1 X173.563 Y83.471 E2.38546
G1 X171.279 Y81.188 E2.53158
G1 X170.791 Y81.188 E2.55370
G1 X173.074 Y83.471 E2.69982
G1 X172.585 Y83.471 E2.72194
G1 X170.302 Y81.188 E2.86806
G1 X169.813 Y81.188 E2.89018
G1 X172.096 Y83.471 E3.03630
G1 X171.608 Y83.471 E3.05842
G1 X169.325 Y81.188 E3.20455
G1 X168.836 Y81.188 E3.22666
G1 X171.119 Y83.471 E3.37279
G1 X170.630 Y83.471 E3.39490
G1 X168.347 Y81.188 E3.54103
G1 X167.858 Y81.188 E3.56314
G1 X170.142 Y83.471 E3.70927
G1 X169.653 Y83.471 E3.73139
G1 X167.370 Y81.188 E3.87751
G1 X166.881 Y81.188 E3.89963
G1 X169.164 Y83.471 E4.04575
G1 X168.676 Y83.471 E4.06787
G1 X166.392 Y81.188 E4.21399
G1 X165.904 Y81.188 E4.23611
G1 X168.187 Y83.471 E4.38223
G1 X167.698 Y83.471 E4.40435
G1 X165.415 Y81.188 E4.55047
G1 X164.926 Y81.188 E4.57259
G1 X167.209 Y83.471 E4.71871
G1 X166.721 Y83.471 E4.74083
G1 X164.438 Y81.188 E4.88695
G1 X163.949 Y81.188 E4.90907
G1 X166.232 Y83.471 E5.05519
G1 X165.743 Y83.471 E5.07731
G1 X163.460 Y81.188 E5.22344
G1 X162.971 Y81.188 E5.24555
G1 X165.255 Y83.471 E5.39168
G1 X164.766 Y83.471 E5.41379
G1 X162.483 Y81.188 E5.55992
G1 X161.994 Y81.188 E5.58203
G1 X164.277 Y83.471 E5.72816
G1 X163.788 Y83.471 E5.75028
G1 X161.505 Y81.188 E5.89640
G1 X161.017 Y81.188 E5.91852
G1 X163.300 Y83.471 E6.06464
G1 X162.811 Y83.471 E6.08676
G1 X160.528 Y81.188 E6.23288
G1 X160.039 Y81.188 E6.25500
G1 X162.322 Y83.471 E6.40112
G1 X161.834 Y83.471 E6.42324
G1 X159.551 Y81.188 E6.56936
G1 X159.062 Y81.188 E6.59148
G1 X161.345 Y83.471 E6.73760
G1 X160.856 Y83.471 E6.75972
G1 X158.573 Y81.188 E6.90584
G1 X158.084 Y81.188 E6.92796
G1 X160.368 Y83.471 E7.07408
G1 X159.879 Y83.471 E7.09620
G1 X157.596 Y81.188 E7.24233
G1 X157.107 Y81.188 E7.26444
G1 X159.390 Y83.471 E7.41057
G1 X158.901 Y83.471 E7.43268
G1 X156.618 Y81.188 E7.57881
G1 X156.130 Y81.188 E7.60092
G1 X158.413 Y83.471 E7.74705
G1 X157.924 Y83.471 E7.76916
G1 X155.641 Y81.188 E7.91529
G1 X155.152 Y81.188 E7.93741
G1 X157.435 Y83.471 E8.08353
G1 X156.947 Y83.471 E8.10565
G1 X154.663 Y81.188 E8.25177
G1 X154.175 Y81.188 E8.27389
G1 X156.458 Y83.471 E8.42001
G1 X155.969 Y83.471 E8.44213
G1 X153.686 Y81.188 E8.58825
G1 X153.197 Y81.188 E8.61037
G1 X155.480 Y83.471 E8.75649
G1 X154.992 Y83.471 E8.77861
G1 X152.709 Y81.188 E8.92473
G1 X152.220 Y81.188 E8.94685
G1 X154.503 Y83.471 E9.09297
G1 X154.014 Y83.471 E9.11509
G1 X151.731 Y81.188 E9.26122
G1 X151.243 Y81.188 E9.28333
G1 X153.526 Y83.471 E9.42946
G1 X153.037 Y83.471 E9.45157
G1 X150.754 Y81.188 E9.59770
G1 X150.265 Y81.188 E9.61981
G1 X152.548 Y83.471 E9.76594
G1 X152.060 Y83.471 E9.78805
G1 X149.776 Y81.188 E9.93418
G1 X149.288 Y81.188 E9.95630
G1 X151.571 Y83.471 E10.10242
G1 X151.082 Y83.471 E10.12454
G1 X148.799 Y81.188 E10.27066
G1 X148.310 Y81.188 E10.29278
G1 X150.593 Y83.471 E10.43890
G1 X150.105 Y83.471 E10.46102
G1 X147.822 Y81.188 E10.60714
G1 X147.333 Y81.188 E10.62926
G1 X149.616 Y83.471 E10.77538
G1 X149.127 Y83.471 E10.79750
G1 X146.844 Y81.188 E10.94362
G1 X146.356 Y81.188 E10.96574
G1 X148.639 Y83.471 E11.11186
G1 X148.150 Y83.471 E11.13398
G1 X145.867 Y81.188 E11.28011
G1 X145.378 Y81.188 E11.30222
G1 X147.661 Y83.471 E11.44835
G1 X147.173 Y83.471 E11.47046
G1 X144.889 Y81.188 E11.61659
G1 X144.401 Y81.188 E11.63870
G1 X146.684 Y83.471 E11.78483
G1 X146.195 Y83.471 E11.80694
G1 X143.912 Y81.188 E11.95307
G1 X143.423 Y81.188 E11.97519
G1 X145.706 Y83.471 E12.12131
G1 X145.218 Y83.471 E12.14343
G1 X142.935 Y81.188 E12.28955
G1 X142.446 Y81.188 E12.31167
G1 X144.729 Y83.471 E12.45779
G1 X144.240 Y83.471 E12.47991
G1 X141.957 Y81.188 E12.62603
G1 X141.468 Y81.188 E12.64815
G1 X143.752 Y83.471 E12.79427
G1 X143.263 Y83.471 E12.81639
G1 X140.980 Y81.188 E12.96251
G1 X140.491 Y81.188 E12.98463
G1 X142.774 Y83.471 E13.13075
G1 X142.285 Y83.471 E13.15287
G1 X140.002 Y81.188 E13.29900
G1 X139.514 Y81.188 E13.32111
G1 X141.797 Y83.471 E13.46724
G1 X141.308 Y83.471 E13.48935
G1 X139.025 Y81.188 E13.63548
G1 X138.536 Y81.188 E13.65759
G1 X140.819 Y83.471 E13.80372
G1 X140.331 Y83.471 E13.82583
G1 X138.048 Y81.188 E13.97196
G1 X137.559 Y81.188 E13.99408
G1 X139.842 Y83.471 E14.14020
G1 X139.353 Y83.471 E14.16232
G1 X137.070 Y81.188 E14.30844
G1 X136.581 Y81.188 E14.33056
G1 X138.865 Y83.471 E14.47668
G1 X138.376 Y83.471 E14.49880
G1 X136.093 Y81.188 E14.64492
G1 X135.604 Y81.188 E14.66704
G1 X137.887 Y83.471 E14.81316
G1 X137.398 Y83.471 E14.83528
G1 X135.115 Y81.188 E14.98140
G1 X134.627 Y81.188 E15.00352
G1 X136.910 Y83.471 E15.14964
G1 X136.421 Y83.471 E15.17176
G1 X134.138 Y81.188 E15.31789
G1 X133.649 Y81.188 E15.34000
G1 X135.932 Y83.471 E15.48613
G1 X135.444 Y83.471 E15.50824
G1 X133.160 Y81.188 E15.65437
G1 X132.672 Y81.188 E15.67648
G1 X134.955 Y83.471 E15.82261
G1 X134.466 Y83.471 E15.84472
G1 X132.183 Y81.188 E15.99085
G1 X131.694 Y81.188 E16.01297
G1 X133.978 Y83.471 E16.15909
G1 X133.489 Y83.471 E16.18121
G1 X131.206 Y81.188 E16.32733
G1 X130.717 Y81.188 E16.34945
G1 X133.000 Y83.471 E16.49557
G1 X132.511 Y83.471 E16.51769
G1 X130.228 Y81.188 E16.66381
G1 X129.740 Y81.188 E16.68593
G1 X132.023 Y83.471 E16.83205
G1 X131.534 Y83.471 E16.85417
G1 X129.251 Y81.188 E17.00029
G1 X128.762 Y81.188 E17.02241
G1 X131.045 Y83.471 E17.16853
G1 X130.557 Y83.471 E17.19065
G1 X128.273 Y81.188 E17.33678
G1 X127.785 Y81.188 E17.35889
G1 X130.068 Y83.471 E17.50502
G1 X129.579 Y83.471 E17.52713
G1 X127.296 Y81.188 E17.67326
G1 X126.807 Y81.188 E17.69537
G1 X129.090 Y83.471 E17.84150
G1 X128.602 Y83.471 E17.86361
G1 X126.319 Y81.188 E18.00974
G1 X125.830 Y81.188 E18.03186
G1 X128.113 Y83.471 E18.17798
G1 X127.624 Y83.471 E18.20010
G1 X125.341 Y81.188 E18.34622
G1 X124.853 Y81.188 E18.36834
G1 X127.136 Y83.471 E18.51446
G1 X126.647 Y83.471 E18.53658
G1 X124.364 Y81.188 E18.68270
G1 X123.875 Y81.188 E18.70482
G1 X126.158 Y83.471 E18.85094
G1 X125.670 Y83.471 E18.87306
G1 X123.386 Y81.188 E19.01918
G1 X122.898 Y81.188 E19.04130
G1 X125.181 Y83.471 E19.18742
G1 X124.692 Y83.471 E19.20954
G1 X122.409 Y81.188 E19.35566
G1 X121.920 Y81.188 E19.37778
G1 X124.203 Y83.471 E19.52391
G1 X123.715 Y83.471 E19.54602
G1 X121.432 Y81.188 E19.69215
G1 X120.943 Y81.188 E19.71426
G1 X123.226 Y83.471 E19.86039
G1 X122.737 Y83.471 E19.88250
G1 X120.454 Y81.188 E20.02863
G1 X119.965 Y81.188 E20.05074
G1 X122.249 Y83.471 E20.19687
G1 X121.760 Y83.471 E20.21899
G1 X119.477 Y81.188 E20.36511
G1 X118.988 Y81.188 E20.38723
G1 X121.271 Y83.471 E20.53335
G1 X120.783 Y83.471 E20.55547
G1 X118.499 Y81.188 E20.70159
G1 X118.011 Y81.188 E20.72371
G1 X120.294 Y83.471 E20.86983
G1 X119.805 Y83.471 E20.89195
G1 X117.522 Y81.188 E21.03807
G1 X117.033 Y81.188 E21.06019
G1 X119.316 Y83.471 E21.20631
G1 X118.828 Y83.471 E21.22843
G1 X116.545 Y81.188 E21.37455
G1 X116.056 Y81.188 E21.39667
G1 X118.339 Y83.471 E21.54280
G1 X117.850 Y83.471 E21.56491
G1 X115.567 Y81.188 E21.71104
G1 X115.078 Y81.188 E21.73315
G1 X117.362 Y83.471 E21.87928
G1 X116.873 Y83.471 E21.90139
G1 X114.590 Y81.188 E22.04752
G1 X114.101 Y81.188 E22.06963
G1 X116.384 Y83.471 E22.21576
G1 X115.895 Y83.471 E22.23788
G1 X113.612 Y81.188 E22.38400
G1 X113.124 Y81.188 E22.40612
G1 X115.407 Y83.471 E22.55224
G1 X114.918 Y83.471 E22.57436
G1 X112.635 Y81.188 E22.72048
G1 X112.146 Y81.188 E22.74260
G1 X114.429 Y83.471 E22.88872
G1 X113.941 Y83.471 E22.91084
G1 X111.658 Y81.188 E23.05696
G1 X111.169 Y81.188 E23.07908
G1 X113.452 Y83.471 E23.22520
G1 X112.963 Y83.471 E23.24732
G1 X110.680 Y81.188 E23.39344
G1 X110.191 Y81.188 E23.41556
G1 X112.475 Y83.471 E23.56168
G1 X111.986 Y83.471 E23.58380
G1 X109.703 Y81.188 E23.72993
G1 X109.214 Y81.188 E23.75204
G1 X111.497 Y83.471 E23.89817
G1 X111.008 Y83.471 E23.92028
G1 X108.725 Y81.188 E24.06641
G1 X108.237 Y81.188 E24.08852
G1 X110.520 Y83.471 E24.23465
G1 X110.031 Y83.471 E24.25676
G1 X107.748 Y81.188 E24.40289
G1 X107.259 Y81.188 E24.42501
G1 X109.542 Y83.471 E24.57113
G1 X109.054 Y83.471 E24.59325
G1 X106.770 Y81.188 E24.73937
G1 X106.282 Y81.188 E24.76149
G1 X108.565 Y83.471 E24.90761
G1 X108.076 Y83.471 E24.92973
G1 X105.793 Y81.188 E25.07585
G1 X105.304 Y81.188 E25.09797
G1 X107.587 Y83.471 E25.24409
G1 X107.099 Y83.471 E25.26621
G1 X104.816 Y81.188 E25.41233
G1 X104.327 Y81.188 E25.43445
G1 X106.610 Y83.471 E25.58057
G1 X106.121 Y83.471 E25.60269
G1 X103.838 Y81.188 E25.74882
G1 X103.350 Y81.188 E25.77093
G1 X105.633 Y83.471 E25.91706
G1 X105.144 Y83.471 E25.93917
G1 X102.861 Y81.188 E26.08530
G1 X102.372 Y81.188 E26.10741
G1 X104.655 Y83.471 E26.25354
G1 X104.167 Y83.471 E26.27565
G1 X101.883 Y81.188 E26.42178
G1 X101.395 Y81.188 E26.44389
G1 X103.678 Y83.471 E26.59002
G1 X103.189 Y83.471 E26.61214
G1 X100.906 Y81.188 E26.75826
G1 X100.417 Y81.188 E26.78038
G1 X102.700 Y83.471 E26.92650
G1 X102.212 Y83.471 E26.94862
G1 X99.929 Y81.188 E27.09474
G1 X99.440 Y81.188 E27.11686
G1 X101.723 Y83.471 E27.26298
G1 X101.234 Y83.471 E27.28510
G1 X98.951 Y81.188 E27.43122
G1 X98.463 Y81.188 E27.45334
G1 X100.746 Y83.471 E27.59946
G1 X100.257 Y83.471 E27.62158
G1 X97.974 Y81.188 E27.76770
G1 X97.485 Y81.188 E27.78982
G1 X99.768 Y83.471 E27.93595
G1 X99.280 Y83.471 E27.95806
G1 X96.996 Y81.188 E28.10419
G1 X96.508 Y81.188 E28.12630
G1 X98.791 Y83.471 E28.27243
G1 X98.302 Y83.471 E28.29454
G1 X96.019 Y81.188 E28.44067
G1 X95.530 Y81.188 E28.46278
G1 X97.813 Y83.471 E28.60891
G1 X97.325 Y83.471 E28.63103
G1 X95.042 Y81.188 E28.77715
G1 X94.553 Y81.188 E28.79927
G1 X96.836 Y83.471 E28.94539
G1 X96.347 Y83.471 E28.96751
G1 X94.064 Y81.188 E29.11363
G1 X93.575 Y81.188 E29.13575
G1 X95.859 Y83.471 E29.28187
G1 X95.370 Y83.471 E29.30399
G1 X93.087 Y81.188 E29.45011
G1 X92.598 Y81.188 E29.47223
G1 X94.881 Y83.471 E29.61835
G1 X94.392 Y83.471 E29.64047
G1 X92.109 Y81.188 E29.78659
G1 X91.621 Y81.188 E29.80871
G1 X93.904 Y83.471 E29.95483
G1 X93.415 Y83.471 E29.97695
G1 X91.132 Y81.188 E30.12308
G1 X90.643 Y81.188 E30.14519
G1 X92.926 Y83.471 E30.29132
G1 X92.438 Y83.471 E30.31343
G1 X90.155 Y81.188 E30.45956
G1 X89.666 Y81.188 E30.48167
G1 X91.949 Y83.471 E30.62780
G1 X91.460 Y83.471 E30.64991
G1 X89.177 Y81.188 E30.79604
G1 X88.688 Y81.188 E30.81816
G1 X90.972 Y83.471 E30.96428
G1 X90.483 Y83.471 E30.98640
G1 X88.200 Y81.188 E31.13252
G1 X87.711 Y81.188 E31.15464
G1 X89.994 Y83.471 E31.30076
G1 X89.505 Y83.471 E31.32288
G1 X87.222 Y81.188 E31.46900
G1 X86.734 Y81.188 E31.49112
G1 X89.017 Y83.471 E31.63724
G1 X88.528 Y83.471 E31.65936
G1 X86.245 Y81.188 E31.80548
G1 X85.756 Y81.188 E31.82760
G1 X88.039 Y83.471 E31.97372
G1 X87.551 Y83.471 E31.99584
G1 X85.267 Y81.188 E32.14197
G1 X84.779 Y81.188 E32.16408
G1 X87.062 Y83.471 E32.31021
G1 X86.573 Y83.471 E32.33232
G1 X84.290 Y81.188 E32.47845
G1 X83.801 Y81.188 E32.50056
G1 X86.085 Y83.471 E32.64669
G1 X85.596 Y83.471 E32.66880
G1 X83.313 Y81.188 E32.81493
G1 X82.824 Y81.188 E32.83705
G1 X85.107 Y83.471 E32.98317
G1 X84.618 Y83.471 E33.00529
G1 X82.335 Y81.188 E33.15141
G1 X81.847 Y81.188 E33.17353
G1 X84.130 Y83.471 E33.31965
G1 X83.641 Y83.471 E33.34177
G1 X81.358 Y81.188 E33.48789
G1 X80.869 Y81.188 E33.51001
G1 X83.152 Y83.471 E33.65613
G1 X82.664 Y83.471 E33.67825
G1 X80.380 Y81.188 E33.82437
G1 X79.892 Y81.188 E33.84649
G1 X82.175 Y83.471 E33.99261
G1 X81.686 Y83.471 E34.01473
G1 X79.403 Y81.188 E34.16085
G1 X78.914 Y81.188 E34.18297
G1 X81.197 Y83.471 E34.32910
G1 X80.709 Y83.471 E34.35121
G1 X78.426 Y81.188 E34.49734
G1 X77.937 Y81.188 E34.51945
G1 X80.220 Y83.471 E34.66558
G1 X79.731 Y83.471 E34.68769
G1 X77.448 Y81.188 E34.83382
G1 X76.960 Y81.188 E34.85593
G1 X79.243 Y83.471 E35.00206
G1 X78.754 Y83.471 E35.02418
G1 X76.471 Y81.188 E35.17030
G1 X75.982 Y81.188 E35.19242
G1 X78.265 Y83.471 E35.33854
G1 X77.777 Y83.471 E35.36066
G1 X75.493 Y81.188 E35.50678
G1 X75.005 Y81.188 E35.52890
G1 X77.288 Y83.471 E35.67502
G1 X76.799 Y83.471 E35.69714
G1 X74.516 Y81.188 E35.84326
G1 X74.027 Y81.188 E35.86538
G1 X76.310 Y83.471 E36.01150
G1 X75.822 Y83.471 E36.03362
G1 X73.539 Y81.188 E36.17974
G1 X73.050 Y81.188 E36.20186
G1 X75.333 Y83.471 E36.34799
G1 X74.844 Y83.471 E36.37010
G1 X72.561 Y81.188 E36.51623
G1 X72.072 Y81.188 E36.53834
G1 X74.356 Y83.471 E36.68447
G1 X73.867 Y83.471 E36.70658
G1 X71.584 Y81.188 E36.85271
G1 X71.339 Y81.188 E36.86377
G1 X71.339 Y81.432 E36.87482
G1 X73.622 Y83.715 E37.02095
G1 X73.622 Y84.204 E37.04307
G1 X71.339 Y81.921 E37.18919
G1 X71.339 Y82.410 E37.21131
G1 X73.622 Y84.693 E37.35743
G1 X73.622 Y85.182 E37.37955
G1 X71.339 Y82.898 E37.52567
G1 X71.339 Y83.387 E37.54779
G1 X73.622 Y85.670 E37.69391
G1 X73.622 Y86.159 E37.71603
G1 X71.339 Y83.876 E37.86215
G1 X71.339 Y84.365 E37.88427
G1 X73.622 Y86.648 E38.03039
G1 X73.622 Y87.136 E38.05251
G1 X71.339 Y84.853 E38.19863
G1 X71.339 Y85.342 E38.22075
G1 X73.622 Y87.625 E38.36688
G1 X73.622 Y88.114 E38.38899
G1 X71.339 Y85.831 E38.53512
G1 X71.339 Y86.319 E38.55723
