; G-Code generated by Simplify3D(R) Version 4.1.2
; Mar 1, 2021 at 10:51:58 PM
; Settings Summary
;   processName,Process1
;   applyToModels,plaque support 4mm
;   profileName,BLV mgn Cube-  Simplify3D Profile
;   profileVersion,2019-01-29 15:16:26
;   baseProfile,Anet A8
;   printMaterial,PLA
;   printQuality,Medium
;   printExtruders,
;   extruderName,Primary Extruder
;   extruderToolheadNumber,0
;   extruderDiameter,0.4
;   extruderAutoWidth,1
;   extruderWidth,0.48
;   extrusionMultiplier,1
;   extruderUseRetract,1
;   extruderRetractionDistance,5.5
;   extruderExtraRestartDistance,-0.1
;   extruderRetractionZLift,0
;   extruderRetractionSpeed,5100
;   extruderUseCoasting,1
;   extruderCoastingDistance,0.2
;   extruderUseWipe,1
;   extruderWipeDistance,4
;   primaryExtruder,0
;   layerHeight,0.2
;   topSolidLayers,3
;   bottomSolidLayers,3
;   perimeterOutlines,3
;   printPerimetersInsideOut,0
;   startPointOption,3
;   startPointOriginX,0
;   startPointOriginY,500
;   sequentialIslands,0
;   spiralVaseMode,0
;   firstLayerHeightPercentage,150
;   firstLayerWidthPercentage,100
;   firstLayerUnderspeed,0.5
;   useRaft,0
;   raftExtruder,0
;   raftTopLayers,3
;   raftBaseLayers,2
;   raftOffset,3
;   raftSeparationDistance,0.14
;   raftTopInfill,100
;   aboveRaftSpeedMultiplier,0.3
;   useSkirt,1
;   skirtExtruder,0
;   skirtLayers,1
;   skirtOutlines,2
;   skirtOffset,6
;   usePrimePillar,0
;   primePillarExtruder,999
;   primePillarWidth,12
;   primePillarLocation,7
;   primePillarSpeedMultiplier,1
;   useOozeShield,0
;   oozeShieldExtruder,999
;   oozeShieldOffset,2
;   oozeShieldOutlines,1
;   oozeShieldSidewallShape,1
;   oozeShieldSidewallAngle,30
;   oozeShieldSpeedMultiplier,1
;   infillExtruder,0
;   internalInfillPattern,Rectilinear
;   externalInfillPattern,Rectilinear
;   infillPercentage,15
;   outlineOverlapPercentage,15
;   infillExtrusionWidthPercentage,100
;   minInfillLength,5
;   infillLayerInterval,1
;   internalInfillAngles,45,-45
;   overlapInternalInfillAngles,0
;   externalInfillAngles,45,-45
;   generateSupport,1
;   supportExtruder,0
;   supportInfillPercentage,30
;   supportExtraInflation,0
;   supportBaseLayers,0
;   denseSupportExtruder,0
;   denseSupportLayers,0
;   denseSupportInfillPercentage,70
;   supportLayerInterval,1
;   supportHorizontalPartOffset,0.4
;   supportUpperSeparationLayers,1
;   supportLowerSeparationLayers,1
;   supportType,0
;   supportGridSpacing,4.5
;   maxOverhangAngle,45
;   supportAngles,45,-45
;   temperatureName,Primary Extruder,Heated Bed
;   temperatureNumber,0,0
;   temperatureSetpointCount,2,1
;   temperatureSetpointLayers,1,2,1
;   temperatureSetpointTemperatures,215,210,70
;   temperatureStabilizeAtStartup,1,1
;   temperatureHeatedBed,0,1
;   fanLayers,1,2
;   fanSpeeds,0,100
;   blipFanToFullPower,1
;   adjustSpeedForCooling,1
;   minSpeedLayerTime,15
;   minCoolingSpeedSlowdown,20
;   increaseFanForCooling,0
;   minFanLayerTime,45
;   maxCoolingFanSpeed,100
;   increaseFanForBridging,1
;   bridgingFanSpeed,100
;   use5D,1
;   relativeEdistances,0
;   allowEaxisZeroing,1
;   independentExtruderAxes,0
;   includeM10123,0
;   stickySupport,1
;   applyToolheadOffsets,0
;   gcodeXoffset,24
;   gcodeYoffset,22
;   gcodeZoffset,0
;   overrideMachineDefinition,1
;   machineTypeOverride,0
;   strokeXoverride,310
;   strokeYoverride,310
;   strokeZoverride,334
;   originOffsetXoverride,0
;   originOffsetYoverride,0
;   originOffsetZoverride,0
;   homeXdirOverride,-1
;   homeYdirOverride,-1
;   homeZdirOverride,-1
;   flipXoverride,1
;   flipYoverride,-1
;   flipZoverride,1
;   toolheadOffsets,0,0|0,0|0,0|0,0|0,0|0,0
;   overrideFirmwareConfiguration,1
;   firmwareTypeOverride,RepRap (Marlin/Repetier/Sprinter)
;   GPXconfigOverride,r2
;   baudRateOverride,115200
;   overridePrinterModels,1
;   printerModelsOverride,Blvfull.stl
;   startingGcode,M291 P"Homing all axis" R"Printing.." S1 T2,G21		; metric values,G28		; home all,M98 P"/macros/load_meshbed"	; load mesh bed corresponding to the temp,M98 P"/macros/set_baby_step"	; set baby step,M98 P"/macros/purge_and_prime"; purge and do the prime line,,G92 E0 F100		; reset extruder,G1 Z10 F3000 		; move z up little to prevent scratching of surface,G92 E0 		; reset extruder,M291 P"Printing started !" R"Printing.." S1 T3
;   layerChangeGcode,
;   retractionGcode,
;   toolChangeGcode,
;   endingGcode,M104 S0 ; turn off extruder,M140 S0 ; turn off bed,M98 P"/macros/remove_baby_step"	; unset baby step,M98 P"/macros/rise30mm",G1 X0 Y300 F1000 ; prepare for part removal,M84 ; disable motors,M106 S0 ;turn off part cooling fan,;M81 ; shutdown,; play song,M300 S294 P200 ;D4: 294,M300 S588 P200 ;D5: 588,M300 S440 P200 ;A4: 440,M300 S392 P200 ;G4: 392,M300 S784 P200 ;G5: 784,M300 S440 P200 ;A4: 440,M300 S740 P200 ;F#5: 740,M300 S440 P200 ;A4: 440,M291 P"Printing finished !" R"Printing.." S1 T0,
;   exportFileFormat,gcode
;   celebration,0
;   celebrationSong,Star Wars
;   postProcessing,
;   defaultSpeed,2400
;   outlineUnderspeed,0.66
;   solidInfillUnderspeed,0.8
;   supportUnderspeed,0.8
;   rapidXYspeed,7200
;   rapidZspeed,1002
;   minBridgingArea,50
;   bridgingExtraInflation,0
;   bridgingExtrusionMultiplier,1
;   bridgingSpeedMultiplier,1
;   useFixedBridgingAngle,0
;   fixedBridgingAngle,0
;   applyBridgingToPerimeters,1
;   filamentDiameters,1.75|1.75|1.75|1.75|1.75|1.75
;   filamentPricesPerKg,110|110|110|110|110|110
;   filamentDensities,1.25|1.25|1.25|1.25|1.25|1.25
;   useMinPrintHeight,0
;   minPrintHeight,0
;   useMaxPrintHeight,0
;   maxPrintHeight,0
;   useDiaphragm,0
;   diaphragmLayerInterval,20
;   robustSlicing,1
;   mergeAllIntoSolid,0
;   onlyRetractWhenCrossingOutline,0
;   retractBetweenLayers,1
;   useRetractionMinTravel,1
;   retractionMinTravel,3
;   retractWhileWiping,1
;   onlyWipeOutlines,1
;   avoidCrossingOutline,1
;   maxMovementDetourFactor,3
;   toolChangeRetractionDistance,12
;   toolChangeExtraRestartDistance,-0.5
;   toolChangeRetractionSpeed,600
;   externalThinWallType,0
;   internalThinWallType,2
;   thinWallAllowedOverlapPercentage,15
;   singleExtrusionMinLength,1
;   singleExtrusionMinPrintingWidthPercentage,50
;   singleExtrusionMaxPrintingWidthPercentage,200
;   singleExtrusionEndpointExtension,0.2
;   horizontalSizeCompensation,0
G90
M82
M106 S0
M140 S70
M190 S70
M104 S215 T0
M109 S215 T0
M291 P"Homing all axis" R"Printing.." S1 T2
G21		; metric values
G28		; home all
M98 P"/macros/load_meshbed"	; load mesh bed corresponding to the temp
M98 P"/macros/set_baby_step"	; set baby step
M98 P"/macros/purge_and_prime"; purge and do the prime line
G92 E0 F100		; reset extruder
G1 Z10 F3000 		; move z up little to prevent scratching of surface
G92 E0 		; reset extruder
M291 P"Printing started !" R"Printing.." S1 T3
; process Process1
; layer 1, Z = 0.300
T0
G92 E0.0000
G1 E-5.5000 F5100
; feature skirt
; tool H0.300 W0.480
G1 Z0.300 F1002
G1 X174.257 Y182.786 F7200
G1 E-0.1000 F5100
G92 E0.0000
G1 X173.255 Y182.320 E0.0662 F1200
G1 X172.957 Y182.163 E0.0863
G1 X172.385 Y181.824 E0.1261
G1 X172.195 Y181.704 E0.1396
G1 X171.647 Y181.327 E0.1794
G1 X171.379 Y181.123 E0.1996
G1 X170.492 Y180.373 E0.2691
G1 X170.169 Y180.061 E0.2960
G1 X169.390 Y179.199 E0.3655
G1 X169.177 Y178.939 E0.3857
G1 X168.783 Y178.403 E0.4255
G1 X168.656 Y178.218 E0.4390
G1 X168.298 Y177.657 E0.4788
G1 X168.131 Y177.365 E0.4989
G1 X167.607 Y176.328 E0.5685
G1 X167.432 Y175.915 E0.5954
G1 X167.051 Y174.818 E0.6649
G1 X166.956 Y174.494 E0.6851
G1 X166.789 Y173.792 E0.7283
G1 X166.728 Y173.461 E0.7484
G1 X166.580 Y172.366 E0.8146
G1 X166.552 Y172.030 E0.8348
G1 X166.532 Y171.421 E0.8712
G1 X166.530 Y171.309 E0.8779
G1 X166.530 Y157.866 E1.6828
G1 X170.466 Y153.930 E2.0160
G1 X187.534 Y153.930 E3.0378
G1 X191.470 Y157.866 E3.3711
G1 X191.470 Y171.366 E4.1793
G1 X191.462 Y171.590 E4.1927
G1 X191.392 Y172.637 E4.2555
G1 X191.353 Y172.971 E4.2757
G1 X191.243 Y173.627 E4.3155
G1 X191.198 Y173.847 E4.3290
G1 X191.044 Y174.494 E4.3688
G1 X190.949 Y174.817 E4.3890
G1 X190.568 Y175.915 E4.4585
G1 X190.393 Y176.328 E4.4854
G1 X189.844 Y177.415 E4.5583
G1 X189.615 Y177.801 E4.5852
G1 X188.957 Y178.759 E4.6547
G1 X188.753 Y179.027 E4.6749
G1 X188.324 Y179.535 E4.7147
G1 X188.173 Y179.701 E4.7281
G1 X187.711 Y180.179 E4.7679
G1 X187.465 Y180.409 E4.7881
G1 X186.621 Y181.123 E4.8543
G1 X186.353 Y181.327 E4.8744
G1 X185.758 Y181.735 E4.9176
G1 X185.471 Y181.912 E4.9378
G1 X184.502 Y182.443 E5.0040
G1 X184.199 Y182.590 E5.0241
G1 X183.535 Y182.872 E5.0673
G1 X183.218 Y182.987 E5.0875
G1 X182.163 Y183.315 E5.1536
G1 X181.837 Y183.398 E5.1738
G1 X181.130 Y183.542 E5.2170
G1 X180.797 Y183.592 E5.2372
G1 X179.697 Y183.703 E5.3033
G1 X179.361 Y183.720 E5.3235
G1 X178.639 Y183.720 E5.3667
G1 X178.303 Y183.703 E5.3869
G1 X177.147 Y183.587 E5.4564
G1 X176.704 Y183.512 E5.4833
G1 X175.575 Y183.243 E5.5528
G1 X175.251 Y183.149 E5.5730
G1 X174.570 Y182.912 E5.6161
G1 X174.257 Y182.786 E5.6363
G1 X174.449 Y182.345 F7200
G92 E0.0000
G1 X173.468 Y181.890 E0.0647 F1200
G1 X173.191 Y181.744 E0.0835
G1 X172.636 Y181.416 E0.1221
G1 X172.460 Y181.303 E0.1345
G1 X171.929 Y180.938 E0.1732
G1 X171.680 Y180.749 E0.1919
G1 X170.815 Y180.017 E0.2597
G1 X170.515 Y179.727 E0.2847
G1 X169.755 Y178.886 E0.3526
G1 X169.556 Y178.644 E0.3713
G1 X169.174 Y178.125 E0.4099
G1 X169.056 Y177.953 E0.4224
G1 X168.709 Y177.409 E0.4610
G1 X168.554 Y177.137 E0.4797
G1 X168.043 Y176.126 E0.5476
G1 X167.880 Y175.742 E0.5726
G1 X167.508 Y174.671 E0.6404
G1 X167.421 Y174.371 E0.6591
G1 X167.259 Y173.693 E0.7009
G1 X167.202 Y173.385 E0.7196
G1 X167.058 Y172.314 E0.7843
G1 X167.032 Y172.002 E0.8031
G1 X167.012 Y171.409 E0.8386
G1 X167.010 Y171.305 E0.8448
G1 X167.010 Y158.065 E1.6375
G1 X170.665 Y154.410 E1.9470
G1 X187.335 Y154.410 E2.9449
G1 X190.990 Y158.065 E3.2544
G1 X190.990 Y171.357 E4.0502
G1 X190.983 Y171.566 E4.0627
G1 X190.914 Y172.593 E4.1243
G1 X190.878 Y172.903 E4.1430
G1 X190.771 Y173.539 E4.1816
G1 X190.729 Y173.744 E4.1941
G1 X190.579 Y174.371 E4.2327
G1 X190.492 Y174.671 E4.2515
G1 X190.120 Y175.742 E4.3193
G1 X189.957 Y176.126 E4.3443
G1 X189.423 Y177.184 E4.4153
G1 X189.210 Y177.543 E4.4402
G1 X188.569 Y178.477 E4.5081
G1 X188.379 Y178.726 E4.5268
G1 X187.962 Y179.219 E4.5654
G1 X187.822 Y179.373 E4.5779
G1 X187.374 Y179.837 E4.6165
G1 X187.145 Y180.051 E4.6353
G1 X186.320 Y180.749 E4.7000
G1 X186.071 Y180.938 E4.7187
G1 X185.497 Y181.333 E4.7604
G1 X185.230 Y181.497 E4.7792
G1 X184.282 Y182.016 E4.8439
G1 X184.000 Y182.153 E4.8626
G1 X183.359 Y182.425 E4.9044
G1 X183.065 Y182.532 E4.9231
G1 X182.032 Y182.853 E4.9878
G1 X181.729 Y182.930 E5.0065
G1 X181.046 Y183.069 E5.0483
G1 X180.737 Y183.116 E5.0670
G1 X179.661 Y183.224 E5.1317
G1 X179.349 Y183.240 E5.1505
G1 X178.651 Y183.240 E5.1922
G1 X178.339 Y183.224 E5.2109
G1 X177.211 Y183.111 E5.2788
G1 X176.800 Y183.041 E5.3038
G1 X175.698 Y182.779 E5.3716
G1 X175.397 Y182.691 E5.3903
G1 X174.739 Y182.462 E5.4321
G1 X174.449 Y182.345 E5.4508
G92 E0.0000
G1 E-5.5000 F5100
; feature outer perimeter
G1 X177.020 Y176.395 F7200
G1 X176.681 Y176.251
G1 E-0.1000 F5100
G92 E0.0000
G1 X176.352 Y176.085 E0.0221 F792
G1 X176.035 Y175.897 E0.0441
G1 X175.732 Y175.689 E0.0661
G1 X175.443 Y175.461 E0.0882
G1 X175.170 Y175.214 E0.1102
G1 X174.914 Y174.949 E0.1323
G1 X174.676 Y174.668 E0.1543
G1 X174.457 Y174.371 E0.1764
G1 X174.259 Y174.061 E0.1984
G1 X174.082 Y173.738 E0.2205
G1 X173.927 Y173.404 E0.2425
G1 X173.795 Y173.061 E0.2645
G1 X173.686 Y172.709 E0.2866
G1 X173.601 Y172.351 E0.3086
G1 X173.539 Y171.988 E0.3307
G1 X173.502 Y171.621 E0.3527
G1 X173.490 Y171.249 E0.3750
G1 X173.490 Y160.890 E0.9952
G1 X184.510 Y160.890 E1.6550
G1 X184.510 Y171.249 E2.2752
G1 X184.498 Y171.621 E2.2975
G1 X184.461 Y171.987 E2.3195
G1 X184.399 Y172.351 E2.3416
G1 X184.314 Y172.709 E2.3636
G1 X184.205 Y173.061 E2.3856
G1 X184.073 Y173.404 E2.4077
G1 X183.918 Y173.738 E2.4297
G1 X183.741 Y174.061 E2.4518
G1 X183.543 Y174.371 E2.4738
G1 X183.324 Y174.668 E2.4959
G1 X183.086 Y174.949 E2.5179
G1 X182.830 Y175.214 E2.5400
G1 X182.557 Y175.461 E2.5620
G1 X182.268 Y175.689 E2.5840
G1 X181.965 Y175.897 E2.6061
G1 X181.648 Y176.085 E2.6281
G1 X181.319 Y176.251 E2.6502
G1 X180.980 Y176.395 E2.6722
G1 X180.632 Y176.516 E2.6943
G1 X180.277 Y176.613 E2.7163
G1 X179.917 Y176.686 E2.7384
G1 X179.551 Y176.735 E2.7604
G1 X179.184 Y176.760 E2.7824
G1 X178.816 Y176.760 E2.8045
G1 X178.449 Y176.735 E2.8265
G1 X178.083 Y176.686 E2.8486
G1 X177.723 Y176.613 E2.8706
G1 X177.368 Y176.516 E2.8927
G1 X177.020 Y176.395 E2.9147
G1 X176.865 Y176.329 E2.9248
G1 X176.681 Y176.251 F792
G1 X176.352 Y176.085 F792
G1 X176.035 Y175.897
G1 X175.732 Y175.689
G1 X175.443 Y175.461
G1 X175.170 Y175.214
G1 X174.914 Y174.949
G1 X174.676 Y174.668
G1 X174.457 Y174.371
G1 X174.259 Y174.061
G1 X174.082 Y173.738
G1 X173.949 Y173.450
; feature inner perimeter
G1 X174.369 Y173.217 F7200
G92 E0.0000
G1 X174.249 Y172.903 E0.0201 F996
G1 X174.149 Y172.582 E0.0402
G1 X174.071 Y172.255 E0.0604
G1 X174.015 Y171.924 E0.0805
G1 X173.982 Y171.589 E0.1006
G1 X173.970 Y171.241 E0.1214
G1 X173.970 Y161.370 E0.7124
G1 X184.030 Y161.370 E1.3147
G1 X184.030 Y171.241 E1.9057
G1 X184.018 Y171.589 E1.9266
G1 X183.985 Y171.924 E1.9467
G1 X183.929 Y172.255 E1.9668
G1 X183.851 Y172.582 E1.9869
G1 X183.751 Y172.903 E2.0070
G1 X183.631 Y173.217 E2.0272
G1 X183.489 Y173.522 E2.0473
G1 X183.327 Y173.816 E2.0674
G1 X183.147 Y174.100 E2.0875
G1 X182.947 Y174.370 E2.1077
G1 X182.730 Y174.627 E2.1278
G1 X182.496 Y174.869 E2.1479
G1 X182.247 Y175.094 E2.1680
G1 X181.983 Y175.302 E2.1882
G1 X181.706 Y175.493 E2.2083
G1 X181.417 Y175.664 E2.2284
G1 X181.117 Y175.816 E2.2485
G1 X180.808 Y175.947 E2.2687
G1 X180.490 Y176.057 E2.2888
G1 X180.166 Y176.146 E2.3089
G1 X179.837 Y176.213 E2.3290
G1 X179.503 Y176.258 E2.3491
G1 X179.168 Y176.280 E2.3693
G1 X178.832 Y176.280 E2.3894
G1 X178.497 Y176.258 E2.4095
G1 X178.163 Y176.213 E2.4296
G1 X177.834 Y176.146 E2.4497
G1 X177.510 Y176.057 E2.4699
G1 X177.192 Y175.947 E2.4900
G1 X176.883 Y175.815 E2.5101
G1 X176.583 Y175.664 E2.5303
G1 X176.294 Y175.493 E2.5504
G1 X176.017 Y175.302 E2.5705
G1 X175.753 Y175.094 E2.5906
G1 X175.503 Y174.869 E2.6108
G1 X175.270 Y174.627 E2.6309
G1 X175.053 Y174.370 E2.6510
G1 X174.853 Y174.100 E2.6711
G1 X174.673 Y173.817 E2.6912
G1 X174.511 Y173.522 E2.7114
G1 X174.454 Y173.398 E2.7195
G1 X174.369 Y173.217 F996
G92 E0.0000
G1 E-5.5000 F5100
G1 X174.750 Y168.722 F7200
G1 E-0.1000 F5100
G92 E0.0000
G1 X174.450 Y168.640 E0.0186 F996
G1 X174.450 Y161.850 E0.4251
G1 X183.550 Y161.850 E0.9699
G1 X183.550 Y168.640 E1.3764
G1 X183.250 Y168.722 E1.3950
G1 X183.145 Y168.545 E1.4074
G1 X182.907 Y168.212 E1.4319
G1 X182.643 Y167.900 E1.4564
G1 X182.353 Y167.611 E1.4809
G1 X182.041 Y167.346 E1.5054
G1 X181.708 Y167.108 E1.5299
G1 X181.356 Y166.899 E1.5544
G1 X180.989 Y166.719 E1.5789
G1 X180.608 Y166.570 E1.6034
G1 X180.214 Y166.453 E1.6280
G1 X179.802 Y166.368 E1.6532
G1 X179.409 Y166.319 E1.6768
G1 X179.000 Y166.302 E1.7014
G1 X178.591 Y166.319 E1.7259
G1 X178.185 Y166.370 E1.7503
G1 X177.785 Y166.454 E1.7748
G1 X177.392 Y166.570 E1.7993
G1 X177.011 Y166.719 E1.8238
G1 X176.644 Y166.899 E1.8483
G1 X176.292 Y167.108 E1.8728
G1 X175.959 Y167.346 E1.8973
G1 X175.647 Y167.611 E1.9218
G1 X175.357 Y167.900 E1.9463
G1 X175.093 Y168.212 E1.9708
G1 X174.855 Y168.545 E1.9953
G1 X174.852 Y168.550 E1.9957
G1 X174.750 Y168.722 F996
; feature outer perimeter
G1 X175.491 Y169.354 F7200
G92 E0.0000
G1 X175.346 Y169.650 E0.0197 F792
