; generated by PrusaSlicer 2.3.0+win64 on 2021-02-22 at 22:05:39 UTC

; 

; external perimeters extrusion width = 0.45mm
; perimeters extrusion width = 0.45mm
; infill extrusion width = 0.45mm
; solid infill extrusion width = 0.45mm
; top infill extrusion width = 0.40mm
; first layer extrusion width = 0.42mm

M107
;TYPE:Custom
G90 ; use absolute coordinates
M83 ; extruder relative mode
M104 S170 ; set extruder temp for bed leveling
M140 S60 ; set bed temp
M109 R170 ; wait for bed leveling extruder temp
M190 S60 ; wait for bed temp
G28 ; home all without mesh bed level
G29 S1 ; mesh bed leveling 
M104 S215 ; set extruder temp
G90 ; use absolute coordinates
G92 E0.0
G0 X20 Y23 Z25 F4800
G1 Z3 F720
M109 S215 ; wait for extruder temp
M290 R0 S-0.20

M98 P"/macros/purge_and_prime"

G92 E0.0

;M221 S95 ; set flow
G21 ; set units to millimeters
G90 ; use absolute coordinates
M82 ; use absolute distances for extrusion
G92 E0
M900 K0.05 ; Filament gcode LA 1.5
M900 K30 ; Filament gcode LA 1.0
;LAYER_CHANGE
;Z:0.25
;HEIGHT:0.25
G1 Z0.250 F7800.000
;AFTER_LAYER_CHANGE
;0.25
G1 E-2.00000 F2400.000
G92 E0
G1 X34.775 Y43.212 F7800.000
G1 E2.00000 F2400.000
;TYPE:Skirt
;WIDTH:0.42
G1 F1800.000
G1 X35.857 Y42.249 E2.04967
G1 X36.670 Y41.763 E2.08211
G1 X37.551 Y41.401 E2.11476
G1 X38.471 Y41.176 E2.14720
G1 X39.413 Y41.090 E2.17964
G1 X103.474 Y41.089 E4.37499
G1 X104.829 Y41.236 E4.42169
G1 X106.121 Y41.668 E4.46838
G1 X107.292 Y42.365 E4.51508
G1 X108.287 Y43.296 E4.56177
G1 X155.955 Y101.507 E7.14016
G1 X156.785 Y102.828 E7.19364
G1 X157.224 Y104.098 E7.23970
G1 X157.387 Y105.439 E7.28597
G1 X157.373 Y142.885 E8.56926
G1 X157.260 Y143.725 E8.59829
G1 X157.036 Y144.542 E8.62732
G1 X156.706 Y145.322 E8.65635
G1 X156.275 Y146.051 E8.68538
G1 X155.751 Y146.717 E8.71441
G1 X155.143 Y147.307 E8.74344
G1 X154.468 Y147.808 E8.77226
G1 X153.726 Y148.218 E8.80129
G1 X152.511 Y148.645 E8.84544
G1 X151.235 Y148.818 E8.88958
G1 X136.009 Y148.822 E9.41138
G1 X134.593 Y148.660 E9.46019
G1 X133.250 Y148.187 E9.50901
G1 X36.315 Y92.955 E13.33235
G1 X35.525 Y92.411 E13.36522
G1 X34.826 Y91.755 E13.39808
G1 X34.230 Y90.995 E13.43116
G1 X33.758 Y90.160 E13.46403
G1 X33.317 Y88.884 E13.51030
G1 X33.155 Y87.544 E13.55657
G1 X33.161 Y47.175 E14.94000
G1 X33.389 Y45.744 E14.98967
G1 X33.938 Y44.396 E15.03955
G1 X34.740 Y43.261 E15.08716
G1 E13.08716 F2400.000
G92 E0
G1 X40.664 Y48.598 F7800.000
G1 E2.00000 F2400.000
;TYPE:Perimeter
G1 F1800.000
G1 X102.799 Y48.598 E4.12935
G1 X135.352 Y106.673 E6.41091
G1 X149.878 Y106.673 E6.90874
G1 X149.878 Y141.313 E8.09583
G1 X136.324 Y141.313 E8.56035
G1 X40.664 Y86.791 E12.33368
G1 X40.664 Y48.658 E13.64050
G1 E11.64050 F2400.000
G92 E0
G1 X135.566 Y106.307 F7800.000
G1 E2.00000 F2400.000
G1 F1800.000
G1 X150.245 Y106.307 E2.50303
G1 X150.245 Y141.679 E3.71523
G1 X136.227 Y141.679 E4.19563
G1 X40.297 Y87.004 E7.97958
G1 X40.297 Y48.232 E9.30831
G1 X103.013 Y48.232 E11.45757
G1 X135.537 Y106.254 E13.73707
G1 X135.781 Y105.940 F7800.000
;TYPE:External perimeter
G1 F1800.000
G1 X150.611 Y105.940 E14.24530
G1 X150.611 Y142.045 E15.48261
G1 X136.130 Y142.045 E15.97889
G1 X39.931 Y87.217 E19.77346
G1 X39.931 Y47.865 E21.12204
G1 X103.228 Y47.865 E23.29121
G1 X135.751 Y105.888 E25.57071
G1 X135.915 Y106.317 F7800.000
G1 E23.57071 F2400.000
G92 E0
G1 X103.689 Y50.411 F7800.000
G1 E2.00000 F2400.000
;TYPE:Solid infill
;WIDTH:0.420166
G1 F1800.000
G1 X102.150 Y48.873 E2.07459
G1 X101.632 Y48.873 E2.09236
G1 X103.920 Y51.161 E2.20329
G1 X104.581 Y52.340 E2.24965
G1 X101.114 Y48.873 E2.41777
G1 X100.595 Y48.873 E2.43554
G1 X105.242 Y53.520 E2.66084
G1 X105.903 Y54.699 E2.70720
G1 X100.077 Y48.873 E2.98970
G1 X99.559 Y48.873 E3.00747
G1 X106.564 Y55.879 E3.34715
G1 X107.226 Y57.058 E3.39351
G1 X99.040 Y48.873 E3.79038
G1 X98.522 Y48.873 E3.80815
G1 X107.887 Y58.237 E4.26221
G1 X108.548 Y59.417 E4.30857
G1 X98.004 Y48.873 E4.81982
G1 X97.485 Y48.873 E4.83759
G1 X109.209 Y60.596 E5.40602
G1 X109.870 Y61.776 E5.45238
G1 X96.967 Y48.873 E6.07801
G1 X96.449 Y48.873 E6.09578
G1 X110.531 Y62.955 E6.77859
G1 X111.192 Y64.135 E6.82495
G1 X95.930 Y48.873 E7.56495
G1 X95.412 Y48.873 E7.58272
G1 X111.854 Y65.314 E8.37991
G1 X112.515 Y66.494 E8.42627
G1 X94.894 Y48.873 E9.28065
G1 X94.375 Y48.873 E9.29842
G1 X113.176 Y67.673 E10.20998
G1 X113.837 Y68.853 E10.25634
G1 X93.857 Y48.873 E11.22510
G1 X93.339 Y48.873 E11.24287
G1 X114.498 Y70.032 E12.26881
G1 X115.159 Y71.212 E12.31517
G1 X92.821 Y48.873 E13.39830
G1 X92.302 Y48.873 E13.41607
G1 X115.820 Y72.391 E14.55639
G1 X116.481 Y73.570 E14.60275
G1 X91.784 Y48.873 E15.80026
G1 X91.266 Y48.873 E15.81803
G1 X117.143 Y74.750 E17.07273
G1 X117.804 Y75.929 E17.11908
G1 X90.747 Y48.873 E18.43097
G1 X90.229 Y48.873 E18.44874
G1 X118.465 Y77.109 E19.81782
G1 X119.126 Y78.288 E19.86417
G1 X89.711 Y48.873 E21.29044
G1 X89.192 Y48.873 E21.30821
G1 X119.787 Y79.468 E22.79166
G1 X120.448 Y80.647 E22.83802
G1 X88.674 Y48.873 E24.37865
G1 X88.156 Y48.873 E24.39643
G1 X121.109 Y81.827 E25.99425
G1 X121.770 Y83.006 E26.04061
G1 X87.637 Y48.873 E27.69563
G1 X87.119 Y48.873 E27.71340
G1 X122.432 Y84.186 E29.42560
G1 X123.093 Y85.365 E29.47196
G1 X86.601 Y48.873 E31.24135
G1 X86.082 Y48.873 E31.25912
G1 X123.754 Y86.545 E33.08570
G1 X124.415 Y87.724 E33.13206
G1 X85.564 Y48.873 E35.01583
G1 X85.046 Y48.873 E35.03360
G1 X125.076 Y88.903 E36.97456
G1 X125.737 Y90.083 E37.02092
G1 X84.527 Y48.873 E39.01907
G1 X84.009 Y48.873 E39.03684
G1 X126.398 Y91.262 E41.09217
G1 X127.059 Y92.442 E41.13853
G1 X83.491 Y48.873 E43.25105
G1 X82.972 Y48.873 E43.26882
G1 X127.721 Y93.621 E45.43853
G1 X128.382 Y94.801 E45.48489
G1 X82.454 Y48.873 E47.71179
G1 X81.936 Y48.873 E47.72956
G1 X129.043 Y95.980 E50.01365
G1 X129.704 Y97.160 E50.06001
G1 X81.417 Y48.873 E52.40129
G1 X80.899 Y48.873 E52.41906
G1 X130.365 Y98.339 E54.81752
G1 X131.026 Y99.519 E54.86388
G1 X80.381 Y48.873 E57.31953
G1 X79.862 Y48.873 E57.33730
G1 X131.687 Y100.698 E59.85015
G1 X132.348 Y101.877 E59.89650
G1 X79.344 Y48.873 E62.46653
G1 X78.826 Y48.873 E62.48431
G1 X133.010 Y103.057 E65.11152
G1 X133.671 Y104.236 E65.15788
G1 X78.307 Y48.873 E67.84229
G1 X77.789 Y48.873 E67.86006
G1 X134.762 Y105.846 E70.62251
G1 E68.62251 F2400.000
G92 E0
G1 X149.176 Y106.783 F7800.000
G1 E2.00000 F2400.000
G1 F1800.000
G1 X149.604 Y107.211 E2.02075
G1 X149.604 Y107.729 E2.03852
G1 X148.822 Y106.948 E2.07641
G1 X148.304 Y106.948 E2.09418
G1 X149.604 Y108.248 E2.15720
G1 X149.604 Y108.766 E2.17497
G1 X147.786 Y106.948 E2.26312
G1 X147.267 Y106.948 E2.28089
G1 X149.604 Y109.284 E2.39418
G1 X149.604 Y109.803 E2.41195
G1 X146.749 Y106.948 E2.55037
G1 X146.231 Y106.948 E2.56814
G1 X149.604 Y110.321 E2.73169
G1 X149.604 Y110.839 E2.74946
G1 X145.712 Y106.948 E2.93814
G1 X145.194 Y106.948 E2.95591
G1 X149.604 Y111.358 E3.16973
G1 X149.604 Y111.876 E3.18750
G1 X144.676 Y106.948 E3.42644
G1 X144.157 Y106.948 E3.44422
G1 X149.604 Y112.394 E3.70829
G1 X149.604 Y112.913 E3.72606
G1 X143.639 Y106.948 E4.01528
G1 X143.121 Y106.948 E4.03305
G1 X149.604 Y113.431 E4.34739
G1 X149.604 Y113.949 E4.36516
G1 X142.602 Y106.948 E4.70464
G1 X142.084 Y106.948 E4.72241
G1 X149.604 Y114.468 E5.08702
G1 X149.604 Y114.986 E5.10479
G1 X141.566 Y106.948 E5.49453
G1 X141.047 Y106.948 E5.51230
G1 X149.604 Y115.504 E5.92717
G1 X149.604 Y116.023 E5.94494
G1 X140.529 Y106.948 E6.38495
G1 X140.011 Y106.948 E6.40272
G1 X149.604 Y116.541 E6.86786
G1 X149.604 Y117.059 E6.88563
G1 X139.492 Y106.948 E7.37590
G1 X138.974 Y106.948 E7.39367
G1 X149.604 Y117.578 E7.90907
G1 X149.604 Y118.096 E7.92684
G1 X138.456 Y106.948 E8.46737
G1 X137.937 Y106.948 E8.48515
G1 X149.604 Y118.614 E9.05081
G1 X149.604 Y119.133 E9.06858
G1 X137.419 Y106.948 E9.65938
G1 X136.901 Y106.948 E9.67715
G1 X149.604 Y119.651 E10.29308
G1 X149.604 Y120.169 E10.31086
G1 X136.382 Y106.948 E10.95192
G1 X135.864 Y106.948 E10.96969
G1 X149.604 Y120.688 E11.63589
G1 X149.604 Y121.206 E11.65366
G1 X77.271 Y48.873 E15.16086
G1 X76.752 Y48.873 E15.17863
G1 X149.604 Y121.724 E18.71097
G1 X149.604 Y122.243 E18.72874
G1 X76.234 Y48.873 E22.28621
G1 X75.716 Y48.873 E22.30398
G1 X149.604 Y122.761 E25.88659
G1 X149.604 Y123.279 E25.90436
G1 X75.197 Y48.873 E29.51209
G1 X74.679 Y48.873 E29.52986
G1 X149.604 Y123.798 E33.16273
G1 X149.604 Y124.316 E33.18050
G1 X74.161 Y48.873 E36.83850
G1 X73.642 Y48.873 E36.85627
G1 X149.604 Y124.834 E40.53940
G1 X149.604 Y125.353 E40.55717
G1 X73.124 Y48.873 E44.26544
G1 X72.606 Y48.873 E44.28321
G1 X149.604 Y125.871 E48.01660
G1 X149.604 Y126.389 E48.03437
G1 X72.087 Y48.873 E51.79290
G1 X71.569 Y48.873 E51.81067
G1 X149.604 Y126.908 E55.59433
G1 X149.604 Y127.426 E55.61211
G1 X71.051 Y48.873 E59.42090
G1 X70.532 Y48.873 E59.43867
G1 X149.604 Y127.944 E63.27259
G1 X149.604 Y128.463 E63.29037
G1 X70.014 Y48.873 E67.14942
G1 X69.496 Y48.873 E67.16719
G1 X149.604 Y128.981 E71.05138
G1 X149.604 Y129.499 E71.06916
G1 X68.977 Y48.873 E74.97848
G1 X68.459 Y48.873 E74.99625
G1 X149.604 Y130.018 E78.93070
G1 X149.604 Y130.536 E78.94847
G1 X67.941 Y48.873 E82.90806
G1 X67.422 Y48.873 E82.92583
G1 X149.604 Y131.054 E86.91055
G1 X149.604 Y131.573 E86.92832
G1 X66.904 Y48.873 E90.93817
G1 X66.386 Y48.873 E90.95594
G1 X149.604 Y132.091 E94.99093
G1 X149.604 Y132.609 E95.00870
G1 X65.867 Y48.873 E99.06882
G1 X65.349 Y48.873 E99.08659
G1 X149.604 Y133.128 E103.17183
G1 X149.604 Y133.646 E103.18961
G1 X64.831 Y48.873 E107.29999
G1 X64.312 Y48.873 E107.31776
G1 X149.604 Y134.164 E111.45327
G1 X149.604 Y134.683 E111.47104
G1 X63.794 Y48.873 E115.63169
G1 X63.276 Y48.873 E115.64946
G1 X149.604 Y135.201 E119.83524
G1 X149.604 Y135.719 E119.85301
G1 X62.757 Y48.873 E124.06392
G1 X62.239 Y48.873 E124.08169
G1 X149.604 Y136.238 E128.31773
G1 X149.604 Y136.756 E128.33550
G1 X61.721 Y48.873 E132.59668
G1 X61.202 Y48.873 E132.61445
G1 X149.604 Y137.274 E136.90075
G1 X149.604 Y137.793 E136.91852
G1 X60.684 Y48.873 E141.22996
G1 X60.166 Y48.873 E141.24773
G1 X149.604 Y138.311 E145.58431
G1 X149.604 Y138.829 E145.60208
G1 X59.647 Y48.873 E149.96378
G1 X59.129 Y48.873 E149.98155
G1 X149.604 Y139.348 E154.36839
G1 X149.604 Y139.866 E154.38616
G1 X58.611 Y48.873 E158.79813
G1 X58.092 Y48.873 E158.81590
G1 X149.604 Y140.384 E163.25300
G1 X149.604 Y140.903 E163.27077
G1 X57.574 Y48.873 E167.73300
G1 X57.056 Y48.873 E167.75077
G1 X149.221 Y141.038 E172.21958
G1 X148.702 Y141.038 E172.23735
G1 X56.537 Y48.873 E176.70615
G1 X56.019 Y48.873 E176.72392
G1 X148.184 Y141.038 E181.19272
G1 X147.666 Y141.038 E181.21049
G1 X55.501 Y48.873 E185.67929
G1 X54.982 Y48.873 E185.69706
G1 X147.147 Y141.038 E190.16586
G1 X146.629 Y141.038 E190.18363
G1 X54.464 Y48.873 E194.65243
G1 X53.946 Y48.873 E194.67021
G1 X146.111 Y141.038 E199.13901
G1 X145.592 Y141.038 E199.15678
G1 X53.427 Y48.873 E203.62558
G1 X52.909 Y48.873 E203.64335
G1 X145.074 Y141.038 E208.11215
G1 X144.556 Y141.038 E208.12992
G1 X52.391 Y48.873 E212.59872
G1 X51.872 Y48.873 E212.61649
G1 X144.037 Y141.038 E217.08529
G1 X143.519 Y141.038 E217.10307
G1 X51.354 Y48.873 E221.57187
G1 X50.836 Y48.873 E221.58964
G1 X143.001 Y141.038 E226.05844
G1 X142.482 Y141.038 E226.07621
G1 X50.317 Y48.873 E230.54501
G1 X49.799 Y48.873 E230.56278
G1 X141.964 Y141.038 E235.03158
G1 X141.446 Y141.038 E235.04935
G1 X49.281 Y48.873 E239.51815
G1 X48.762 Y48.873 E239.53592
G1 X140.927 Y141.038 E244.00472
G1 X140.409 Y141.038 E244.02250
G1 X48.244 Y48.873 E248.49130
G1 X47.726 Y48.873 E248.50907
G1 X139.891 Y141.038 E252.97787
G1 X139.372 Y141.038 E252.99564
G1 X47.207 Y48.873 E257.46444
G1 X46.689 Y48.873 E257.48221
G1 X138.854 Y141.038 E261.95101
G1 X138.336 Y141.038 E261.96878
G1 X46.171 Y48.873 E266.43758
G1 X45.652 Y48.873 E266.45536
G1 X137.817 Y141.038 E270.92416
G1 X137.299 Y141.038 E270.94193
G1 X45.134 Y48.873 E275.41073
G1 X44.616 Y48.873 E275.42850
G1 X136.781 Y141.038 E279.89730
G1 X136.397 Y141.038 E279.91047
G1 X136.085 Y140.860 E279.92278
G1 X44.097 Y48.873 E284.38296
G1 X43.579 Y48.873 E284.40073
G1 X134.879 Y140.173 E288.82760
G1 X133.674 Y139.486 E288.87517
G1 X43.061 Y48.873 E293.26873
G1 X42.542 Y48.873 E293.28650
G1 X132.469 Y138.799 E297.64675
G1 X131.263 Y138.112 E297.69431
G1 X42.024 Y48.873 E302.02126
G1 X41.506 Y48.873 E302.03903
G1 X130.058 Y137.425 E306.33267
G1 X128.853 Y136.738 E306.38023
G1 X40.987 Y48.873 E310.64056
G1 X40.938 Y48.873 E310.64224
G1 X40.938 Y49.342 E310.65833
G1 X127.648 Y136.051 E314.86259
G1 X126.442 Y135.365 E314.91016
G1 X40.938 Y49.861 E319.05597
G1 X40.938 Y50.379 E319.07374
G1 X125.237 Y134.678 E323.16112
G1 X124.032 Y133.991 E323.20869
G1 X40.938 Y50.897 E327.23762
G1 X40.938 Y51.416 E327.25539
G1 X122.826 Y133.304 E331.22589
G1 X121.621 Y132.617 E331.27345
G1 X40.938 Y51.934 E335.18551
G1 X40.938 Y52.452 E335.20328
G1 X120.416 Y131.930 E339.05690
G1 X119.211 Y131.243 E339.10446
G1 X40.938 Y52.971 E342.89964
G1 X40.938 Y53.489 E342.91741
G1 X118.005 Y130.556 E346.65415
G1 X116.800 Y129.869 E346.70171
G1 X40.938 Y54.007 E350.38001
G1 X40.938 Y54.526 E350.39778
G1 X115.595 Y129.182 E354.01763
G1 X114.390 Y128.495 E354.06520
G1 X40.938 Y55.044 E357.62661
G1 X40.938 Y55.562 E357.64438
G1 X113.184 Y127.808 E361.14736
G1 X111.979 Y127.121 E361.19492
G1 X40.938 Y56.081 E364.63946
G1 X40.938 Y56.599 E364.65723
G1 X110.774 Y126.434 E368.04333
G1 X109.568 Y125.747 E368.09089
G1 X40.938 Y57.117 E371.41854
G1 X40.938 Y57.636 E371.43632
G1 X108.363 Y125.060 E374.70553
G1 X107.158 Y124.373 E374.75309
G1 X40.938 Y58.154 E377.96387
G1 X40.938 Y58.672 E377.98164
G1 X105.953 Y123.686 E381.13397
G1 X104.747 Y123.000 E381.18154
G1 X40.938 Y59.191 E384.27543
G1 X40.938 Y59.709 E384.29320
G1 X103.542 Y122.313 E387.32866
G1 X102.337 Y121.626 E387.37622
G1 X40.938 Y60.227 E390.35324
G1 X40.938 Y60.746 E390.37101
G1 X101.131 Y120.939 E393.28958
G1 X99.926 Y120.252 E393.33714
G1 X40.938 Y61.264 E396.19728
G1 X40.938 Y61.782 E396.21505
G1 X98.721 Y119.565 E399.01674
G1 X97.516 Y118.878 E399.06431
G1 X40.938 Y62.301 E401.80756
G1 X40.938 Y62.819 E401.82533
G1 X96.310 Y118.191 E404.51014
G1 X95.105 Y117.504 E404.55771
G1 X40.938 Y63.337 E407.18408
G1 X40.938 Y63.856 E407.20185
G1 X93.900 Y116.817 E409.76978
G1 X92.695 Y116.130 E409.81735
G1 X40.938 Y64.374 E412.32684
G1 X40.938 Y64.892 E412.34461
G1 X91.489 Y115.443 E414.79566
G1 X90.284 Y114.756 E414.84323
G1 X40.938 Y65.411 E417.23584
G1 X40.938 Y65.929 E417.25361
G1 X89.079 Y114.069 E419.58778
G1 X87.873 Y113.382 E419.63535
G1 X40.938 Y66.447 E421.91108
G1 X40.938 Y66.966 E421.92885
G1 X86.668 Y112.695 E424.14614
G1 X85.463 Y112.008 E424.19371
G1 X40.938 Y67.484 E426.35256
G1 X40.938 Y68.002 E426.37033
G1 X84.258 Y111.321 E428.47074
G1 X83.052 Y110.635 E428.51830
G1 X40.938 Y68.521 E430.56027
G1 X40.938 Y69.039 E430.57805
G1 X81.847 Y109.948 E432.56158
G1 X80.642 Y109.261 E432.60914
G1 X40.938 Y69.557 E434.53423
G1 X40.938 Y70.076 E434.55200
G1 X79.437 Y108.574 E436.41865
G1 X78.231 Y107.887 E436.46622
G1 X40.938 Y70.594 E438.27443
G1 X40.938 Y71.112 E438.29220
G1 X77.026 Y107.200 E440.04197
G1 X75.821 Y106.513 E440.08953
G1 X40.938 Y71.631 E441.78086
G1 X40.938 Y72.149 E441.79863
G1 X74.615 Y105.826 E443.43152
G1 X73.410 Y105.139 E443.47909
G1 X40.938 Y72.667 E445.05354
G1 X40.938 Y73.186 E445.07131
G1 X72.205 Y104.452 E446.58732
G1 X71.000 Y103.765 E446.63488
G1 X40.938 Y73.704 E448.09245
G1 X40.938 Y74.222 E448.11022
G1 X69.794 Y103.078 E449.50935
G1 X68.589 Y102.391 E449.55691
G1 X40.938 Y74.741 E450.89760
G1 X40.938 Y75.259 E450.91537
G1 X67.384 Y101.704 E452.19762
G1 X66.178 Y101.017 E452.24519
G1 X40.938 Y75.777 E453.46900
G1 X40.938 Y76.296 E453.48677
G1 X64.973 Y100.330 E454.65214
G1 X63.768 Y99.643 E454.69970
G1 X40.938 Y76.814 E455.80663
G1 X40.938 Y77.332 E455.82440
G1 X62.563 Y98.956 E456.87289
G1 X61.357 Y98.269 E456.92045
G1 X40.938 Y77.851 E457.91050
G1 X40.938 Y78.369 E457.92827
G1 X60.152 Y97.583 E458.85988
G1 X58.947 Y96.896 E458.90744
G1 X40.938 Y78.887 E459.78061
G1 X40.938 Y79.406 E459.79838
G1 X57.742 Y96.209 E460.61311
G1 X56.536 Y95.522 E460.66067
G1 X40.938 Y79.924 E461.41696
G1 X40.938 Y80.442 E461.43473
