; G-Code originally generated by Simplify3D(R) Version 4.1.2
;M80 ; power supply on
G90
M82
M106 S0
M140 S70 ; custom bed temp
M190 S70 ; custom bed temp
M104 S210 T0 ; custom hot end temp
M109 S210 T0 ; custom hot end temp
G28 ; home all axes
;G29 ; probe ABL
G29 S1 ; restore ABL mesh 
; custom start gcode

G0 Y0 F4800
G0 X0
G1 E4 F700
G1 E-1 F700

G0 Y100 F4800
G0 X15
G0 Y0

G0 X20 Y23 Z25 F4800
G1 Z3 F720
;M109 S[first_layer_temperature] ; wait for extruder temp

; intro line
G92 E0 ; reset extrusion distance
G1 Z0.2 F720
G1 X24
G1 X90.0 E9.0  F1000.0 ; priming
G1 X130.0 E12.5  F1000.0 ; priming

G92 E0.0

; process Color1-2
; layer 1, Z = 0.200
T0
G92 E0.0000
G1 E-0.4 F2400 ; custom retraction - A
; feature skirt
; tool H0.200 W0.576
;zhopupA
G1 X123.872 Y142.041 F6000
G1 Z0.200 F1200
G1 E0 F2400 ; custom un-retraction/prime - A
G92 E0.0000
G1 X124.104 Y141.937 E0.0110 F1800
G1 X124.831 Y141.65800000000002 E0.0445
G1 X125.07300000000001 Y141.579 E0.0555
G1 X125.825 Y141.378 E0.0890
G1 X126.074 Y141.325 E0.1000
G1 X126.842 Y141.203 E0.1336
G1 X127.096 Y141.177 E0.1445
G1 X127.809 Y141.139 E0.1753
G1 X127.936 Y141.136 E0.1808
G1 X182.064 Y141.136 E2.5140
G1 X182.191 Y141.139 E2.5195
G1 X182.904 Y141.177 E2.5503
G1 X183.15800000000002 Y141.203 E2.5613
G1 X183.926 Y141.325 E2.5948
G1 X184.175 Y141.378 E2.6058
G1 X184.92700000000002 Y141.579 E2.6393
G1 X185.16899999999998 Y141.65800000000002 E2.6503
G1 X185.89600000000002 Y141.937 E2.6838
G1 X186.128 Y142.041 E2.6948
G1 X186.822 Y142.394 E2.7284
G1 X187.042 Y142.52100000000002 E2.7393
G1 X187.695 Y142.945 E2.7729
G1 X187.901 Y143.095 E2.7838
G1 X188.506 Y143.584 E2.8174
G1 X188.695 Y143.755 E2.8284
G1 X189.245 Y144.305 E2.8619
G1 X189.41500000000002 Y144.494 E2.8729
G1 X189.905 Y145.099 E2.9064
G1 X190.055 Y145.305 E2.9174
G1 X190.47899999999998 Y145.958 E2.9510
G1 X190.606 Y146.178 E2.9619
G1 X190.959 Y146.872 E2.9955
G1 X191.063 Y147.10399999999998 E3.0064
G1 X191.34199999999998 Y147.83100000000002 E3.0400
G1 X191.421 Y148.073 E3.0510
G1 X191.622 Y148.825 E3.0845
G1 X191.675 Y149.074 E3.0955
G1 X191.797 Y149.84199999999998 E3.1290
G1 X191.82299999999998 Y150.095 E3.1400
G1 X191.861 Y150.809 E3.1708
G1 X191.864 Y150.936 E3.1763
G1 X191.864 Y159.064 E3.5266
G1 X191.861 Y159.191 E3.5321
G1 X191.82299999999998 Y159.905 E3.5629
G1 X191.797 Y160.15800000000002 E3.5739
G1 X191.675 Y160.926 E3.6074
G1 X191.622 Y161.175 E3.6184
G1 X191.421 Y161.927 E3.6519
G1 X191.34199999999998 Y162.16899999999998 E3.6629
G1 X191.063 Y162.89600000000002 E3.6965
G1 X190.959 Y163.128 E3.7075
G1 X190.606 Y163.822 E3.7410
G1 X190.47899999999998 Y164.042 E3.7520
G1 X190.055 Y164.695 E3.7855
G1 X189.905 Y164.901 E3.7965
G1 X189.41500000000002 Y165.506 E3.8300
G1 X189.245 Y165.695 E3.8410
G1 X188.695 Y166.245 E3.8745
G1 X188.506 Y166.416 E3.8855
G1 X187.901 Y166.905 E3.9191
G1 X187.695 Y167.055 E3.9301
G1 X187.042 Y167.47899999999998 E3.9636
G1 X186.822 Y167.606 E3.9746
G1 X186.128 Y167.959 E4.0081
G1 X185.89600000000002 Y168.063 E4.0191
G1 X185.16899999999998 Y168.34199999999998 E4.0526
G1 X184.92700000000002 Y168.421 E4.0636
G1 X184.175 Y168.622 E4.0972
G1 X183.926 Y168.675 E4.1081
G1 X183.15800000000002 Y168.797 E4.1417
G1 X182.904 Y168.823 E4.1527
G1 X182.191 Y168.861 E4.1835
G1 X182.064 Y168.864 E4.1889
G1 X127.936 Y168.864 E6.5221
G1 X127.809 Y168.861 E6.5276
G1 X127.096 Y168.823 E6.5584
G1 X126.842 Y168.797 E6.5694
G1 X126.074 Y168.675 E6.6029
G1 X125.825 Y168.622 E6.6139
G1 X125.07300000000001 Y168.421 E6.6474
G1 X124.831 Y168.34199999999998 E6.6584
G1 X124.104 Y168.063 E6.6920
G1 X123.872 Y167.959 E6.7029
G1 X123.178 Y167.606 E6.7365
G1 X122.958 Y167.47899999999998 E6.7475
G1 X122.305 Y167.055 E6.7810
G1 X122.099 Y166.905 E6.7920
G1 X121.494 Y166.416 E6.8255
G1 X121.305 Y166.245 E6.8365
G1 X120.755 Y165.695 E6.8700
G1 X120.584 Y165.506 E6.8810
G1 X120.095 Y164.901 E6.9146
G1 X119.945 Y164.695 E6.9255
G1 X119.521 Y164.042 E6.9591
G1 X119.394 Y163.822 E6.9701
G1 X119.041 Y163.128 E7.0036
G1 X118.937 Y162.89600000000002 E7.0146
G1 X118.658 Y162.16899999999998 E7.0481
G1 X118.57900000000001 Y161.927 E7.0591
G1 X118.378 Y161.175 E7.0926
G1 X118.325 Y160.926 E7.1036
G1 X118.203 Y160.15800000000002 E7.1372
G1 X118.17699999999999 Y159.905 E7.1481
G1 X118.141 Y159.21699999999998 E7.1778
G1 X118.137 Y159.09 E7.1833
G1 X118.136 Y150.937 E7.5347
G1 X118.139 Y150.809 E7.5402
G1 X118.17699999999999 Y150.096 E7.5710
G1 X118.203 Y149.84199999999998 E7.5820
G1 X118.325 Y149.074 E7.6156
G1 X118.378 Y148.825 E7.6265
G1 X118.57900000000001 Y148.073 E7.6601
G1 X118.658 Y147.83100000000002 E7.6711
G1 X118.937 Y147.10399999999998 E7.7046
G1 X119.041 Y146.872 E7.7156
G1 X119.394 Y146.178 E7.7491
G1 X119.521 Y145.958 E7.7601
G1 X119.945 Y145.305 E7.7936
G1 X120.095 Y145.099 E7.8046
G1 X120.584 Y144.494 E7.8382
G1 X120.755 Y144.305 E7.8491
G1 X121.305 Y143.755 E7.8827
G1 X121.494 Y143.584 E7.8937
G1 X122.099 Y143.095 E7.9272
G1 X122.305 Y142.945 E7.9382
G1 X122.958 Y142.52100000000002 E7.9717
G1 X123.178 Y142.394 E7.9827
G1 X123.872 Y142.041 E8.0162
G92 E0.0000
G1 E-0.4 F2400 ; custom retraction - A
;zhopupA
G1 X124.12 Y142.561 F6000
G1 Z0.200 F1200
G1 E0 F2400 ; custom un-retraction/prime - A
G92 E0.0000
G1 X124.325 Y142.469 E0.0097 F1800
G1 X125.023 Y142.201 E0.0419
G1 X125.237 Y142.132 E0.0516
G1 X125.959 Y141.938 E0.0838
G1 X126.179 Y141.892 E0.0935
G1 X126.917 Y141.775 E0.1258
G1 X127.14099999999999 Y141.751 E0.1354
G1 X127.832 Y141.715 E0.1653
G1 X127.944 Y141.712 E0.1701
G1 X182.05599999999998 Y141.712 E2.5026
G1 X182.168 Y141.715 E2.5075
G1 X182.85899999999998 Y141.751 E2.5373
G1 X183.082 Y141.775 E2.5469
G1 X183.821 Y141.892 E2.5792
G1 X184.041 Y141.938 E2.5889
G1 X184.763 Y142.132 E2.6211
G1 X184.977 Y142.201 E2.6308
G1 X185.675 Y142.469 E2.6630
G1 X185.88 Y142.561 E2.6727
G1 X186.547 Y142.9 E2.7050
G1 X186.74099999999999 Y143.013 E2.7146
G1 X187.368 Y143.42000000000002 E2.7469
G1 X187.55 Y143.552 E2.7565
G1 X188.131 Y144.022 E2.7888
G1 X188.299 Y144.173 E2.7985
G1 X188.827 Y144.702 E2.8307
G1 X188.977 Y144.868 E2.8404
G1 X189.44799999999998 Y145.45 E2.8726
G1 X189.57999999999998 Y145.632 E2.8823
G1 X189.988 Y146.25900000000001 E2.9146
G1 X190.1 Y146.453 E2.9242
G1 X190.439 Y147.12 E2.9565
G1 X190.531 Y147.325 E2.9661
G1 X190.799 Y148.023 E2.9984
G1 X190.868 Y148.237 E3.0081
G1 X191.062 Y148.959 E3.0403
G1 X191.108 Y149.179 E3.0500
G1 X191.225 Y149.917 E3.0822
G1 X191.249 Y150.141 E3.0919
G1 X191.285 Y150.832 E3.1217
G1 X191.288 Y150.94400000000002 E3.1266
G1 X191.288 Y159.05599999999998 E3.4762
G1 X191.285 Y159.168 E3.4811
G1 X191.249 Y159.859 E3.5109
G1 X191.225 Y160.083 E3.5206
G1 X191.108 Y160.821 E3.5528
G1 X191.062 Y161.041 E3.5625
G1 X190.868 Y161.763 E3.5947
G1 X190.799 Y161.977 E3.6044
G1 X190.531 Y162.675 E3.6367
G1 X190.439 Y162.88 E3.6463
G1 X190.1 Y163.547 E3.6786
G1 X189.988 Y163.74099999999999 E3.6883
G1 X189.57999999999998 Y164.368 E3.7205
G1 X189.44799999999998 Y164.55 E3.7302
G1 X188.977 Y165.132 E3.7624
G1 X188.827 Y165.298 E3.7721
G1 X188.299 Y165.827 E3.8043
G1 X188.131 Y165.978 E3.8140
G1 X187.55 Y166.448 E3.8463
G1 X187.369 Y166.57999999999998 E3.8559
G1 X186.74099999999999 Y166.987 E3.8882
G1 X186.547 Y167.1 E3.8979
G1 X185.88 Y167.439 E3.9301
G1 X185.675 Y167.531 E3.9398
G1 X184.977 Y167.799 E3.9720
G1 X184.763 Y167.868 E3.9817
G1 X184.041 Y168.062 E4.0139
G1 X183.821 Y168.108 E4.0236
G1 X183.082 Y168.225 E4.0559
G1 X182.85899999999998 Y168.249 E4.0655
G1 X182.168 Y168.285 E4.0954
G1 X182.05599999999998 Y168.288 E4.1002
G1 X127.944 Y168.288 E6.4327
G1 X127.832 Y168.285 E6.4376
G1 X127.14099999999999 Y168.249 E6.4674
G1 X126.918 Y168.225 E6.4771
G1 X126.179 Y168.108 E6.5093
G1 X125.959 Y168.062 E6.5190
G1 X125.237 Y167.868 E6.5512
G1 X125.023 Y167.799 E6.5609
G1 X124.325 Y167.531 E6.5931
G1 X124.12 Y167.439 E6.6028
G1 X123.453 Y167.1 E6.6351
G1 X123.259 Y166.988 E6.6447
G1 X122.631 Y166.57999999999998 E6.6770
G1 X122.45 Y166.448 E6.6867
G1 X121.869 Y165.977 E6.7189
G1 X121.702 Y165.827 E6.7286
G1 X121.173 Y165.298 E6.7608
G1 X121.023 Y165.131 E6.7705
G1 X120.55199999999999 Y164.55 E6.8027
G1 X120.42 Y164.369 E6.8124
G1 X120.012 Y163.74099999999999 E6.8447
G1 X119.9 Y163.547 E6.8543
G1 X119.561 Y162.88 E6.8866
G1 X119.469 Y162.675 E6.8963
G1 X119.201 Y161.977 E6.9285
G1 X119.132 Y161.763 E6.9382
G1 X118.938 Y161.041 E6.9704
G1 X118.892 Y160.821 E6.9801
G1 X118.775 Y160.083 E7.0123
G1 X118.751 Y159.859 E7.0220
G1 X118.716 Y159.195 E7.0507
G1 X118.713 Y159.083 E7.0555
G1 X118.712 Y150.94400000000002 E7.4063
G1 X118.715 Y150.832 E7.4112
G1 X118.751 Y150.141 E7.4410
G1 X118.775 Y149.917 E7.4507
G1 X118.892 Y149.179 E7.4829
G1 X118.938 Y148.959 E7.4926
G1 X119.132 Y148.237 E7.5248
G1 X119.201 Y148.023 E7.5345
G1 X119.469 Y147.325 E7.5668
G1 X119.561 Y147.12 E7.5764
G1 X119.9 Y146.453 E7.6087
G1 X120.012 Y146.25900000000001 E7.6184
G1 X120.42 Y145.632 E7.6506
G1 X120.55199999999999 Y145.45 E7.6603
G1 X121.023 Y144.869 E7.6925
G1 X121.173 Y144.702 E7.7022
G1 X121.702 Y144.173 E7.7344
G1 X121.869 Y144.023 E7.7441
G1 X122.45 Y143.552 E7.7764
G1 X122.632 Y143.42000000000002 E7.7860
G1 X123.259 Y143.012 E7.8183
G1 X123.453 Y142.9 E7.8280
G1 X124.12 Y142.561 E7.8602
G92 E0.0000
G1 E-0.4 F2400 ; custom retraction - A
; feature inner perimeter
;zhopupA
G1 X126.084 Y146.696 F6000
G1 X126.063 Y146.70600000000002
G1 X126.553 Y147.75
G1 Z0.200 F1200
G1 E0 F2400 ; custom un-retraction/prime - A
G92 E0.0000
G1 X126.9 Y147.61599999999999 E0.0161 F1350
G1 X127.26 Y147.52 E0.0321
G1 X127.628 Y147.461 E0.0482
G1 X128.038 Y147.44 E0.0658
G1 X181.962 Y147.44 E2.3903
G1 X182.372 Y147.461 E2.4079
G1 X182.74 Y147.52 E2.4240
G1 X183.099 Y147.61599999999999 E2.4401
G1 X183.447 Y147.75 E2.4561
G1 X183.779 Y147.91899999999998 E2.4722
G1 X184.091 Y148.121 E2.4882
G1 X184.381 Y148.356 E2.5043
G1 X184.644 Y148.619 E2.5203
G1 X184.87900000000002 Y148.909 E2.5364
G1 X185.08100000000002 Y149.221 E2.5524
G1 X185.25 Y149.553 E2.5685
G1 X185.38400000000001 Y149.901 E2.5845
G1 X185.48000000000002 Y150.26 E2.6006
G1 X185.539 Y150.628 E2.6166
G1 X185.56 Y151.038 E2.6343
G1 X185.56 Y158.962 E2.9759
G1 X185.539 Y159.372 E2.9936
G1 X185.48000000000002 Y159.74 E3.0097
G1 X185.38400000000001 Y160.1 E3.0257
G1 X185.25 Y160.447 E3.0418
G1 X185.08100000000002 Y160.779 E3.0578
G1 X184.87900000000002 Y161.091 E3.0739
G1 X184.644 Y161.381 E3.0899
G1 X184.381 Y161.644 E3.1060
G1 X184.091 Y161.878 E3.1220
G1 X183.779 Y162.08100000000002 E3.1381
G1 X183.447 Y162.25 E3.1541
G1 X183.099 Y162.38400000000001 E3.1702
G1 X182.74 Y162.48 E3.1862
G1 X182.372 Y162.539 E3.2023
G1 X181.962 Y162.56 E3.2200
G1 X128.038 Y162.56 E5.5444
G1 X127.628 Y162.539 E5.5621
G1 X127.26 Y162.48 E5.5781
G1 X126.901 Y162.38400000000001 E5.5942
G1 X126.553 Y162.25 E5.6102
G1 X126.221 Y162.08100000000002 E5.6263
G1 X125.90899999999999 Y161.879 E5.6423
G1 X125.619 Y161.644 E5.6584
G1 X125.356 Y161.381 E5.6744
G1 X125.121 Y161.091 E5.6905
G1 X124.919 Y160.779 E5.7066
G1 X124.75 Y160.447 E5.7226
G1 X124.616 Y160.099 E5.7387
G1 X124.52 Y159.74 E5.7547
G1 X124.461 Y159.372 E5.7708
G1 X124.441 Y158.988 E5.7873
G1 X124.44 Y151.038 E6.1301
G1 X124.461 Y150.628 E6.1477
G1 X124.52 Y150.26 E6.1638
G1 X124.616 Y149.9 E6.1798
G1 X124.75 Y149.553 E6.1959
G1 X124.919 Y149.221 E6.2119
G1 X125.121 Y148.909 E6.2280
G1 X125.356 Y148.619 E6.2441
G1 X125.619 Y148.356 E6.2601
G1 X125.90899999999999 Y148.122 E6.2761
G1 X126.221 Y147.91899999999998 E6.2922
G1 X126.553 Y147.75 E6.3083
G1 X126.318 Y147.223 F6000
G92 E0.0000
G1 X126.72200000000001 Y147.06799999999998 E0.0187 F1350
G1 X127.14 Y146.95600000000002 E0.0373
G1 X127.568 Y146.888 E0.0560
G1 X128.023 Y146.864 E0.0756
G1 X181.977 Y146.864 E2.4013
G1 X182.43200000000002 Y146.888 E2.4210
G1 X182.86 Y146.95600000000002 E2.4396
G1 X183.27800000000002 Y147.06799999999998 E2.4583
G1 X183.68200000000002 Y147.223 E2.4769
G1 X184.067 Y147.41899999999998 E2.4956
G1 X184.43 Y147.655 E2.5142
G1 X184.767 Y147.927 E2.5329
G1 X185.07299999999998 Y148.233 E2.5515
G1 X185.345 Y148.57 E2.5702
G1 X185.58100000000002 Y148.933 E2.5889
G1 X185.777 Y149.31799999999998 E2.6075
G1 X185.93200000000002 Y149.722 E2.6262
G1 X186.04399999999998 Y150.14 E2.6448
G1 X186.112 Y150.56799999999998 E2.6635
G1 X186.136 Y151.023 E2.6831
G1 X186.136 Y158.977 E3.0260
G1 X186.112 Y159.43200000000002 E3.0456
G1 X186.04399999999998 Y159.86 E3.0643
G1 X185.93200000000002 Y160.278 E3.0830
G1 X185.777 Y160.68200000000002 E3.1016
G1 X185.58100000000002 Y161.067 E3.1203
G1 X185.345 Y161.43 E3.1389
G1 X185.07299999999998 Y161.767 E3.1576
G1 X184.767 Y162.073 E3.1762
G1 X184.43 Y162.345 E3.1949
G1 X184.067 Y162.58100000000002 E3.2135
G1 X183.68200000000002 Y162.777 E3.2322
G1 X183.27800000000002 Y162.93200000000002 E3.2509
G1 X182.86 Y163.04399999999998 E3.2695
G1 X182.43200000000002 Y163.112 E3.2882
G1 X181.977 Y163.136 E3.3078
G1 X128.023 Y163.136 E5.6335
G1 X127.568 Y163.112 E5.6532
G1 X127.14 Y163.04399999999998 E5.6718
G1 X126.72200000000001 Y162.93200000000002 E5.6905
G1 X126.318 Y162.777 E5.7091
G1 X125.93299999999999 Y162.58100000000002 E5.7278
G1 X125.57 Y162.345 E5.7464
G1 X125.233 Y162.073 E5.7651
G1 X124.92699999999999 Y161.767 E5.7837
G1 X124.655 Y161.43 E5.8024
G1 X124.419 Y161.067 E5.8211
G1 X124.223 Y160.68200000000002 E5.8397
G1 X124.068 Y160.278 E5.8584
G1 X123.956 Y159.86 E5.8770
G1 X123.888 Y159.43200000000002 E5.8957
G1 X123.865 Y159.003 E5.9142
G1 X123.864 Y151.023 E6.2582
G1 X123.888 Y150.56799999999998 E6.2778
G1 X123.956 Y150.14 E6.2965
G1 X124.068 Y149.722 E6.3151
G1 X124.223 Y149.31799999999998 E6.3338
G1 X124.419 Y148.933 E6.3525
G1 X124.655 Y148.57 E6.3711
G1 X124.92699999999999 Y148.233 E6.3898
G1 X125.233 Y147.927 E6.4084
G1 X125.57 Y147.655 E6.4271
G1 X125.93299999999999 Y147.41899999999998 E6.4457
G1 X126.318 Y147.223 E6.4644
; feature outer perimeter
G1 X126.084 Y146.696 F6000
G92 E0.0000
G1 X126.544 Y146.519 E0.0213 F900
G1 X127.02 Y146.391 E0.0425
G1 X127.507 Y146.314 E0.0638
G1 X128.008 Y146.288 E0.0854
G1 X181.99200000000002 Y146.288 E2.4124
G1 X182.493 Y146.314 E2.4340
G1 X182.98000000000002 Y146.391 E2.4552
G1 X183.45600000000002 Y146.519 E2.4765
G1 X183.916 Y146.696 E2.4977
G1 X184.356 Y146.92000000000002 E2.5190
G1 X184.769 Y147.188 E2.5403
G1 X185.15300000000002 Y147.499 E2.5615
G1 X185.501 Y147.847 E2.5828
G1 X185.812 Y148.231 E2.6040
G1 X186.07999999999998 Y148.644 E2.6253
G1 X186.304 Y149.084 E2.6466
G1 X186.481 Y149.54399999999998 E2.6678
G1 X186.60899999999998 Y150.02 E2.6891
G1 X186.686 Y150.508 E2.7103
G1 X186.712 Y151.007 E2.7319
G1 X186.712 Y158.993 E3.0761
G1 X186.686 Y159.492 E3.0977
G1 X186.60899999999998 Y159.98 E3.1189
G1 X186.481 Y160.45600000000002 E3.1402
G1 X186.304 Y160.916 E3.1615
G1 X186.07999999999998 Y161.356 E3.1827
G1 X185.812 Y161.769 E3.2040
G1 X185.501 Y162.153 E3.2252
G1 X185.15300000000002 Y162.501 E3.2465
G1 X184.769 Y162.812 E3.2678
G1 X184.356 Y163.07999999999998 E3.2890
G1 X183.916 Y163.304 E3.3103
G1 X183.45600000000002 Y163.481 E3.3315
G1 X182.98000000000002 Y163.609 E3.3528
G1 X182.49200000000002 Y163.686 E3.3740
G1 X181.99200000000002 Y163.712 E3.3956
G1 X128.008 Y163.712 E5.7226
G1 X127.507 Y163.686 E5.7442
G1 X127.02 Y163.609 E5.7655
G1 X126.544 Y163.481 E5.7868
G1 X126.084 Y163.304 E5.8080
G1 X125.644 Y163.07999999999998 E5.8293
G1 X125.231 Y162.812 E5.8505
G1 X124.84700000000001 Y162.501 E5.8718
G1 X124.499 Y162.153 E5.8930
G1 X124.188 Y161.769 E5.9143
G1 X123.92 Y161.356 E5.9356
G1 X123.696 Y160.916 E5.9568
G1 X123.519 Y160.45600000000002 E5.9781
G1 X123.39099999999999 Y159.98 E5.9993
G1 X123.314 Y159.493 E6.0206
G1 X123.289 Y159.018 E6.0411
G1 X123.288 Y151.008 E6.3864
G1 X123.314 Y150.507 E6.4080
G1 X123.39099999999999 Y150.02 E6.4292
G1 X123.519 Y149.54399999999998 E6.4505
G1 X123.696 Y149.084 E6.4717
G1 X123.92 Y148.644 E6.4930
G1 X124.188 Y148.231 E6.5142
G1 X124.499 Y147.847 E6.5355
G1 X124.84700000000001 Y147.499 E6.5568
G1 X125.231 Y147.188 E6.5780
G1 X125.644 Y146.92000000000002 E6.5993
G1 X126.084 Y146.696 E6.6205
; feature solid layer
G1 X127.035 Y162.062 F6000
G92 E0.0000
G1 X124.938 Y159.965 E0.1278 F1440
G1 X124.858 Y159.668 E0.1411
G1 X124.806 Y159.336 E0.1556
G1 X124.788 Y159.001 E0.1701
G1 X127.999 Y162.212 E0.3658
G1 X128.047 Y162.214 E0.3679
G1 X128.816 Y162.214 E0.4010
G1 X124.787 Y158.185 E0.6467
G1 X124.787 Y157.37 E0.6818
G1 X129.631 Y162.214 E0.9771
G1 X130.446 Y162.214 E1.0122
G1 X124.787 Y156.555 E1.3572
G1 X124.786 Y155.74099999999999 E1.3923
G1 X131.26 Y162.214 E1.7869
G1 X132.075 Y162.214 E1.8220
G1 X124.786 Y154.926 E2.2663
G1 X124.786 Y154.111 E2.3015
G1 X132.889 Y162.214 E2.7954
G1 X133.704 Y162.214 E2.8305
G1 X124.786 Y153.297 E3.3742
G1 X124.786 Y152.482 E3.4093
G1 X134.518 Y162.214 E4.0026
G1 X135.333 Y162.214 E4.0377
G1 X124.786 Y151.667 E4.6807
G1 X124.786 Y151.047 E4.7074
G1 X124.795 Y150.862 E4.7154
G1 X136.148 Y162.214 E5.4074
G1 X136.962 Y162.214 E5.4425
G1 X124.905 Y150.15699999999998 E6.1775
G1 X124.945 Y150.007 E6.1842
G1 X125.066 Y149.69400000000002 E6.1987
G1 X125.13 Y149.56799999999998 E6.2048
G1 X137.777 Y162.214 E6.9758
G1 X138.591 Y162.214 E7.0109
G1 X125.441 Y149.064 E7.8125
G1 X125.613 Y148.851 E7.8243
G1 X125.828 Y148.636 E7.8374
G1 X139.406 Y162.214 E8.6652
G1 X140.221 Y162.214 E8.7003
G1 X126.291 Y148.285 E9.5494
G1 X126.394 Y148.21800000000002 E9.5547
G1 X126.694 Y148.066 E9.5692
G1 X126.833 Y148.012 E9.5756
G1 X141.035 Y162.214 E10.4414
G1 X141.85 Y162.214 E10.4765
G1 X127.47200000000001 Y147.836 E11.3530
G1 X127.664 Y147.80599999999998 E11.3614
G1 X128.047 Y147.786 E11.3779
G1 X128.236 Y147.786 E11.3860
G1 X142.664 Y162.214 E12.2656
G1 X143.47899999999998 Y162.214 E12.3007
G1 X129.05 Y147.786 E13.1803
G1 X129.865 Y147.786 E13.2154
G1 X144.293 Y162.214 E14.0950
G1 X145.108 Y162.214 E14.1301
G1 X130.679 Y147.786 E15.0097
G1 X131.494 Y147.786 E15.0448
G1 X145.923 Y162.214 E15.9244
G1 X146.737 Y162.214 E15.9595
G1 X132.308 Y147.786 E16.8391
G1 X133.123 Y147.786 E16.8742
G1 X147.552 Y162.214 E17.7538
G1 X148.36599999999999 Y162.214 E17.7889
G1 X133.938 Y147.786 E18.6684
G1 X134.752 Y147.786 E18.7036
G1 X149.18099999999998 Y162.214 E19.5831
G1 X149.996 Y162.214 E19.6182
G1 X135.567 Y147.786 E20.4978
G1 X136.381 Y147.786 E20.5329
G1 X150.81 Y162.214 E21.4125
G1 X151.625 Y162.214 E21.4476
G1 X137.196 Y147.786 E22.3272
G1 X138.011 Y147.786 E22.3623
G1 X152.439 Y162.214 E23.2419
G1 X153.254 Y162.214 E23.2770
G1 X138.825 Y147.786 E24.1566
G1 X139.64 Y147.786 E24.1917
G1 X154.06900000000002 Y162.214 E25.0713
G1 X154.883 Y162.214 E25.1064
G1 X140.454 Y147.786 E25.9860
G1 X141.269 Y147.786 E26.0211
G1 X155.698 Y162.214 E26.9007
G1 X156.512 Y162.214 E26.9358
G1 X142.084 Y147.786 E27.8153
G1 X142.898 Y147.786 E27.8505
G1 X157.327 Y162.214 E28.7300
G1 X158.141 Y162.214 E28.7651
G1 X143.713 Y147.786 E29.6447
G1 X144.527 Y147.786 E29.6798
G1 X158.95600000000002 Y162.214 E30.5594
G1 X159.77100000000002 Y162.214 E30.5945
G1 X145.34199999999998 Y147.786 E31.4741
G1 X146.156 Y147.786 E31.5092
G1 X160.585 Y162.214 E32.3888
G1 X161.4 Y162.214 E32.4239
G1 X146.971 Y147.786 E33.3035
G1 X147.786 Y147.786 E33.3386
G1 X162.214 Y162.214 E34.2182
G1 X163.029 Y162.214 E34.2533
G1 X148.6 Y147.786 E35.1329
G1 X149.415 Y147.786 E35.1680
G1 X163.844 Y162.214 E36.0476
G1 X164.65800000000002 Y162.214 E36.0827
G1 X150.22899999999998 Y147.786 E36.9622
G1 X151.04399999999998 Y147.786 E36.9974
G1 X165.473 Y162.214 E37.8769
G1 X166.287 Y162.214 E37.9120
G1 X151.859 Y147.786 E38.7916
G1 X152.673 Y147.786 E38.8267
G1 X167.102 Y162.214 E39.7063
G1 X167.917 Y162.214 E39.7414
G1 X153.488 Y147.786 E40.6210
G1 X154.302 Y147.786 E40.6561
G1 X168.731 Y162.214 E41.5357
G1 X169.546 Y162.214 E41.5708
G1 X155.117 Y147.786 E42.4504
G1 X155.93099999999998 Y147.786 E42.4855
G1 X170.36 Y162.214 E43.3651
G1 X171.175 Y162.214 E43.4002
G1 X156.746 Y147.786 E44.2798
G1 X157.561 Y147.786 E44.3149
G1 X171.989 Y162.214 E45.1945
G1 X172.804 Y162.214 E45.2296
G1 X158.375 Y147.786 E46.1091
G1 X159.19 Y147.786 E46.1443
G1 X173.619 Y162.214 E47.0238
G1 X174.433 Y162.214 E47.0589
G1 X160.004 Y147.786 E47.9385
G1 X160.81900000000002 Y147.786 E47.9736
G1 X175.248 Y162.214 E48.8532
G1 X176.062 Y162.214 E48.8883
G1 X161.63400000000001 Y147.786 E49.7679
G1 X162.448 Y147.786 E49.8030
G1 X176.877 Y162.214 E50.6826
G1 X177.692 Y162.214 E50.7177
G1 X163.263 Y147.786 E51.5973
G1 X164.077 Y147.786 E51.6324
G1 X178.506 Y162.214 E52.5120
G1 X179.321 Y162.214 E52.5471
G1 X164.892 Y147.786 E53.4267
G1 X165.707 Y147.786 E53.4618
G1 X180.135 Y162.214 E54.3414
G1 X180.95 Y162.214 E54.3765
G1 X166.52100000000002 Y147.786 E55.2560
G1 X167.336 Y147.786 E55.2912
G1 X181.764 Y162.214 E56.1707
G1 X181.953 Y162.214 E56.1789
G1 X182.336 Y162.19400000000002 E56.1954
G1 X182.529 Y162.164 E56.2038
G1 X168.15 Y147.786 E57.0803
G1 X168.965 Y147.786 E57.1154
G1 X183.167 Y161.988 E57.9812
G1 X183.30599999999998 Y161.934 E57.9876
G1 X183.606 Y161.78199999999998 E58.0021
G1 X183.709 Y161.715 E58.0074
G1 X169.779 Y147.786 E58.8565
G1 X170.594 Y147.786 E58.8916
G1 X184.172 Y161.364 E59.7193
G1 X184.387 Y161.149 E59.7324
G1 X184.559 Y160.936 E59.7442
G1 X171.409 Y147.786 E60.5459
G1 X172.223 Y147.786 E60.5810
G1 X184.87 Y160.43200000000002 E61.3520
G1 X184.934 Y160.30599999999998 E61.3581
G1 X185.055 Y159.992 E61.3726
G1 X185.095 Y159.84300000000002 E61.3792
G1 X173.038 Y147.786 E62.1142
G1 X173.852 Y147.786 E62.1493
G1 X185.20499999999998 Y159.138 E62.8414
G1 X185.214 Y158.953 E62.8493
G1 X185.214 Y158.333 E62.8761
G1 X174.667 Y147.786 E63.5191
G1 X175.482 Y147.786 E63.5542
G1 X185.214 Y157.518 E64.1475
G1 X185.214 Y156.704 E64.1826
G1 X176.296 Y147.786 E64.7262
G1 X177.111 Y147.786 E64.7614
G1 X185.214 Y155.889 E65.2554
G1 X185.214 Y155.075 E65.2905
G1 X177.925 Y147.786 E65.7348
G1 X178.74 Y147.786 E65.7699
G1 X185.214 Y154.26 E66.1646
G1 X185.214 Y153.445 E66.1997
G1 X179.555 Y147.786 E66.5447
G1 X180.369 Y147.786 E66.5799
G1 X185.214 Y152.631 E66.8752
G1 X185.214 Y151.816 E66.9103
G1 X181.184 Y147.786 E67.1561
G1 X181.953 Y147.786 E67.1892
G1 X182.001 Y147.788 E67.1913
G1 X185.212 Y150.999 E67.3870
G1 X185.19400000000002 Y150.664 E67.4015
G1 X185.142 Y150.332 E67.4160
G1 X185.062 Y150.035 E67.4293
G1 X182.965 Y147.938 E67.5571
G92 E0.0000
G1 E-0.4 F2400 ; custom retraction - A
; layer 2, Z = 0.400
M106 S255 ; custom fan 100% from layer 2
; feature inner perimeter
; tool H0.200 W0.480
;zhopupA
G1 X183.174 Y147.388 F6000
G1 Z0.400 F1200
G1 E0 F2400 ; custom un-retraction/prime - A
G92 E0.0000
G1 X183.54500000000002 Y147.53 E0.0143 F2700
G1 X183.899 Y147.711 E0.0286
G1 X184.233 Y147.927 E0.0428
G1 X184.542 Y148.177 E0.0571
G1 X184.82299999999998 Y148.458 E0.0714
G1 X185.07299999999998 Y148.767 E0.0857
G1 X185.289 Y149.101 E0.1000
G1 X185.47 Y149.45499999999998 E0.1143
G1 X185.612 Y149.826 E0.1285
G1 X185.715 Y150.21 E0.1428
G1 X185.77800000000002 Y150.603 E0.1571
G1 X185.8 Y151.031 E0.1725
G1 X185.8 Y158.969 E0.4576
G1 X185.77800000000002 Y159.397 E0.4730
G1 X185.715 Y159.79 E0.4873
G1 X185.612 Y160.174 E0.5016
G1 X185.47 Y160.54500000000002 E0.5159
G1 X185.289 Y160.899 E0.5302
G1 X185.07299999999998 Y161.233 E0.5444
G1 X184.82299999999998 Y161.541 E0.5587
G1 X184.541 Y161.823 E0.5730
G1 X184.233 Y162.073 E0.5873
G1 X183.899 Y162.289 E0.6016
G1 X183.54500000000002 Y162.47 E0.6158
G1 X183.174 Y162.612 E0.6301
G1 X182.79000000000002 Y162.715 E0.6444
G1 X182.397 Y162.778 E0.6587
G1 X181.969 Y162.8 E0.6741
G1 X128.031 Y162.8 E2.6116
G1 X127.60300000000001 Y162.778 E2.6270
G1 X127.21000000000001 Y162.715 E2.6413
G1 X126.826 Y162.612 E2.6555
G1 X126.455 Y162.47 E2.6698
G1 X126.101 Y162.289 E2.6841
G1 X125.767 Y162.073 E2.6984
G1 X125.459 Y161.823 E2.7127
G1 X125.17699999999999 Y161.541 E2.7270
G1 X124.92699999999999 Y161.233 E2.7412
G1 X124.711 Y160.899 E2.7555
G1 X124.53 Y160.54500000000002 E2.7698
G1 X124.388 Y160.174 E2.7841
G1 X124.285 Y159.79 E2.7984
G1 X124.22200000000001 Y159.397 E2.8126
G1 X124.20400000000001 Y159.047 E2.8252
G1 X124.2 Y151.031 E3.1132
G1 X124.22200000000001 Y150.603 E3.1286
G1 X124.285 Y150.21 E3.1429
G1 X124.388 Y149.826 E3.1571
G1 X124.53 Y149.45499999999998 E3.1714
G1 X124.711 Y149.101 E3.1857
G1 X124.92699999999999 Y148.767 E3.2000
G1 X125.17699999999999 Y148.458 E3.2143
G1 X125.458 Y148.177 E3.2285
G1 X125.767 Y147.927 E3.2428
G1 X126.101 Y147.711 E3.2571
G1 X126.455 Y147.53 E3.2714
G1 X126.826 Y147.388 E3.2857
G1 X127.21000000000001 Y147.285 E3.3000
G1 X127.60300000000001 Y147.222 E3.3142
G1 X128.031 Y147.2 E3.3296
G1 X181.969 Y147.2 E5.2671
G1 X182.397 Y147.222 E5.2825
G1 X182.79000000000002 Y147.285 E5.2968
G1 X183.174 Y147.388 E5.3111
G1 X183.322 Y146.93 F6000
G92 E0.0000
G1 X183.74 Y147.091 E0.0161 F2700
G1 X184.139 Y147.29399999999998 E0.0322
G1 X184.515 Y147.538 E0.0483
G1 X184.863 Y147.82 E0.0644
G1 X185.18 Y148.137 E0.0804
G1 X185.462 Y148.485 E0.0965
G1 X185.70600000000002 Y148.861 E0.1126
G1 X185.909 Y149.26 E0.1287
G1 X186.07 Y149.678 E0.1448
G1 X186.185 Y150.11 E0.1609
G1 X186.256 Y150.553 E0.1770
G1 X186.28 Y151.019 E0.1937
G1 X186.28 Y158.981 E0.4798
G1 X186.256 Y159.447 E0.4965
G1 X186.185 Y159.89 E0.5126
G1 X186.07 Y160.322 E0.5287
G1 X185.909 Y160.74 E0.5448
G1 X185.70600000000002 Y161.14 E0.5609
G1 X185.462 Y161.515 E0.5770
G1 X185.18 Y161.863 E0.5930
G1 X184.863 Y162.18 E0.6091
G1 X184.515 Y162.462 E0.6252
G1 X184.14 Y162.70600000000002 E0.6413
G1 X183.74 Y162.909 E0.6574
G1 X183.322 Y163.07 E0.6735
G1 X182.89 Y163.186 E0.6896
G1 X182.447 Y163.256 E0.7057
G1 X181.981 Y163.28 E0.7224
G1 X128.019 Y163.28 E2.6608
G1 X127.553 Y163.256 E2.6776
G1 X127.11 Y163.185 E2.6937
G1 X126.678 Y163.07 E2.7098
G1 X126.26 Y162.909 E2.7258
G1 X125.86 Y162.70600000000002 E2.7419
G1 X125.485 Y162.462 E2.7580
G1 X125.137 Y162.18 E2.7741
G1 X124.82 Y161.863 E2.7902
G1 X124.538 Y161.515 E2.8063
G1 X124.294 Y161.139 E2.8224
G1 X124.09100000000001 Y160.74 E2.8385
G1 X123.93 Y160.322 E2.8546
G1 X123.814 Y159.89 E2.8706
G1 X123.744 Y159.447 E2.8867
G1 X123.724 Y159.059 E2.9007
G1 X123.72 Y151.019 E3.1895
G1 X123.744 Y150.553 E3.2063
G1 X123.814 Y150.11 E3.2224
G1 X123.93 Y149.678 E3.2385
G1 X124.09100000000001 Y149.26 E3.2545
G1 X124.294 Y148.861 E3.2706
G1 X124.538 Y148.485 E3.2867
G1 X124.82 Y148.137 E3.3028
G1 X125.137 Y147.82 E3.3189
G1 X125.485 Y147.538 E3.3350
G1 X125.861 Y147.29399999999998 E3.3511
G1 X126.26 Y147.091 E3.3672
G1 X126.678 Y146.93 E3.3833
G1 X127.11 Y146.814 E3.3993
G1 X127.553 Y146.744 E3.4154
G1 X128.019 Y146.72 E3.4322
G1 X181.981 Y146.72 E5.3706
G1 X182.447 Y146.744 E5.3873
G1 X182.89 Y146.815 E5.4034
G1 X183.322 Y146.93 E5.4195
; feature outer perimeter
G1 X183.471 Y146.473 F6000
G92 E0.0000
G1 X183.936 Y146.652 E0.0179 F1800
G1 X184.38 Y146.878 E0.0358
G1 X184.798 Y147.149 E0.0537
G1 X185.185 Y147.463 E0.0716
G1 X185.537 Y147.815 E0.0895
G1 X185.851 Y148.202 E0.1074
G1 X186.122 Y148.62 E0.1253
G1 X186.348 Y149.064 E0.1432
G1 X186.527 Y149.529 E0.1611
G1 X186.656 Y150.01 E0.1790
G1 X186.73399999999998 Y150.502 E0.1969
G1 X186.76 Y151.006 E0.2150
G1 X186.76 Y158.994 E0.5019
G1 X186.73399999999998 Y159.498 E0.5200
G1 X186.656 Y159.99 E0.5379
G1 X186.527 Y160.471 E0.5558
G1 X186.348 Y160.936 E0.5737
G1 X186.122 Y161.38 E0.5916
G1 X185.851 Y161.798 E0.6095
G1 X185.537 Y162.185 E0.6274
G1 X185.185 Y162.537 E0.6453
G1 X184.798 Y162.851 E0.6632
G1 X184.38 Y163.122 E0.6811
G1 X183.936 Y163.348 E0.6990
G1 X183.471 Y163.527 E0.7169
G1 X182.99 Y163.656 E0.7348
G1 X182.497 Y163.734 E0.7527
G1 X181.994 Y163.76 E0.7708
G1 X128.006 Y163.76 E2.7101
G1 X127.503 Y163.734 E2.7282
G1 X127.01 Y163.656 E2.7461
G1 X126.529 Y163.527 E2.7640
G1 X126.064 Y163.348 E2.7819
G1 X125.62 Y163.122 E2.7998
G1 X125.202 Y162.851 E2.8177
G1 X124.815 Y162.537 E2.8356
G1 X124.463 Y162.185 E2.8535
G1 X124.149 Y161.798 E2.8714
G1 X123.878 Y161.38 E2.8892
G1 X123.652 Y160.936 E2.9071
G1 X123.473 Y160.471 E2.9250
G1 X123.344 Y159.99 E2.9429
G1 X123.26599999999999 Y159.498 E2.9608
G1 X123.244 Y159.072 E2.9761
G1 X123.24 Y151.006 E3.2659
G1 X123.26599999999999 Y150.502 E3.2840
G1 X123.344 Y150.01 E3.3019
G1 X123.473 Y149.529 E3.3198
G1 X123.652 Y149.064 E3.3377
G1 X123.878 Y148.62 E3.3556
G1 X124.149 Y148.202 E3.3735
G1 X124.463 Y147.815 E3.3914
G1 X124.815 Y147.463 E3.4093
G1 X125.202 Y147.149 E3.4272
G1 X125.62 Y146.878 E3.4451
G1 X126.064 Y146.652 E3.4629
G1 X126.529 Y146.473 E3.4808
G1 X127.01 Y146.344 E3.4987
G1 X127.502 Y146.266 E3.5166
G1 X128.006 Y146.24 E3.5348
G1 X181.994 Y146.24 E5.4740
G1 X182.497 Y146.266 E5.4922
G1 X182.99 Y146.344 E5.5101
G1 X183.471 Y146.473 E5.5280
; feature solid layer
G1 X185.38400000000001 Y159.915 F6000
G92 E0.0000
G1 X182.91500000000002 Y162.38400000000001 E0.1254 F2880
G1 X182.73000000000002 Y162.433 E0.1323
G1 X182.36700000000002 Y162.49099999999999 E0.1455
G1 X182.11599999999999 Y162.504 E0.1545
G1 X185.50400000000002 Y159.11599999999999 E0.3266
G1 X185.512 Y158.961 E0.3322
G1 X185.512 Y158.429 E0.3513
G1 X181.429 Y162.512 E0.5587
G1 X180.75 Y162.512 E0.5831
G1 X185.512 Y157.75 E0.8250
G1 X185.512 Y157.072 E0.8494
G1 X180.072 Y162.512 E1.1257
G1 X179.393 Y162.512 E1.1501
G1 X185.512 Y156.393 E1.4610
G1 X185.512 Y155.714 E1.4854
G1 X178.714 Y162.512 E1.8307
G1 X178.035 Y162.512 E1.8551
G1 X185.512 Y155.035 E2.2349
G1 X185.512 Y154.356 E2.2593
G1 X177.356 Y162.512 E2.6736
G1 X176.67700000000002 Y162.512 E2.6980
G1 X185.512 Y153.677 E3.1468
G1 X185.512 Y152.999 E3.1712
G1 X175.999 Y162.512 E3.6545
G1 X175.32 Y162.512 E3.6788
G1 X185.512 Y152.32 E4.1966
G1 X185.512 Y151.641 E4.2210
G1 X174.64100000000002 Y162.512 E4.7732
G1 X173.962 Y162.512 E4.7976
G1 X185.50799999999998 Y150.966 E5.3842
G1 X185.49099999999999 Y150.633 E5.3961
G1 X185.446 Y150.35 E5.4064
G1 X173.28300000000002 Y162.512 E6.0243
G1 X172.60399999999998 Y162.512 E6.0487
G1 X185.3 Y149.816 E6.6936
G1 X185.207 Y149.572 E6.7030
G1 X185.091 Y149.346 E6.7121
G1 X171.926 Y162.512 E7.3809
G1 X171.247 Y162.512 E7.4053
G1 X184.832 Y148.927 E8.0954
G1 X184.608 Y148.651 E8.1082
G1 X184.519 Y148.561 E8.1127
G1 X170.56799999999998 Y162.512 E8.8214
G1 X169.889 Y162.512 E8.8458
G1 X184.161 Y148.24 E9.5708
G1 X184.063 Y148.16 E9.5754
G1 X183.75900000000001 Y147.963 E9.5884
G1 X169.20999999999998 Y162.512 E10.3275
G1 X168.53199999999998 Y162.512 E10.3518
G1 X183.299 Y147.744 E11.1020
G1 X183.08499999999998 Y147.662 E11.1103
G1 X182.784 Y147.58100000000002 E11.1215
G1 X167.853 Y162.512 E11.8800
G1 X167.174 Y162.512 E11.9044
G1 X182.186 Y147.5 E12.6670
G1 X181.961 Y147.488 E12.6751
G1 X181.519 Y147.488 E12.6910
G1 X166.495 Y162.512 E13.4542
G1 X165.816 Y162.512 E13.4786
G1 X180.84 Y147.488 E14.2418
G1 X180.161 Y147.488 E14.2662
G1 X165.137 Y162.512 E15.0294
G1 X164.459 Y162.512 E15.0538
G1 X179.483 Y147.488 E15.8170
G1 X178.804 Y147.488 E15.8414
G1 X163.78 Y162.512 E16.6046
G1 X163.101 Y162.512 E16.6290
G1 X178.125 Y147.488 E17.3922
G1 X177.446 Y147.488 E17.4166
G1 X162.422 Y162.512 E18.1798
G1 X161.743 Y162.512 E18.2042
G1 X176.767 Y147.488 E18.9674
G1 X176.088 Y147.488 E18.9918
G1 X161.064 Y162.512 E19.7550
G1 X160.386 Y162.512 E19.7794
G1 X175.41 Y147.488 E20.5426
G1 X174.731 Y147.488 E20.5670
G1 X159.707 Y162.512 E21.3302
G1 X159.028 Y162.512 E21.3546
G1 X174.05200000000002 Y147.488 E22.1178
G1 X173.373 Y147.488 E22.1422
G1 X158.349 Y162.512 E22.9054
G1 X157.67000000000002 Y162.512 E22.9298
G1 X172.69400000000002 Y147.488 E23.6930
G1 X172.01600000000002 Y147.488 E23.7174
G1 X156.992 Y162.512 E24.4806
G1 X156.313 Y162.512 E24.5050
G1 X171.337 Y147.488 E25.2682
G1 X170.65800000000002 Y147.488 E25.2926
G1 X155.63400000000001 Y162.512 E26.0558
G1 X154.95499999999998 Y162.512 E26.0802
G1 X169.97899999999998 Y147.488 E26.8434
G1 X169.3 Y147.488 E26.8678
G1 X154.276 Y162.512 E27.6310
G1 X153.597 Y162.512 E27.6554
G1 X168.621 Y147.488 E28.4186
G1 X167.94299999999998 Y147.488 E28.4430
G1 X152.91899999999998 Y162.512 E29.2062
G1 X152.24 Y162.512 E29.2306
G1 X167.264 Y147.488 E29.9938
G1 X166.585 Y147.488 E30.0182
G1 X151.561 Y162.512 E30.7814
G1 X150.882 Y162.512 E30.8058
G1 X165.906 Y147.488 E31.5690
G1 X165.227 Y147.488 E31.5934
G1 X150.203 Y162.512 E32.3566
G1 X149.525 Y162.512 E32.3810
G1 X164.549 Y147.488 E33.1442
G1 X163.87 Y147.488 E33.1686
G1 X148.846 Y162.512 E33.9318
G1 X148.167 Y162.512 E33.9562
G1 X163.191 Y147.488 E34.7194
G1 X162.512 Y147.488 E34.7438
G1 X147.488 Y162.512 E35.5070
G1 X146.809 Y162.512 E35.5314
G1 X161.833 Y147.488 E36.2946
G1 X161.154 Y147.488 E36.3190
G1 X146.13 Y162.512 E37.0822
G1 X145.452 Y162.512 E37.1066
G1 X160.476 Y147.488 E37.8698
G1 X159.797 Y147.488 E37.8942
G1 X144.773 Y162.512 E38.6574
G1 X144.094 Y162.512 E38.6818
G1 X159.118 Y147.488 E39.4450
G1 X158.439 Y147.488 E39.4694
G1 X143.415 Y162.512 E40.2326
G1 X142.736 Y162.512 E40.2570
G1 X157.76 Y147.488 E41.0202
G1 X157.08100000000002 Y147.488 E41.0446
G1 X142.05700000000002 Y162.512 E41.8078
G1 X141.379 Y162.512 E41.8322
G1 X156.403 Y147.488 E42.5954
G1 X155.724 Y147.488 E42.6198
G1 X140.7 Y162.512 E43.3830
G1 X140.02100000000002 Y162.512 E43.4074
G1 X155.04500000000002 Y147.488 E44.1706
G1 X154.36599999999999 Y147.488 E44.1950
G1 X139.34199999999998 Y162.512 E44.9582
G1 X138.663 Y162.512 E44.9826
G1 X153.687 Y147.488 E45.7458
G1 X153.00900000000001 Y147.488 E45.7702
G1 X137.985 Y162.512 E46.5334
G1 X137.30599999999998 Y162.512 E46.5578
G1 X152.32999999999998 Y147.488 E47.3210
G1 X151.651 Y147.488 E47.3454
G1 X136.627 Y162.512 E48.1086
G1 X135.948 Y162.512 E48.1330
G1 X150.972 Y147.488 E48.8962
G1 X150.293 Y147.488 E48.9206
G1 X135.269 Y162.512 E49.6838
G1 X134.59 Y162.512 E49.7082
G1 X149.614 Y147.488 E50.4714
G1 X148.936 Y147.488 E50.4958
G1 X133.912 Y162.512 E51.2590
G1 X133.233 Y162.512 E51.2834
G1 X148.257 Y147.488 E52.0466
G1 X147.578 Y147.488 E52.0710
G1 X132.554 Y162.512 E52.8342
G1 X131.875 Y162.512 E52.8586
G1 X146.899 Y147.488 E53.6218
G1 X146.22 Y147.488 E53.6462
G1 X131.196 Y162.512 E54.4094
G1 X130.517 Y162.512 E54.4338
G1 X145.541 Y147.488 E55.1970
G1 X144.863 Y147.488 E55.2214
G1 X129.839 Y162.512 E55.9846
G1 X129.16 Y162.512 E56.0090
G1 X144.184 Y147.488 E56.7722
G1 X143.505 Y147.488 E56.7966
G1 X128.481 Y162.512 E57.5598
G1 X128.039 Y162.512 E57.5757
G1 X127.814 Y162.5 E57.5838
G1 X142.826 Y147.488 E58.3464
G1 X142.147 Y147.488 E58.3708
G1 X127.21600000000001 Y162.41899999999998 E59.1293
G1 X126.91499999999999 Y162.338 E59.1405
G1 X126.701 Y162.256 E59.1487
G1 X141.469 Y147.488 E59.8989
G1 X140.79 Y147.488 E59.9233
G1 X126.241 Y162.037 E60.6624
G1 X125.937 Y161.84 E60.6754
G1 X125.839 Y161.76 E60.6800
G1 X140.111 Y147.488 E61.4050
G1 X139.43200000000002 Y147.488 E61.4294
G1 X125.482 Y161.439 E62.1381
G1 X125.392 Y161.349 E62.1426
G1 X125.168 Y161.073 E62.1554
G1 X138.753 Y147.488 E62.8455
G1 X138.074 Y147.488 E62.8699
G1 X124.90899999999999 Y160.654 E63.5387
G1 X124.793 Y160.428 E63.5478
G1 X124.7 Y160.184 E63.5572
G1 X137.39600000000002 Y147.488 E64.2021
G1 X136.71699999999998 Y147.488 E64.2265
G1 X124.554 Y159.651 E64.8444
G1 X124.509 Y159.367 E64.8547
G1 X124.492 Y159.039 E64.8665
G1 X124.492 Y159.034 E64.8667
G1 X136.038 Y147.488 E65.4532
G1 X135.359 Y147.488 E65.4776
G1 X124.492 Y158.355 E66.0296
G1 X124.491 Y157.677 E66.0540
G1 X134.68 Y147.488 E66.5716
G1 X134.001 Y147.488 E66.5960
G1 X124.491 Y156.998 E67.0791
G1 X124.491 Y156.32 E67.1035
G1 X133.323 Y147.488 E67.5522
G1 X132.644 Y147.488 E67.5765
G1 X124.49 Y155.641 E67.9907
G1 X124.49 Y154.963 E68.0151
G1 X131.965 Y147.488 E68.3948
G1 X131.286 Y147.488 E68.4192
G1 X124.49 Y154.285 E68.7645
G1 X124.489 Y153.606 E68.7889
G1 X130.607 Y147.488 E69.0997
G1 X129.929 Y147.488 E69.1240
G1 X124.489 Y152.928 E69.4004
G1 X124.489 Y152.249 E69.4247
G1 X129.25 Y147.488 E69.6666
G1 X128.571 Y147.488 E69.6910
G1 X124.488 Y151.571 E69.8984
G1 X124.488 Y151.039 E69.9175
G1 X124.496 Y150.88400000000001 E69.9231
G1 X127.884 Y147.496 E70.0952
G1 X127.633 Y147.50900000000001 E70.1042
G1 X127.27 Y147.567 E70.1174
G1 X127.08500000000001 Y147.61599999999999 E70.1243
G1 X124.616 Y150.085 E70.2497
G92 E0.0000
G1 E-0.4 F2400 ; custom retraction - A
; layer 3, Z = 0.600
;fan3
; feature inner perimeter
;zhopupA
G1 X124.388 Y149.826 F6000
G1 Z0.600 F1200
G1 E0 F2400 ; custom un-retraction/prime - A
G92 E0.0000
G1 X124.53 Y149.45499999999998 E0.0143 F2700
G1 X124.711 Y149.101 E0.0286
G1 X124.92699999999999 Y148.767 E0.0428
G1 X125.17699999999999 Y148.458 E0.0571
G1 X125.458 Y148.177 E0.0714
G1 X125.767 Y147.927 E0.0857
G1 X126.101 Y147.711 E0.1000
G1 X126.455 Y147.53 E0.1143
G1 X126.826 Y147.388 E0.1285
G1 X127.21000000000001 Y147.285 E0.1428
G1 X127.60300000000001 Y147.222 E0.1571
G1 X128.031 Y147.2 E0.1725
G1 X181.969 Y147.2 E2.1100
G1 X182.397 Y147.222 E2.1254
G1 X182.79000000000002 Y147.285 E2.1397
G1 X183.174 Y147.388 E2.1540
G1 X183.54500000000002 Y147.53 E2.1682
G1 X183.899 Y147.711 E2.1825
G1 X184.233 Y147.927 E2.1968
G1 X184.542 Y148.177 E2.2111
G1 X184.82299999999998 Y148.458 E2.2254
G1 X185.07299999999998 Y148.767 E2.2396
G1 X185.289 Y149.101 E2.2539
G1 X185.47 Y149.45499999999998 E2.2682
G1 X185.612 Y149.826 E2.2825
G1 X185.715 Y150.21 E2.2968
G1 X185.77800000000002 Y150.603 E2.3111
G1 X185.8 Y151.031 E2.3265
G1 X185.8 Y158.969 E2.6116
G1 X185.77800000000002 Y159.397 E2.6270
G1 X185.715 Y159.79 E2.6413
G1 X185.612 Y160.174 E2.6555
G1 X185.47 Y160.54500000000002 E2.6698
G1 X185.289 Y160.899 E2.6841
G1 X185.07299999999998 Y161.233 E2.6984
G1 X184.82299999999998 Y161.541 E2.7127
G1 X184.541 Y161.823 E2.7270
G1 X184.233 Y162.073 E2.7412
G1 X183.899 Y162.289 E2.7555
G1 X183.54500000000002 Y162.47 E2.7698
G1 X183.174 Y162.612 E2.7841
G1 X182.79000000000002 Y162.715 E2.7984
G1 X182.397 Y162.778 E2.8126
G1 X181.969 Y162.8 E2.8281
G1 X128.031 Y162.8 E4.7655
G1 X127.60300000000001 Y162.778 E4.7809
G1 X127.21000000000001 Y162.715 E4.7952
G1 X126.826 Y162.612 E4.8095
G1 X126.455 Y162.47 E4.8238
G1 X126.101 Y162.289 E4.8381
G1 X125.767 Y162.073 E4.8524
G1 X125.459 Y161.823 E4.8666
G1 X125.17699999999999 Y161.541 E4.8809
G1 X124.92699999999999 Y161.233 E4.8952
G1 X124.711 Y160.899 E4.9095
G1 X124.53 Y160.54500000000002 E4.9238
G1 X124.388 Y160.174 E4.9380
G1 X124.285 Y159.79 E4.9523
G1 X124.22200000000001 Y159.397 E4.9666
G1 X124.207 Y159.099 E4.9773
G1 X124.2 Y151.031 E5.2671
G1 X124.22200000000001 Y150.603 E5.2825
G1 X124.285 Y150.21 E5.2968
G1 X124.388 Y149.826 E5.3111
G1 X123.93 Y149.678 F6000
G92 E0.0000
G1 X124.09100000000001 Y149.26 E0.0161 F2700
G1 X124.294 Y148.861 E0.0322
G1 X124.538 Y148.485 E0.0483
G1 X124.82 Y148.137 E0.0644
G1 X125.137 Y147.82 E0.0804
G1 X125.485 Y147.538 E0.0965
G1 X125.861 Y147.29399999999998 E0.1126
G1 X126.26 Y147.091 E0.1287
G1 X126.678 Y146.93 E0.1448
G1 X127.11 Y146.814 E0.1609
G1 X127.553 Y146.744 E0.1770
G1 X128.019 Y146.72 E0.1937
G1 X181.981 Y146.72 E2.1321
G1 X182.447 Y146.744 E2.1489
G1 X182.89 Y146.815 E2.1650
G1 X183.322 Y146.93 E2.1811
G1 X183.74 Y147.091 E2.1972
G1 X184.139 Y147.29399999999998 E2.2132
G1 X184.515 Y147.538 E2.2293
G1 X184.863 Y147.82 E2.2454
G1 X185.18 Y148.137 E2.2615
G1 X185.462 Y148.485 E2.2776
G1 X185.70600000000002 Y148.861 E2.2937
G1 X185.909 Y149.26 E2.3098
G1 X186.07 Y149.678 E2.3259
G1 X186.185 Y150.11 E2.3420
G1 X186.256 Y150.553 E2.3580
G1 X186.28 Y151.019 E2.3748
G1 X186.28 Y158.981 E2.6608
G1 X186.256 Y159.447 E2.6776
G1 X186.185 Y159.89 E2.6937
G1 X186.07 Y160.322 E2.7098
G1 X185.909 Y160.74 E2.7259
G1 X185.70600000000002 Y161.14 E2.7419
G1 X185.462 Y161.515 E2.7580
G1 X185.18 Y161.863 E2.7741
G1 X184.863 Y162.18 E2.7902
G1 X184.515 Y162.462 E2.8063
G1 X184.14 Y162.70600000000002 E2.8224
G1 X183.74 Y162.909 E2.8385
G1 X183.322 Y163.07 E2.8546
G1 X182.89 Y163.186 E2.8707
G1 X182.447 Y163.256 E2.8867
G1 X181.981 Y163.28 E2.9035
G1 X128.019 Y163.28 E4.8419
G1 X127.553 Y163.256 E4.8587
G1 X127.11 Y163.185 E4.8747
G1 X126.678 Y163.07 E4.8908
G1 X126.26 Y162.909 E4.9069
G1 X125.86 Y162.70600000000002 E4.9230
G1 X125.485 Y162.462 E4.9391
G1 X125.137 Y162.18 E4.9552
G1 X124.82 Y161.863 E4.9713
G1 X124.538 Y161.515 E4.9874
G1 X124.294 Y161.139 E5.0035
G1 X124.09100000000001 Y160.74 E5.0195
G1 X123.93 Y160.322 E5.0356
G1 X123.814 Y159.89 E5.0517
G1 X123.744 Y159.447 E5.0678
G1 X123.727 Y159.111 E5.0799
G1 X123.72 Y151.019 E5.3706
G1 X123.744 Y150.553 E5.3873
G1 X123.814 Y150.11 E5.4034
G1 X123.93 Y149.678 E5.4195
; feature outer perimeter
G1 X123.473 Y149.529 F6000
G92 E0.0000
G1 X123.652 Y149.064 E0.0179 F1800
G1 X123.878 Y148.62 E0.0358
G1 X124.149 Y148.202 E0.0537
G1 X124.463 Y147.815 E0.0716
G1 X124.815 Y147.463 E0.0895
G1 X125.202 Y147.149 E0.1074
G1 X125.62 Y146.878 E0.1253
G1 X126.064 Y146.652 E0.1432
G1 X126.529 Y146.473 E0.1611
G1 X127.01 Y146.344 E0.1790
G1 X127.502 Y146.266 E0.1969
G1 X128.006 Y146.24 E0.2150
G1 X181.994 Y146.24 E2.1543
G1 X182.497 Y146.266 E2.1724
G1 X182.99 Y146.344 E2.1903
G1 X183.471 Y146.473 E2.2082
G1 X183.936 Y146.652 E2.2261
G1 X184.38 Y146.878 E2.2440
G1 X184.798 Y147.149 E2.2619
G1 X185.185 Y147.463 E2.2798
G1 X185.537 Y147.815 E2.2977
G1 X185.851 Y148.202 E2.3155
G1 X186.122 Y148.62 E2.3334
G1 X186.348 Y149.064 E2.3513
G1 X186.527 Y149.529 E2.3692
G1 X186.656 Y150.01 E2.3871
G1 X186.73399999999998 Y150.502 E2.4050
G1 X186.76 Y151.006 E2.4231
G1 X186.76 Y158.994 E2.7101
G1 X186.73399999999998 Y159.498 E2.7282
G1 X186.656 Y159.99 E2.7461
G1 X186.527 Y160.471 E2.7640
G1 X186.348 Y160.936 E2.7819
G1 X186.122 Y161.38 E2.7998
G1 X185.851 Y161.798 E2.8177
G1 X185.537 Y162.185 E2.8356
G1 X185.185 Y162.537 E2.8535
G1 X184.798 Y162.851 E2.8714
G1 X184.38 Y163.122 E2.8893
G1 X183.936 Y163.348 E2.9071
G1 X183.471 Y163.527 E2.9250
G1 X182.99 Y163.656 E2.9429
G1 X182.497 Y163.734 E2.9608
G1 X181.994 Y163.76 E2.9790
G1 X128.006 Y163.76 E4.9182
G1 X127.503 Y163.734 E4.9364
G1 X127.01 Y163.656 E4.9543
G1 X126.529 Y163.527 E4.9721
G1 X126.064 Y163.348 E4.9900
G1 X125.62 Y163.122 E5.0079
G1 X125.202 Y162.851 E5.0258
G1 X124.815 Y162.537 E5.0437
G1 X124.463 Y162.185 E5.0616
G1 X124.149 Y161.798 E5.0795
G1 X123.878 Y161.38 E5.0974
G1 X123.652 Y160.936 E5.1153
G1 X123.473 Y160.471 E5.1332
G1 X123.344 Y159.99 E5.1511
G1 X123.26599999999999 Y159.498 E5.1690
G1 X123.247 Y159.124 E5.1824
G1 X123.24 Y151.006 E5.4740
G1 X123.26599999999999 Y150.502 E5.4922
G1 X123.344 Y150.01 E5.5101
G1 X123.473 Y149.529 E5.5280
; feature solid layer
G1 X127.08500000000001 Y162.38400000000001 F6000
G92 E0.0000
G1 X124.616 Y159.915 E0.1254 F2880
G1 X124.56700000000001 Y159.73 E0.1323
G1 X124.509 Y159.367 E0.1455
G1 X124.496 Y159.11599999999999 E0.1545
G1 X127.884 Y162.504 E0.3266
G1 X128.039 Y162.512 E0.3322
G1 X128.571 Y162.512 E0.3513
G1 X124.494 Y158.435 E0.5584
G1 X124.494 Y157.756 E0.5828
G1 X129.25 Y162.512 E0.8244
G1 X129.929 Y162.512 E0.8488
G1 X124.493 Y157.077 E1.1249
G1 X124.493 Y156.397 E1.1493
G1 X130.607 Y162.512 E1.4599
G1 X131.286 Y162.512 E1.4843
G1 X124.492 Y155.71800000000002 E1.8295
G1 X124.491 Y155.038 E1.8539
G1 X131.965 Y162.512 E2.2335
G1 X132.644 Y162.512 E2.2579
G1 X124.491 Y154.359 E2.6721
G1 X124.49 Y153.68 E2.6965
G1 X133.323 Y162.512 E3.1452
G1 X134.001 Y162.512 E3.1696
G1 X124.49 Y153 E3.6527
G1 X124.489 Y152.321 E3.6772
G1 X134.68 Y162.512 E4.1949
G1 X135.359 Y162.512 E4.2192
G1 X124.489 Y151.641 E4.7715
G1 X124.488 Y151.038 E4.7931
G1 X124.492 Y150.966 E4.7957
G1 X136.038 Y162.512 E5.3823
G1 X136.71699999999998 Y162.512 E5.4067
G1 X124.554 Y150.349 E6.0245
G1 X124.56700000000001 Y150.27 E6.0274
G1 X124.662 Y149.915 E6.0406
G1 X124.7 Y149.816 E6.0444
G1 X137.39600000000002 Y162.512 E6.6894
G1 X138.074 Y162.512 E6.7137
G1 X124.90899999999999 Y149.346 E7.3826
G1 X124.96000000000001 Y149.245 E7.3866
G1 X125.16 Y148.937 E7.3998
G1 X125.168 Y148.927 E7.4003
G1 X138.753 Y162.512 E8.0904
G1 X139.43200000000002 Y162.512 E8.1148
G1 X125.482 Y148.561 E8.8235
G1 X125.651 Y148.392 E8.8321
G1 X125.839 Y148.24 E8.8408
G1 X140.111 Y162.512 E9.5658
G1 X140.79 Y162.512 E9.5902
G1 X126.241 Y147.963 E10.3292
G1 X126.572 Y147.793 E10.3426
G1 X126.701 Y147.744 E10.3476
G1 X141.469 Y162.512 E11.0978
G1 X142.147 Y162.512 E11.1221
G1 X127.21600000000001 Y147.58100000000002 E11.8806
G1 X127.27 Y147.567 E11.8826
G1 X127.633 Y147.50900000000001 E11.8958
G1 X127.814 Y147.5 E11.9023
G1 X142.826 Y162.512 E12.6650
G1 X143.505 Y162.512 E12.6893
G1 X128.481 Y147.488 E13.4526
G1 X129.16 Y147.488 E13.4769
G1 X144.184 Y162.512 E14.2402
G1 X144.863 Y162.512 E14.2645
G1 X129.839 Y147.488 E15.0278
G1 X130.517 Y147.488 E15.0521
G1 X145.541 Y162.512 E15.8154
G1 X146.22 Y162.512 E15.8397
G1 X131.196 Y147.488 E16.6030
G1 X131.875 Y147.488 E16.6273
G1 X146.899 Y162.512 E17.3906
G1 X147.578 Y162.512 E17.4149
G1 X132.554 Y147.488 E18.1782
G1 X133.233 Y147.488 E18.2025
G1 X148.257 Y162.512 E18.9658
G1 X148.936 Y162.512 E18.9901
G1 X133.912 Y147.488 E19.7534
G1 X134.59 Y147.488 E19.7777
G1 X149.614 Y162.512 E20.5410
G1 X150.293 Y162.512 E20.5653
G1 X135.269 Y147.488 E21.3286
G1 X135.948 Y147.488 E21.3529
G1 X150.972 Y162.512 E22.1162
G1 X151.651 Y162.512 E22.1405
G1 X136.627 Y147.488 E22.9038
G1 X137.30599999999998 Y147.488 E22.9281
G1 X152.32999999999998 Y162.512 E23.6914
G1 X153.008 Y162.512 E23.7158
G1 X137.984 Y147.488 E24.4790
G1 X138.663 Y147.488 E24.5034
G1 X153.687 Y162.512 E25.2666
G1 X154.36599999999999 Y162.512 E25.2910
G1 X139.34199999999998 Y147.488 E26.0542
G1 X140.02100000000002 Y147.488 E26.0786
G1 X155.04500000000002 Y162.512 E26.8418
G1 X155.724 Y162.512 E26.8662
G1 X140.7 Y147.488 E27.6294
G1 X141.379 Y147.488 E27.6538
G1 X156.403 Y162.512 E28.4170
G1 X157.08100000000002 Y162.512 E28.4414
G1 X142.05700000000002 Y147.488 E29.2046
G1 X142.736 Y147.488 E29.2290
G1 X157.76 Y162.512 E29.9922
G1 X158.439 Y162.512 E30.0166
G1 X143.415 Y147.488 E30.7798
G1 X144.094 Y147.488 E30.8042
G1 X159.118 Y162.512 E31.5674
G1 X159.797 Y162.512 E31.5918
G1 X144.773 Y147.488 E32.3550
G1 X145.452 Y147.488 E32.3794
G1 X160.476 Y162.512 E33.1426
G1 X161.154 Y162.512 E33.1670
G1 X146.13 Y147.488 E33.9302
G1 X146.809 Y147.488 E33.9546
G1 X161.833 Y162.512 E34.7178
G1 X162.512 Y162.512 E34.7422
G1 X147.488 Y147.488 E35.5054
G1 X148.167 Y147.488 E35.5298
G1 X163.191 Y162.512 E36.2930
G1 X163.87 Y162.512 E36.3174
G1 X148.846 Y147.488 E37.0806
G1 X149.524 Y147.488 E37.1050
G1 X164.548 Y162.512 E37.8682
G1 X165.227 Y162.512 E37.8926
G1 X150.203 Y147.488 E38.6558
G1 X150.882 Y147.488 E38.6802
G1 X165.906 Y162.512 E39.4434
G1 X166.585 Y162.512 E39.4678
G1 X151.561 Y147.488 E40.2310
G1 X152.24 Y147.488 E40.2554
G1 X167.264 Y162.512 E41.0186
G1 X167.94299999999998 Y162.512 E41.0430
G1 X152.91899999999998 Y147.488 E41.8062
G1 X153.597 Y147.488 E41.8306
G1 X168.621 Y162.512 E42.5938
G1 X169.3 Y162.512 E42.6182
G1 X154.276 Y147.488 E43.3814
G1 X154.95499999999998 Y147.488 E43.4058
G1 X169.97899999999998 Y162.512 E44.1690
G1 X170.65800000000002 Y162.512 E44.1934
G1 X155.63400000000001 Y147.488 E44.9566
G1 X156.313 Y147.488 E44.9810
G1 X171.337 Y162.512 E45.7442
G1 X172.01600000000002 Y162.512 E45.7686
G1 X156.992 Y147.488 E46.5318
G1 X157.67000000000002 Y147.488 E46.5562
G1 X172.69400000000002 Y162.512 E47.3194
G1 X173.373 Y162.512 E47.3438
G1 X158.349 Y147.488 E48.1070
G1 X159.028 Y147.488 E48.1314
G1 X174.05200000000002 Y162.512 E48.8946
G1 X174.731 Y162.512 E48.9190
G1 X159.707 Y147.488 E49.6822
G1 X160.386 Y147.488 E49.7066
G1 X175.41 Y162.512 E50.4698
G1 X176.088 Y162.512 E50.4942
G1 X161.064 Y147.488 E51.2574
G1 X161.743 Y147.488 E51.2818
G1 X176.767 Y162.512 E52.0450
G1 X177.446 Y162.512 E52.0694
G1 X162.422 Y147.488 E52.8326
G1 X163.101 Y147.488 E52.8570
G1 X178.125 Y162.512 E53.6202
G1 X178.804 Y162.512 E53.6446
G1 X163.78 Y147.488 E54.4078
G1 X164.459 Y147.488 E54.4322
G1 X179.483 Y162.512 E55.1954
G1 X180.161 Y162.512 E55.2198
G1 X165.137 Y147.488 E55.9830
G1 X165.816 Y147.488 E56.0074
G1 X180.84 Y162.512 E56.7706
G1 X181.519 Y162.512 E56.7950
G1 X166.495 Y147.488 E57.5582
G1 X167.174 Y147.488 E57.5826
G1 X182.186 Y162.5 E58.3452
G1 X182.36700000000002 Y162.49099999999999 E58.3517
G1 X182.73000000000002 Y162.433 E58.3649
G1 X182.784 Y162.41899999999998 E58.3669
G1 X167.853 Y147.488 E59.1254
G1 X168.53199999999998 Y147.488 E59.1498
G1 X183.299 Y162.256 E59.9000
G1 X183.428 Y162.207 E59.9049
G1 X183.755 Y162.04 E59.9181
G1 X183.75900000000001 Y162.037 E59.9183
G1 X169.20999999999998 Y147.488 E60.6574
G1 X169.889 Y147.488 E60.6818
G1 X184.161 Y161.76 E61.4068
G1 X184.349 Y161.608 E61.4155
G1 X184.518 Y161.439 E61.4241
G1 X170.56799999999998 Y147.488 E62.1328
G1 X171.247 Y147.488 E62.1572
G1 X184.832 Y161.073 E62.8473
G1 X184.84 Y161.063 E62.8477
G1 X185.04000000000002 Y160.755 E62.8609
G1 X185.091 Y160.654 E62.8650
G1 X171.926 Y147.488 E63.5338
G1 X172.60399999999998 Y147.488 E63.5582
G1 X185.3 Y160.184 E64.2031
G1 X185.338 Y160.085 E64.2069
G1 X185.433 Y159.73 E64.2201
G1 X185.446 Y159.651 E64.2230
G1 X173.28300000000002 Y147.488 E64.8409
G1 X173.962 Y147.488 E64.8653
G1 X185.50799999999998 Y159.034 E65.4518
G1 X185.512 Y158.961 E65.4544
G1 X185.512 Y158.359 E65.4761
G1 X174.64100000000002 Y147.488 E66.0283
G1 X175.32 Y147.488 E66.0527
G1 X185.512 Y157.68 E66.5705
G1 X185.512 Y157.001 E66.5948
G1 X175.999 Y147.488 E67.0781
G1 X176.67700000000002 Y147.488 E67.1025
G1 X185.512 Y156.323 E67.5513
G1 X185.512 Y155.644 E67.5757
G1 X177.356 Y147.488 E67.9900
G1 X178.035 Y147.488 E68.0144
G1 X185.512 Y154.965 E68.3942
G1 X185.512 Y154.286 E68.4186
G1 X178.714 Y147.488 E68.7639
G1 X179.393 Y147.488 E68.7883
G1 X185.512 Y153.607 E69.0992
G1 X185.512 Y152.929 E69.1236
G1 X180.071 Y147.488 E69.3999
G1 X180.75 Y147.488 E69.4243
G1 X185.512 Y152.25 E69.6662
G1 X185.512 Y151.571 E69.6906
G1 X181.429 Y147.488 E69.8980
G1 X181.961 Y147.488 E69.9171
G1 X182.11599999999999 Y147.496 E69.9227
G1 X185.50400000000002 Y150.88400000000001 E70.0948
G1 X185.49099999999999 Y150.633 E70.1038
G1 X185.433 Y150.27 E70.1170
G1 X185.38400000000001 Y150.085 E70.1239
G1 X182.91500000000002 Y147.61599999999999 E70.2493
G92 E0.0000
G1 E-0.4 F2400 ; custom retraction - A
; layer 4, Z = 0.800
; feature inner perimeter
;zhopupA
G1 X183.174 Y147.388 F6000
G1 Z0.800 F1200
G1 E0 F2400 ; custom un-retraction/prime - A
G92 E0.0000
G1 X183.54500000000002 Y147.53 E0.0143 F2700
G1 X183.899 Y147.711 E0.0286
G1 X184.233 Y147.927 E0.0428
G1 X184.542 Y148.177 E0.0571
G1 X184.82299999999998 Y148.458 E0.0714
G1 X185.07299999999998 Y148.767 E0.0857
G1 X185.289 Y149.101 E0.1000
G1 X185.47 Y149.45499999999998 E0.1143
G1 X185.612 Y149.826 E0.1285
G1 X185.715 Y150.21 E0.1428
G1 X185.77800000000002 Y150.603 E0.1571
G1 X185.8 Y151.031 E0.1725
G1 X185.8 Y158.969 E0.4576
G1 X185.77800000000002 Y159.397 E0.4730
G1 X185.715 Y159.79 E0.4873
G1 X185.612 Y160.174 E0.5016
G1 X185.47 Y160.54500000000002 E0.5159
G1 X185.289 Y160.899 E0.5302
G1 X185.07299999999998 Y161.233 E0.5444
G1 X184.82299999999998 Y161.541 E0.5587
G1 X184.541 Y161.823 E0.5730
G1 X184.233 Y162.073 E0.5873
G1 X183.899 Y162.289 E0.6016
G1 X183.54500000000002 Y162.47 E0.6158
G1 X183.174 Y162.612 E0.6301
G1 X182.79000000000002 Y162.715 E0.6444
G1 X182.397 Y162.778 E0.6587
G1 X181.969 Y162.8 E0.6741
G1 X128.031 Y162.8 E2.6116
G1 X127.60300000000001 Y162.778 E2.6270
G1 X127.21000000000001 Y162.715 E2.6413
G1 X126.826 Y162.612 E2.6555
G1 X126.455 Y162.47 E2.6698
G1 X126.101 Y162.289 E2.6841
G1 X125.767 Y162.073 E2.6984
G1 X125.459 Y161.823 E2.7127
G1 X125.17699999999999 Y161.541 E2.7270
G1 X124.92699999999999 Y161.233 E2.7412
G1 X124.711 Y160.899 E2.7555
G1 X124.53 Y160.54500000000002 E2.7698
G1 X124.388 Y160.174 E2.7841
G1 X124.285 Y159.79 E2.7984
G1 X124.22200000000001 Y159.397 E2.8126
G1 X124.21000000000001 Y159.151 E2.8215
G1 X124.2 Y151.031 E3.1132
G1 X124.22200000000001 Y150.603 E3.1286
G1 X124.285 Y150.21 E3.1429
G1 X124.388 Y149.826 E3.1571
G1 X124.53 Y149.45499999999998 E3.1714
G1 X124.711 Y149.101 E3.1857
G1 X124.92699999999999 Y148.767 E3.2000
G1 X125.17699999999999 Y148.458 E3.2143
G1 X125.458 Y148.177 E3.2285
G1 X125.767 Y147.927 E3.2428
G1 X126.101 Y147.711 E3.2571
G1 X126.455 Y147.53 E3.2714
G1 X126.826 Y147.388 E3.2857
G1 X127.21000000000001 Y147.285 E3.2999
G1 X127.60300000000001 Y147.222 E3.3142
G1 X128.031 Y147.2 E3.3296
G1 X181.969 Y147.2 E5.2671
G1 X182.397 Y147.222 E5.2825
G1 X182.79000000000002 Y147.285 E5.2968
G1 X183.174 Y147.388 E5.3111
G1 X183.322 Y146.93 F6000
G92 E0.0000
G1 X183.74 Y147.091 E0.0161 F2700
G1 X184.139 Y147.29399999999998 E0.0322
G1 X184.515 Y147.538 E0.0483
G1 X184.863 Y147.82 E0.0644
G1 X185.18 Y148.137 E0.0804
G1 X185.462 Y148.485 E0.0965
G1 X185.70600000000002 Y148.861 E0.1126
G1 X185.909 Y149.26 E0.1287
G1 X186.07 Y149.678 E0.1448
G1 X186.185 Y150.11 E0.1609
G1 X186.256 Y150.553 E0.1770
G1 X186.28 Y151.019 E0.1937
G1 X186.28 Y158.981 E0.4798
G1 X186.256 Y159.447 E0.4965
G1 X186.185 Y159.89 E0.5126
G1 X186.07 Y160.322 E0.5287
G1 X185.909 Y160.74 E0.5448
G1 X185.70600000000002 Y161.14 E0.5609
G1 X185.462 Y161.515 E0.5770
G1 X185.18 Y161.863 E0.5930
G1 X184.863 Y162.18 E0.6091
G1 X184.515 Y162.462 E0.6252
G1 X184.14 Y162.70600000000002 E0.6413
G1 X183.74 Y162.909 E0.6574
G1 X183.322 Y163.07 E0.6735
G1 X182.89 Y163.186 E0.6896
G1 X182.447 Y163.256 E0.7057
G1 X181.981 Y163.28 E0.7224
G1 X128.019 Y163.28 E2.6608
G1 X127.553 Y163.256 E2.6776
G1 X127.11 Y163.185 E2.6937
G1 X126.678 Y163.07 E2.7098
G1 X126.26 Y162.909 E2.7258
G1 X125.86 Y162.70600000000002 E2.7419
G1 X125.485 Y162.462 E2.7580
G1 X125.137 Y162.18 E2.7741
G1 X124.82 Y161.863 E2.7902
G1 X124.538 Y161.515 E2.8063
G1 X124.294 Y161.139 E2.8224
G1 X124.09100000000001 Y160.74 E2.8385
G1 X123.93 Y160.322 E2.8546
G1 X123.814 Y159.89 E2.8706
G1 X123.744 Y159.447 E2.8867
G1 X123.73 Y159.164 E2.8969
G1 X123.72 Y151.018 E3.1895
G1 X123.744 Y150.553 E3.2063
G1 X123.814 Y150.11 E3.2224
G1 X123.93 Y149.678 E3.2385
G1 X124.09100000000001 Y149.26 E3.2545
G1 X124.294 Y148.861 E3.2706
G1 X124.538 Y148.485 E3.2867
G1 X124.82 Y148.137 E3.3028
G1 X125.137 Y147.82 E3.3189
G1 X125.485 Y147.538 E3.3350
G1 X125.861 Y147.29399999999998 E3.3511
G1 X126.26 Y147.091 E3.3672
G1 X126.678 Y146.93 E3.3833
G1 X127.11 Y146.814 E3.3993
G1 X127.553 Y146.744 E3.4154
G1 X128.019 Y146.72 E3.4322
G1 X181.981 Y146.72 E5.3706
G1 X182.447 Y146.744 E5.3873
G1 X182.89 Y146.815 E5.4034
G1 X183.322 Y146.93 E5.4195
; feature outer perimeter
G1 X183.471 Y146.473 F6000
G92 E0.0000
G1 X183.936 Y146.652 E0.0179 F1800
G1 X184.38 Y146.878 E0.0358
G1 X184.798 Y147.149 E0.0537
G1 X185.185 Y147.463 E0.0716
G1 X185.537 Y147.815 E0.0895
G1 X185.851 Y148.202 E0.1074
G1 X186.122 Y148.62 E0.1253
G1 X186.348 Y149.064 E0.1432
G1 X186.527 Y149.529 E0.1611
G1 X186.656 Y150.01 E0.1790
G1 X186.73399999999998 Y150.502 E0.1969
G1 X186.76 Y151.006 E0.2150
G1 X186.76 Y158.994 E0.5019
G1 X186.73399999999998 Y159.498 E0.5200
G1 X186.656 Y159.99 E0.5379
G1 X186.527 Y160.471 E0.5558
G1 X186.348 Y160.936 E0.5737
G1 X186.122 Y161.38 E0.5916
G1 X185.851 Y161.798 E0.6095
G1 X185.537 Y162.185 E0.6274
G1 X185.185 Y162.537 E0.6453
G1 X184.798 Y162.851 E0.6632
G1 X184.38 Y163.122 E0.6811
G1 X183.936 Y163.348 E0.6990
G1 X183.471 Y163.527 E0.7169
G1 X182.99 Y163.656 E0.7348
G1 X182.497 Y163.734 E0.7527
G1 X181.994 Y163.76 E0.7708
G1 X128.006 Y163.76 E2.7101
G1 X127.503 Y163.734 E2.7282
G1 X127.01 Y163.656 E2.7461
G1 X126.529 Y163.527 E2.7640
G1 X126.064 Y163.348 E2.7819
G1 X125.62 Y163.122 E2.7998
G1 X125.202 Y162.851 E2.8177
G1 X124.815 Y162.537 E2.8356
G1 X124.463 Y162.185 E2.8535
G1 X124.149 Y161.798 E2.8714
G1 X123.878 Y161.38 E2.8892
G1 X123.652 Y160.936 E2.9071
G1 X123.473 Y160.471 E2.9250
G1 X123.344 Y159.99 E2.9429
G1 X123.26599999999999 Y159.498 E2.9608
G1 X123.25 Y159.177 E2.9724
G1 X123.24 Y151.006 E3.2659
G1 X123.26599999999999 Y150.502 E3.2840
G1 X123.344 Y150.01 E3.3019
G1 X123.473 Y149.529 E3.3198
G1 X123.652 Y149.064 E3.3377
G1 X123.878 Y148.62 E3.3556
G1 X124.149 Y148.202 E3.3735
G1 X124.463 Y147.815 E3.3914
G1 X124.815 Y147.463 E3.4093
G1 X125.202 Y147.149 E3.4272
G1 X125.62 Y146.878 E3.4450
G1 X126.064 Y146.652 E3.4629
G1 X126.529 Y146.473 E3.4808
G1 X127.01 Y146.344 E3.4987
G1 X127.502 Y146.266 E3.5166
G1 X128.006 Y146.24 E3.5348
G1 X181.994 Y146.24 E5.4740
G1 X182.497 Y146.266 E5.4922
G1 X182.99 Y146.344 E5.5101
G1 X183.471 Y146.473 E5.5279
; feature infill
; tool H0.200 W0.600
G1 X185.452 Y158.489 F6000
G92 E0.0000
G1 X181.489 Y162.452 E0.2516 F3600
G1 X173.00400000000002 Y162.452 E0.6326
G1 X185.332 Y150.124 E1.4155
G1 X185.281 Y149.934 E1.4243
G1 X185.152 Y149.597 E1.4405
G1 X184.988 Y149.275 E1.4567
G1 X184.791 Y148.972 E1.4729
G1 X184.564 Y148.692 E1.4892
G1 X184.308 Y148.436 E1.5054
G1 X184.02800000000002 Y148.209 E1.5216
G1 X183.725 Y148.012 E1.5378
G1 X183.40300000000002 Y147.848 E1.5540
G1 X183.066 Y147.719 E1.5702
G1 X182.71699999999998 Y147.626 E1.5864
G1 X182.361 Y147.56900000000002 E1.6027
G1 X181.959 Y147.548 E1.6207
G1 X179.423 Y147.548 E1.7346
G1 X164.519 Y162.452 E2.6810
G1 X156.03300000000002 Y162.452 E3.0620
G1 X170.937 Y147.548 E4.0084
G1 X162.452 Y147.548 E4.3894
G1 X147.548 Y162.452 E5.3358
G1 X139.063 Y162.452 E5.7168
G1 X153.96699999999998 Y147.548 E6.6632
G1 X145.481 Y147.548 E7.0442
G1 X130.577 Y162.452 E7.9906
G1 X128.041 Y162.452 E8.1045
G1 X127.639 Y162.43099999999998 E8.1225
G1 X127.283 Y162.374 E8.1388
G1 X126.934 Y162.281 E8.1550
G1 X126.59700000000001 Y162.152 E8.1712
G1 X126.275 Y161.988 E8.1874
G1 X125.97200000000001 Y161.791 E8.2036
G1 X125.69200000000001 Y161.564 E8.2198
G1 X125.436 Y161.308 E8.2361
G1 X125.209 Y161.028 E8.2523
G1 X125.012 Y160.725 E8.2685
G1 X124.848 Y160.403 E8.2847
G1 X124.719 Y160.066 E8.3009
G1 X124.668 Y159.876 E8.3097
G1 X136.996 Y147.548 E9.0926
G1 X128.511 Y147.548 E9.4736
G1 X124.549 Y151.51 E9.7252
G92 E0.0000
G1 E-0.4 F2400 ; custom retraction - A
; layer 5, Z = 1.000
;fan5
; feature inner perimeter
; tool H0.200 W0.480
;zhopupA
G1 X124.2 Y151.031 F6000
G1 Z1.000 F1200
G1 E0 F2400 ; custom un-retraction/prime - A
G92 E0.0000
G1 X124.22200000000001 Y150.603 E0.0154 F2700
G1 X124.285 Y150.21 E0.0297
G1 X124.388 Y149.826 E0.0440
G1 X124.53 Y149.45499999999998 E0.0583
G1 X124.711 Y149.101 E0.0725
G1 X124.92699999999999 Y148.767 E0.0868
G1 X125.17699999999999 Y148.458 E0.1011
G1 X125.458 Y148.177 E0.1154
G1 X125.767 Y147.927 E0.1297
G1 X126.101 Y147.711 E0.1439
G1 X126.455 Y147.53 E0.1582
G1 X126.826 Y147.388 E0.1725
G1 X127.21000000000001 Y147.285 E0.1868
G1 X127.60300000000001 Y147.222 E0.2011
G1 X128.031 Y147.2 E0.2165
G1 X181.969 Y147.2 E2.1540
G1 X182.397 Y147.222 E2.1694
G1 X182.79000000000002 Y147.285 E2.1837
G1 X183.174 Y147.388 E2.1979
G1 X183.54500000000002 Y147.53 E2.2122
G1 X183.899 Y147.711 E2.2265
G1 X184.233 Y147.927 E2.2408
G1 X184.542 Y148.177 E2.2551
G1 X184.82299999999998 Y148.458 E2.2693
G1 X185.07299999999998 Y148.767 E2.2836
G1 X185.289 Y149.101 E2.2979
G1 X185.47 Y149.45499999999998 E2.3122
G1 X185.612 Y149.826 E2.3265
G1 X185.715 Y150.21 E2.3407
G1 X185.77800000000002 Y150.603 E2.3550
G1 X185.8 Y151.031 E2.3704
G1 X185.8 Y158.969 E2.6556
G1 X185.77800000000002 Y159.397 E2.6710
G1 X185.715 Y159.79 E2.6852
G1 X185.612 Y160.174 E2.6995
G1 X185.47 Y160.54500000000002 E2.7138
G1 X185.289 Y160.899 E2.7281
G1 X185.07299999999998 Y161.233 E2.7424
G1 X184.82299999999998 Y161.541 E2.7566
G1 X184.541 Y161.823 E2.7709
G1 X184.233 Y162.073 E2.7852
G1 X183.899 Y162.289 E2.7995
G1 X183.54500000000002 Y162.47 E2.8138
G1 X183.174 Y162.612 E2.8281
G1 X182.79000000000002 Y162.715 E2.8423
G1 X182.397 Y162.778 E2.8566
G1 X181.969 Y162.8 E2.8720
G1 X128.031 Y162.8 E4.8095
G1 X127.60300000000001 Y162.778 E4.8249
G1 X127.21000000000001 Y162.715 E4.8392
G1 X126.826 Y162.612 E4.8535
G1 X126.455 Y162.47 E4.8678
G1 X126.101 Y162.289 E4.8820
G1 X125.767 Y162.073 E4.8963
G1 X125.459 Y161.823 E4.9106
G1 X125.17699999999999 Y161.541 E4.9249
G1 X124.92699999999999 Y161.233 E4.9392
G1 X124.711 Y160.899 E4.9535
G1 X124.53 Y160.54500000000002 E4.9677
G1 X124.388 Y160.174 E4.9820
G1 X124.285 Y159.79 E4.9963
G1 X124.22200000000001 Y159.397 E5.0106
G1 X124.2 Y158.969 E5.0260
G1 X124.2 Y151.031 E5.3111
G1 X123.72 Y151.019 F6000
G92 E0.0000
G1 X123.744 Y150.553 E0.0168 F2700
G1 X123.814 Y150.11 E0.0329
G1 X123.93 Y149.678 E0.0489
G1 X124.09100000000001 Y149.26 E0.0650
G1 X124.294 Y148.861 E0.0811
G1 X124.538 Y148.485 E0.0972
G1 X124.82 Y148.137 E0.1133
G1 X125.137 Y147.82 E0.1294
G1 X125.485 Y147.538 E0.1455
G1 X125.861 Y147.29399999999998 E0.1616
G1 X126.26 Y147.091 E0.1777
G1 X126.678 Y146.93 E0.1937
G1 X127.11 Y146.814 E0.2098
G1 X127.553 Y146.744 E0.2259
G1 X128.019 Y146.72 E0.2427
G1 X181.981 Y146.72 E2.1811
G1 X182.447 Y146.744 E2.1978
G1 X182.89 Y146.815 E2.2139
G1 X183.322 Y146.93 E2.2300
G1 X183.74 Y147.091 E2.2461
G1 X184.139 Y147.29399999999998 E2.2622
G1 X184.515 Y147.538 E2.2783
G1 X184.863 Y147.82 E2.2944
G1 X185.18 Y148.137 E2.3105
G1 X185.462 Y148.485 E2.3265
G1 X185.70600000000002 Y148.861 E2.3426
G1 X185.909 Y149.26 E2.3587
G1 X186.07 Y149.678 E2.3748
G1 X186.185 Y150.11 E2.3909
G1 X186.256 Y150.553 E2.4070
G1 X186.28 Y151.019 E2.4237
G1 X186.28 Y158.981 E2.7098
G1 X186.256 Y159.447 E2.7265
G1 X186.185 Y159.89 E2.7426
G1 X186.07 Y160.322 E2.7587
G1 X185.909 Y160.74 E2.7748
G1 X185.70600000000002 Y161.14 E2.7909
G1 X185.462 Y161.515 E2.8070
G1 X185.18 Y161.863 E2.8231
G1 X184.863 Y162.18 E2.8392
G1 X184.515 Y162.462 E2.8552
G1 X184.14 Y162.70600000000002 E2.8713
G1 X183.74 Y162.909 E2.8874
G1 X183.322 Y163.07 E2.9035
G1 X182.89 Y163.186 E2.9196
G1 X182.447 Y163.256 E2.9357
G1 X181.981 Y163.28 E2.9525
G1 X128.019 Y163.28 E4.8908
G1 X127.553 Y163.256 E4.9076
G1 X127.11 Y163.185 E4.9237
G1 X126.678 Y163.07 E4.9398
G1 X126.26 Y162.909 E4.9559
G1 X125.86 Y162.70600000000002 E4.9720
G1 X125.485 Y162.462 E4.9880
G1 X125.137 Y162.18 E5.0041
G1 X124.82 Y161.863 E5.0202
G1 X124.538 Y161.515 E5.0363
G1 X124.294 Y161.139 E5.0524
G1 X124.09100000000001 Y160.74 E5.0685
G1 X123.93 Y160.322 E5.0846
G1 X123.814 Y159.89 E5.1007
G1 X123.744 Y159.447 E5.1167
G1 X123.72 Y158.981 E5.1335
G1 X123.72 Y151.019 E5.4195
; feature outer perimeter
G1 X123.24 Y151.006 F6000
G92 E0.0000
G1 X123.26599999999999 Y150.502 E0.0181 F1800
G1 X123.344 Y150.01 E0.0360
G1 X123.473 Y149.529 E0.0539
G1 X123.652 Y149.064 E0.0718
G1 X123.878 Y148.62 E0.0897
G1 X124.149 Y148.202 E0.1076
G1 X124.463 Y147.815 E0.1255
G1 X124.815 Y147.463 E0.1434
G1 X125.202 Y147.149 E0.1613
G1 X125.62 Y146.878 E0.1792
G1 X126.064 Y146.652 E0.1971
G1 X126.529 Y146.473 E0.2150
G1 X127.01 Y146.344 E0.2329
G1 X127.502 Y146.266 E0.2508
G1 X128.006 Y146.24 E0.2689
G1 X181.994 Y146.24 E2.2082
G1 X182.497 Y146.266 E2.2263
G1 X182.99 Y146.344 E2.2442
G1 X183.471 Y146.473 E2.2621
G1 X183.936 Y146.652 E2.2800
G1 X184.38 Y146.878 E2.2979
G1 X184.798 Y147.149 E2.3158
G1 X185.185 Y147.463 E2.3337
G1 X185.537 Y147.815 E2.3516
G1 X185.851 Y148.202 E2.3695
G1 X186.122 Y148.62 E2.3874
G1 X186.348 Y149.064 E2.4053
G1 X186.527 Y149.529 E2.4231
G1 X186.656 Y150.01 E2.4410
G1 X186.73399999999998 Y150.502 E2.4589
G1 X186.76 Y151.006 E2.4771
G1 X186.76 Y158.994 E2.7640
G1 X186.73399999999998 Y159.498 E2.7821
G1 X186.656 Y159.99 E2.8000
G1 X186.527 Y160.471 E2.8179
G1 X186.348 Y160.936 E2.8358
G1 X186.122 Y161.38 E2.8537
G1 X185.851 Y161.798 E2.8716
G1 X185.537 Y162.185 E2.8895
G1 X185.185 Y162.537 E2.9074
G1 X184.798 Y162.851 E2.9253
G1 X184.38 Y163.122 E2.9432
G1 X183.936 Y163.348 E2.9611
G1 X183.471 Y163.527 E2.9790
G1 X182.99 Y163.656 E2.9968
G1 X182.497 Y163.734 E3.0148
G1 X181.994 Y163.76 E3.0329
G1 X128.006 Y163.76 E4.9721
G1 X127.503 Y163.734 E4.9903
G1 X127.01 Y163.656 E5.0082
G1 X126.529 Y163.527 E5.0261
G1 X126.064 Y163.348 E5.0440
G1 X125.62 Y163.122 E5.0619
G1 X125.202 Y162.851 E5.0798
G1 X124.815 Y162.537 E5.0976
G1 X124.463 Y162.185 E5.1155
G1 X124.149 Y161.798 E5.1334
G1 X123.878 Y161.38 E5.1513
G1 X123.652 Y160.936 E5.1692
G1 X123.473 Y160.471 E5.1871
G1 X123.344 Y159.99 E5.2050
G1 X123.26599999999999 Y159.498 E5.2229
G1 X123.24 Y158.994 E5.2410
G1 X123.24 Y151.006 E5.5280
; feature infill
; tool H0.200 W0.600
G1 X128.511 Y162.452 F6000
G92 E0.0000
G1 X124.548 Y158.489 E0.2516 F3600
G1 X124.548 Y151.041 E0.5861
G1 X124.569 Y150.639 E0.6041
G1 X124.626 Y150.28300000000002 E0.6203
G1 X124.668 Y150.124 E0.6277
G1 X136.996 Y162.452 E1.4106
G1 X145.481 Y162.452 E1.7916
G1 X130.577 Y147.548 E2.7380
G1 X139.063 Y147.548 E3.1190
G1 X153.96699999999998 Y162.452 E4.0654
G1 X162.452 Y162.452 E4.4464
G1 X147.548 Y147.548 E5.3928
G1 X156.03300000000002 Y147.548 E5.7738
G1 X170.937 Y162.452 E6.7202
G1 X179.423 Y162.452 E7.1012
G1 X164.519 Y147.548 E8.0476
G1 X173.00400000000002 Y147.548 E8.4286
G1 X185.332 Y159.876 E9.2114
G1 X185.374 Y159.71699999999998 E9.2188
G1 X185.43099999999998 Y159.361 E9.2350
G1 X185.452 Y158.959 E9.2530
G1 X185.452 Y151.511 E9.5875
G1 X181.489 Y147.548 E9.8391
G92 E0.0000
G1 E-0.4 F2400 ; custom retraction - A
; layer 6, Z = 1.200
; feature inner perimeter
; tool H0.200 W0.480
;zhopupA
G1 X181.969 Y147.2 F6000
G1 Z1.200 F1200
G1 E0 F2400 ; custom un-retraction/prime - A
G92 E0.0000
G1 X182.397 Y147.222 E0.0154 F2700
G1 X182.79000000000002 Y147.285 E0.0297
G1 X183.174 Y147.388 E0.0440
G1 X183.54500000000002 Y147.53 E0.0583
G1 X183.899 Y147.711 E0.0725
G1 X184.233 Y147.927 E0.0868
G1 X184.542 Y148.177 E0.1011
G1 X184.82299999999998 Y148.458 E0.1154
G1 X185.07299999999998 Y148.767 E0.1297
G1 X185.289 Y149.101 E0.1439
G1 X185.47 Y149.45499999999998 E0.1582
G1 X185.612 Y149.826 E0.1725
G1 X185.715 Y150.21 E0.1868
G1 X185.77800000000002 Y150.603 E0.2011
G1 X185.8 Y151.031 E0.2165
G1 X185.8 Y158.969 E0.5016
G1 X185.77800000000002 Y159.397 E0.5170
G1 X185.715 Y159.79 E0.5313
G1 X185.612 Y160.174 E0.5456
G1 X185.47 Y160.54500000000002 E0.5598
G1 X185.289 Y160.899 E0.5741
G1 X185.07299999999998 Y161.233 E0.5884
G1 X184.82299999999998 Y161.541 E0.6027
G1 X184.541 Y161.823 E0.6170
G1 X184.233 Y162.073 E0.6313
G1 X183.899 Y162.289 E0.6455
G1 X183.54500000000002 Y162.47 E0.6598
G1 X183.174 Y162.612 E0.6741
G1 X182.79000000000002 Y162.715 E0.6884
G1 X182.397 Y162.778 E0.7027
G1 X181.969 Y162.8 E0.7181
G1 X128.031 Y162.8 E2.6555
G1 X127.60300000000001 Y162.778 E2.6710
G1 X127.21000000000001 Y162.715 E2.6852
G1 X126.826 Y162.612 E2.6995
G1 X126.455 Y162.47 E2.7138
G1 X126.101 Y162.289 E2.7281
G1 X125.767 Y162.073 E2.7424
G1 X125.459 Y161.823 E2.7566
G1 X125.17699999999999 Y161.541 E2.7709
G1 X124.92699999999999 Y161.233 E2.7852
G1 X124.711 Y160.899 E2.7995
G1 X124.53 Y160.54500000000002 E2.8138
G1 X124.388 Y160.174 E2.8281
G1 X124.285 Y159.79 E2.8423
G1 X124.22200000000001 Y159.397 E2.8566
G1 X124.2 Y158.969 E2.8720
G1 X124.2 Y151.031 E3.1571
G1 X124.22200000000001 Y150.603 E3.1726
G1 X124.285 Y150.21 E3.1868
G1 X124.388 Y149.826 E3.2011
G1 X124.53 Y149.45499999999998 E3.2154
G1 X124.711 Y149.101 E3.2297
G1 X124.92699999999999 Y148.767 E3.2440
G1 X125.17699999999999 Y148.458 E3.2582
G1 X125.458 Y148.177 E3.2725
G1 X125.767 Y147.927 E3.2868
G1 X126.101 Y147.711 E3.3011
G1 X126.455 Y147.53 E3.3154
G1 X126.826 Y147.388 E3.3296
G1 X127.21000000000001 Y147.285 E3.3439
G1 X127.60300000000001 Y147.222 E3.3582
G1 X128.031 Y147.2 E3.3736
G1 X181.969 Y147.2 E5.3111
G1 X181.981 Y146.72 F6000
G92 E0.0000
G1 X182.447 Y146.744 E0.0168 F2700
G1 X182.89 Y146.815 E0.0329
G1 X183.322 Y146.93 E0.0489
G1 X183.74 Y147.091 E0.0650
G1 X184.139 Y147.29399999999998 E0.0811
G1 X184.515 Y147.538 E0.0972
G1 X184.863 Y147.82 E0.1133
G1 X185.18 Y148.137 E0.1294
G1 X185.462 Y148.485 E0.1455
G1 X185.70600000000002 Y148.861 E0.1616
G1 X185.909 Y149.26 E0.1777
G1 X186.07 Y149.678 E0.1937
G1 X186.185 Y150.11 E0.2098
G1 X186.256 Y150.553 E0.2259
G1 X186.28 Y151.019 E0.2427
G1 X186.28 Y158.981 E0.5287
G1 X186.256 Y159.447 E0.5455
G1 X186.185 Y159.89 E0.5616
G1 X186.07 Y160.322 E0.5776
G1 X185.909 Y160.74 E0.5937
G1 X185.70600000000002 Y161.14 E0.6098
G1 X185.462 Y161.515 E0.6259
G1 X185.18 Y161.863 E0.6420
G1 X184.863 Y162.18 E0.6581
G1 X184.515 Y162.462 E0.6742
G1 X184.14 Y162.70600000000002 E0.6903
G1 X183.74 Y162.909 E0.7064
G1 X183.322 Y163.07 E0.7224
G1 X182.89 Y163.186 E0.7385
G1 X182.447 Y163.256 E0.7546
G1 X181.981 Y163.28 E0.7714
G1 X128.019 Y163.28 E2.7098
G1 X127.553 Y163.256 E2.7265
G1 X127.11 Y163.185 E2.7426
G1 X126.678 Y163.07 E2.7587
G1 X126.26 Y162.909 E2.7748
G1 X125.86 Y162.70600000000002 E2.7909
G1 X125.485 Y162.462 E2.8070
G1 X125.137 Y162.18 E2.8231
G1 X124.82 Y161.863 E2.8392
G1 X124.538 Y161.515 E2.8552
G1 X124.294 Y161.139 E2.8713
G1 X124.09100000000001 Y160.74 E2.8874
G1 X123.93 Y160.322 E2.9035
G1 X123.814 Y159.89 E2.9196
G1 X123.744 Y159.447 E2.9357
G1 X123.72 Y158.981 E2.9525
G1 X123.72 Y151.019 E3.2385
G1 X123.744 Y150.553 E3.2552
G1 X123.814 Y150.11 E3.2713
G1 X123.93 Y149.678 E3.2874
G1 X124.09100000000001 Y149.26 E3.3035
G1 X124.294 Y148.861 E3.3196
G1 X124.538 Y148.485 E3.3357
G1 X124.82 Y148.137 E3.3518
G1 X125.137 Y147.82 E3.3679
G1 X125.485 Y147.538 E3.3839
G1 X125.861 Y147.29399999999998 E3.4000
G1 X126.26 Y147.091 E3.4161
G1 X126.678 Y146.93 E3.4322
G1 X127.11 Y146.814 E3.4483
G1 X127.553 Y146.744 E3.4644
G1 X128.019 Y146.72 E3.4812
G1 X181.981 Y146.72 E5.4195
; feature outer perimeter
G1 X181.994 Y146.24 F6000
G92 E0.0000
G1 X182.497 Y146.266 E0.0181 F1800
G1 X182.99 Y146.344 E0.0360
G1 X183.471 Y146.473 E0.0539
G1 X183.936 Y146.652 E0.0718
G1 X184.38 Y146.878 E0.0897
G1 X184.798 Y147.149 E0.1076
G1 X185.185 Y147.463 E0.1255
G1 X185.537 Y147.815 E0.1434
G1 X185.851 Y148.202 E0.1613
G1 X186.122 Y148.62 E0.1792
G1 X186.348 Y149.064 E0.1971
G1 X186.527 Y149.529 E0.2150
G1 X186.656 Y150.01 E0.2329
G1 X186.73399999999998 Y150.502 E0.2508
G1 X186.76 Y151.006 E0.2689
G1 X186.76 Y158.994 E0.5558
G1 X186.73399999999998 Y159.498 E0.5739
G1 X186.656 Y159.99 E0.5918
G1 X186.527 Y160.471 E0.6097
G1 X186.348 Y160.936 E0.6276
G1 X186.122 Y161.38 E0.6455
G1 X185.851 Y161.798 E0.6634
G1 X185.537 Y162.185 E0.6813
G1 X185.185 Y162.537 E0.6992
G1 X184.798 Y162.851 E0.7171
G1 X184.38 Y163.122 E0.7350
G1 X183.936 Y163.348 E0.7529
G1 X183.471 Y163.527 E0.7708
G1 X182.99 Y163.656 E0.7887
G1 X182.497 Y163.734 E0.8066
G1 X181.994 Y163.76 E0.8247
G1 X128.006 Y163.76 E2.7640
G1 X127.503 Y163.734 E2.7821
G1 X127.01 Y163.656 E2.8000
G1 X126.529 Y163.527 E2.8179
G1 X126.064 Y163.348 E2.8358
G1 X125.62 Y163.122 E2.8537
G1 X125.202 Y162.851 E2.8716
G1 X124.815 Y162.537 E2.8895
G1 X124.463 Y162.185 E2.9074
G1 X124.149 Y161.798 E2.9253
G1 X123.878 Y161.38 E2.9432
G1 X123.652 Y160.936 E2.9611
G1 X123.473 Y160.471 E2.9790
G1 X123.344 Y159.99 E2.9969
G1 X123.26599999999999 Y159.498 E3.0147
G1 X123.24 Y158.994 E3.0329
G1 X123.24 Y151.006 E3.3198
G1 X123.26599999999999 Y150.502 E3.3379
G1 X123.344 Y150.01 E3.3558
G1 X123.473 Y149.529 E3.3737
G1 X123.652 Y149.064 E3.3916
G1 X123.878 Y148.62 E3.4095
G1 X124.149 Y148.202 E3.4274
G1 X124.463 Y147.815 E3.4453
G1 X124.815 Y147.463 E3.4632
G1 X125.202 Y147.149 E3.4811
G1 X125.62 Y146.878 E3.4990
G1 X126.064 Y146.652 E3.5169
G1 X126.529 Y146.473 E3.5348
G1 X127.01 Y146.344 E3.5527
G1 X127.502 Y146.266 E3.5706
G1 X128.006 Y146.24 E3.5887
G1 X181.994 Y146.24 E5.5280
; feature infill
; tool H0.200 W0.600
G1 X185.452 Y158.489 F6000
G92 E0.0000
G1 X181.489 Y162.452 E0.2516 F3600
G1 X173.00400000000002 Y162.452 E0.6326
G1 X185.332 Y150.124 E1.4155
G1 X185.281 Y149.934 E1.4243
G1 X185.152 Y149.597 E1.4405
G1 X184.988 Y149.275 E1.4567
G1 X184.791 Y148.972 E1.4729
G1 X184.564 Y148.692 E1.4892
G1 X184.308 Y148.436 E1.5054
G1 X184.02800000000002 Y148.209 E1.5216
G1 X183.725 Y148.012 E1.5378
G1 X183.40300000000002 Y147.848 E1.5540
G1 X183.066 Y147.719 E1.5702
G1 X182.71699999999998 Y147.626 E1.5864
G1 X182.361 Y147.56900000000002 E1.6027
G1 X181.959 Y147.548 E1.6207
G1 X179.423 Y147.548 E1.7346
G1 X164.519 Y162.452 E2.6810
G1 X156.03300000000002 Y162.452 E3.0620
G1 X170.937 Y147.548 E4.0084
G1 X162.452 Y147.548 E4.3894
G1 X147.548 Y162.452 E5.3358
G1 X139.063 Y162.452 E5.7168
G1 X153.96699999999998 Y147.548 E6.6632
G1 X145.481 Y147.548 E7.0442
G1 X130.577 Y162.452 E7.9906
G1 X128.041 Y162.452 E8.1045
G1 X127.639 Y162.43099999999998 E8.1225
G1 X127.283 Y162.374 E8.1388
G1 X126.934 Y162.281 E8.1550
G1 X126.59700000000001 Y162.152 E8.1712
G1 X126.275 Y161.988 E8.1874
G1 X125.97200000000001 Y161.791 E8.2036
G1 X125.69200000000001 Y161.564 E8.2198
G1 X125.436 Y161.308 E8.2361
G1 X125.209 Y161.028 E8.2523
G1 X125.012 Y160.725 E8.2685
G1 X124.848 Y160.403 E8.2847
G1 X124.719 Y160.066 E8.3009
G1 X124.668 Y159.876 E8.3097
G1 X136.996 Y147.548 E9.0926
G1 X128.511 Y147.548 E9.4736
G1 X124.548 Y151.511 E9.7252
G92 E0.0000
G1 E-0.4 F2400 ; custom retraction - A
; layer 7, Z = 1.400
; feature inner perimeter
; tool H0.200 W0.480
;zhopupA
G1 X124.2 Y151.031 F6000
G1 Z1.400 F1200
G1 E0 F2400 ; custom un-retraction/prime - A
G92 E0.0000
G1 X124.22200000000001 Y150.603 E0.0154 F2700
G1 X124.285 Y150.21 E0.0297
G1 X124.388 Y149.826 E0.0440
G1 X124.53 Y149.45499999999998 E0.0583
G1 X124.711 Y149.101 E0.0725
G1 X124.92699999999999 Y148.767 E0.0868
G1 X125.17699999999999 Y148.458 E0.1011
G1 X125.458 Y148.177 E0.1154
G1 X125.767 Y147.927 E0.1297
G1 X126.101 Y147.711 E0.1439
G1 X126.455 Y147.53 E0.1582
G1 X126.826 Y147.388 E0.1725
G1 X127.21000000000001 Y147.285 E0.1868
G1 X127.60300000000001 Y147.222 E0.2011
G1 X128.031 Y147.2 E0.2165
G1 X181.969 Y147.2 E2.1540
G1 X182.397 Y147.222 E2.1694
G1 X182.79000000000002 Y147.285 E2.1837
G1 X183.174 Y147.388 E2.1979
G1 X183.54500000000002 Y147.53 E2.2122
G1 X183.899 Y147.711 E2.2265
G1 X184.233 Y147.927 E2.2408
G1 X184.542 Y148.177 E2.2551
G1 X184.82299999999998 Y148.458 E2.2693
G1 X185.07299999999998 Y148.767 E2.2836
G1 X185.289 Y149.101 E2.2979
G1 X185.47 Y149.45499999999998 E2.3122
G1 X185.612 Y149.826 E2.3265
G1 X185.715 Y150.21 E2.3407
G1 X185.77800000000002 Y150.603 E2.3550
G1 X185.8 Y151.031 E2.3704
G1 X185.8 Y158.969 E2.6556
G1 X185.77800000000002 Y159.397 E2.6710
G1 X185.715 Y159.79 E2.6852
G1 X185.612 Y160.174 E2.6995
G1 X185.47 Y160.54500000000002 E2.7138
G1 X185.289 Y160.899 E2.7281
G1 X185.07299999999998 Y161.233 E2.7424
G1 X184.82299999999998 Y161.541 E2.7566
G1 X184.541 Y161.823 E2.7709
G1 X184.233 Y162.073 E2.7852
G1 X183.899 Y162.289 E2.7995
G1 X183.54500000000002 Y162.47 E2.8138
G1 X183.174 Y162.612 E2.8281
G1 X182.79000000000002 Y162.715 E2.8423
G1 X182.397 Y162.778 E2.8566
G1 X181.969 Y162.8 E2.8720
G1 X128.031 Y162.8 E4.8095
G1 X127.60300000000001 Y162.778 E4.8249
G1 X127.21000000000001 Y162.715 E4.8392
G1 X126.826 Y162.612 E4.8535
G1 X126.455 Y162.47 E4.8678
G1 X126.101 Y162.289 E4.8820
G1 X125.767 Y162.073 E4.8963
G1 X125.459 Y161.823 E4.9106
G1 X125.17699999999999 Y161.541 E4.9249
G1 X124.92699999999999 Y161.233 E4.9392
G1 X124.711 Y160.899 E4.9535
G1 X124.53 Y160.54500000000002 E4.9677
G1 X124.388 Y160.174 E4.9820
G1 X124.285 Y159.79 E4.9963
G1 X124.22200000000001 Y159.397 E5.0106
G1 X124.2 Y158.969 E5.0260
G1 X124.2 Y151.031 E5.3111
G1 X123.72 Y151.019 F6000
G92 E0.0000
G1 X123.744 Y150.553 E0.0168 F2700
G1 X123.814 Y150.11 E0.0329
G1 X123.93 Y149.678 E0.0489
G1 X124.09100000000001 Y149.26 E0.0650
G1 X124.294 Y148.861 E0.0811
G1 X124.538 Y148.485 E0.0972
G1 X124.82 Y148.137 E0.1133
G1 X125.137 Y147.82 E0.1294
G1 X125.485 Y147.538 E0.1455
G1 X125.861 Y147.29399999999998 E0.1616
G1 X126.26 Y147.091 E0.1777
G1 X126.678 Y146.93 E0.1937
G1 X127.11 Y146.814 E0.2098
G1 X127.553 Y146.744 E0.2259
G1 X128.019 Y146.72 E0.2427
G1 X181.981 Y146.72 E2.1811
G1 X182.447 Y146.744 E2.1978
G1 X182.89 Y146.815 E2.2139
G1 X183.322 Y146.93 E2.2300
G1 X183.74 Y147.091 E2.2461
G1 X184.139 Y147.29399999999998 E2.2622
G1 X184.515 Y147.538 E2.2783
G1 X184.863 Y147.82 E2.2944
G1 X185.18 Y148.137 E2.3105
G1 X185.462 Y148.485 E2.3265
G1 X185.70600000000002 Y148.861 E2.3426
G1 X185.909 Y149.26 E2.3587
G1 X186.07 Y149.678 E2.3748
G1 X186.185 Y150.11 E2.3909
G1 X186.256 Y150.553 E2.4070
G1 X186.28 Y151.019 E2.4237
G1 X186.28 Y158.981 E2.7098
G1 X186.256 Y159.447 E2.7265
G1 X186.185 Y159.89 E2.7426
G1 X186.07 Y160.322 E2.7587
G1 X185.909 Y160.74 E2.7748
G1 X185.70600000000002 Y161.14 E2.7909
G1 X185.462 Y161.515 E2.8070
G1 X185.18 Y161.863 E2.8231
G1 X184.863 Y162.18 E2.8392
G1 X184.515 Y162.462 E2.8552
G1 X184.14 Y162.70600000000002 E2.8713
G1 X183.74 Y162.909 E2.8874
G1 X183.322 Y163.07 E2.9035
G1 X182.89 Y163.186 E2.9196
G1 X182.447 Y163.256 E2.9357
G1 X181.981 Y163.28 E2.9525
G1 X128.019 Y163.28 E4.8908
G1 X127.553 Y163.256 E4.9076
G1 X127.11 Y163.185 E4.9237
G1 X126.678 Y163.07 E4.9398
G1 X126.26 Y162.909 E4.9559
G1 X125.86 Y162.70600000000002 E4.9720
G1 X125.485 Y162.462 E4.9880
G1 X125.137 Y162.18 E5.0041
G1 X124.82 Y161.863 E5.0202
G1 X124.538 Y161.515 E5.0363
G1 X124.294 Y161.139 E5.0524
G1 X124.09100000000001 Y160.74 E5.0685
G1 X123.93 Y160.322 E5.0846
G1 X123.814 Y159.89 E5.1007
G1 X123.744 Y159.447 E5.1167
G1 X123.72 Y158.981 E5.1335
G1 X123.72 Y151.019 E5.4195
; feature outer perimeter
G1 X123.24 Y151.006 F6000
G92 E0.0000
G1 X123.26599999999999 Y150.502 E0.0181 F1800
G1 X123.344 Y150.01 E0.0360
G1 X123.473 Y149.529 E0.0539
G1 X123.652 Y149.064 E0.0718
G1 X123.878 Y148.62 E0.0897
G1 X124.149 Y148.202 E0.1076
G1 X124.463 Y147.815 E0.1255
G1 X124.815 Y147.463 E0.1434
G1 X125.202 Y147.149 E0.1613
G1 X125.62 Y146.878 E0.1792
G1 X126.064 Y146.652 E0.1971
G1 X126.529 Y146.473 E0.2150
G1 X127.01 Y146.344 E0.2329
G1 X127.502 Y146.266 E0.2508
G1 X128.006 Y146.24 E0.2689
G1 X181.994 Y146.24 E2.2082
G1 X182.497 Y146.266 E2.2263
G1 X182.99 Y146.344 E2.2442
G1 X183.471 Y146.473 E2.2621
G1 X183.936 Y146.652 E2.2800
G1 X184.38 Y146.878 E2.2979
G1 X184.798 Y147.149 E2.3158
G1 X185.185 Y147.463 E2.3337
G1 X185.537 Y147.815 E2.3516
G1 X185.851 Y148.202 E2.3695
G1 X186.122 Y148.62 E2.3874
G1 X186.348 Y149.064 E2.4053
G1 X186.527 Y149.529 E2.4231
G1 X186.656 Y150.01 E2.4410
G1 X186.73399999999998 Y150.502 E2.4589
G1 X186.76 Y151.006 E2.4771
G1 X186.76 Y158.994 E2.7640
G1 X186.73399999999998 Y159.498 E2.7821
G1 X186.656 Y159.99 E2.8000
G1 X186.527 Y160.471 E2.8179
G1 X186.348 Y160.936 E2.8358
G1 X186.122 Y161.38 E2.8537
G1 X185.851 Y161.798 E2.8716
G1 X185.537 Y162.185 E2.8895
G1 X185.185 Y162.537 E2.9074
G1 X184.798 Y162.851 E2.9253
G1 X184.38 Y163.122 E2.9432
G1 X183.936 Y163.348 E2.9611
G1 X183.471 Y163.527 E2.9790
G1 X182.99 Y163.656 E2.9968
G1 X182.497 Y163.734 E3.0148
G1 X181.994 Y163.76 E3.0329
G1 X128.006 Y163.76 E4.9721
G1 X127.503 Y163.734 E4.9903
G1 X127.01 Y163.656 E5.0082
G1 X126.529 Y163.527 E5.0261
G1 X126.064 Y163.348 E5.0440
G1 X125.62 Y163.122 E5.0619
G1 X125.202 Y162.851 E5.0798
G1 X124.815 Y162.537 E5.0976
G1 X124.463 Y162.185 E5.1155
G1 X124.149 Y161.798 E5.1334
G1 X123.878 Y161.38 E5.1513
G1 X123.652 Y160.936 E5.1692
G1 X123.473 Y160.471 E5.1871
G1 X123.344 Y159.99 E5.2050
G1 X123.26599999999999 Y159.498 E5.2229
G1 X123.24 Y158.994 E5.2410
G1 X123.24 Y151.006 E5.5280
; feature solid layer
G1 X128.965 Y156.796 F6000
G92 E0.0000
G1 X134.68 Y162.512 E0.2903 F2880
G1 X135.359 Y162.512 E0.3147
G1 X129.826 Y156.97899999999998 E0.5958
G1 X129.838 Y156.98 E0.5962
G1 X130.162 Y156.98 E0.6079
G1 X130.472 Y156.947 E0.6191
G1 X136.038 Y162.512 E0.9018
G1 X136.71699999999998 Y162.512 E0.9262
G1 X131.01 Y156.805 E1.2161
G1 X131.107 Y156.772 E1.2198
G1 X131.401 Y156.636 E1.2314
G1 X131.475 Y156.59199999999998 E1.2345
G1 X137.39600000000002 Y162.512 E1.5353
G1 X138.074 Y162.512 E1.5597
G1 X131.879 Y156.317 E1.8744
G1 X131.936 Y156.273 E1.8770
G1 X132.171 Y156.051 E1.8886
G1 X132.227 Y155.985 E1.8917
G1 X138.753 Y162.512 E2.2232
G1 X139.43200000000002 Y162.512 E2.2476
G1 X132.519 Y155.599 E2.5988
G1 X132.562 Y155.536 E2.6015
G1 X132.714 Y155.25 E2.6132
G1 X132.752 Y155.154 E2.6169
G1 X140.111 Y162.512 E2.9907
G1 X140.79 Y162.512 E3.0151
G1 X132.919 Y154.642 E3.4149
G1 X132.973 Y154.31799999999998 E3.4267
G1 X132.988 Y154.03199999999998 E3.4370
G1 X141.469 Y162.512 E3.8677
G1 X142.147 Y162.512 E3.8921
G1 X132.895 Y153.26 E4.3621
G1 X127.08500000000001 Y162.38400000000001 F6000
G92 E0.0000
G1 X124.616 Y159.915 E0.1254 F2880
G1 X124.56700000000001 Y159.73 E0.1323
G1 X124.509 Y159.367 E0.1455
G1 X124.496 Y159.11599999999999 E0.1545
G1 X127.884 Y162.504 E0.3266
G1 X128.039 Y162.512 E0.3322
G1 X128.571 Y162.512 E0.3513
G1 X124.488 Y158.429 E0.5587
G1 X124.488 Y157.75 E0.5831
G1 X129.25 Y162.512 E0.8250
G1 X129.929 Y162.512 E0.8494
G1 X124.488 Y157.071 E1.1257
G1 X124.488 Y156.393 E1.1501
G1 X130.607 Y162.512 E1.4610
G1 X131.286 Y162.512 E1.4854
G1 X124.488 Y155.714 E1.8307
G1 X124.488 Y155.035 E1.8551
G1 X131.965 Y162.512 E2.2349
G1 X132.644 Y162.512 E2.2593
G1 X124.488 Y154.356 E2.6736
G1 X124.488 Y153.677 E2.6980
G1 X133.323 Y162.512 E3.1468
G1 X134.001 Y162.512 E3.1712
G1 X124.488 Y152.999 E3.6545
G1 X124.488 Y152.32 E3.6789
G1 X127.19800000000001 Y155.03 E3.8165
G1 X127.166 Y154.949 E3.8197
G1 X127.07900000000001 Y154.637 E3.8313
G1 X127.027 Y154.31799999999998 E3.8429
G1 X127.019 Y154.172 E3.8482
G1 X124.488 Y151.641 E3.9768
G1 X124.488 Y151.039 E3.9984
G1 X124.492 Y150.966 E4.0010
G1 X127.051 Y153.525 E4.1310
G1 X127.07900000000001 Y153.351 E4.1373
G1 X127.166 Y153.039 E4.1490
G1 X127.188 Y152.984 E4.1511
G1 X124.554 Y150.349 E4.2849
G1 X124.56700000000001 Y150.27 E4.2878
G1 X124.662 Y149.915 E4.3010
G1 X124.7 Y149.816 E4.3048
G1 X127.402 Y152.519 E4.4421
G1 X127.438 Y152.452 E4.4448
G1 X127.619 Y152.184 E4.4564
G1 X127.678 Y152.115 E4.4597
G1 X124.90899999999999 Y149.346 E4.6004
G1 X124.96000000000001 Y149.245 E4.6044
G1 X125.16 Y148.937 E4.6176
G1 X125.168 Y148.927 E4.6181
G1 X128.00900000000001 Y151.767 E4.7624
G1 X128.064 Y151.715 E4.7651
G1 X128.322 Y151.519 E4.7767
G1 X128.395 Y151.475 E4.7798
G1 X125.482 Y148.561 E4.9278
G1 X125.652 Y148.391 E4.9365
G1 X125.839 Y148.24 E4.9451
G1 X128.84 Y151.24099999999999 E5.0976
G1 X128.893 Y151.216 E5.0997
G1 X129.2 Y151.113 E5.1113
G1 X129.356 Y151.078 E5.1170
G1 X126.241 Y147.963 E5.2753
G1 X126.572 Y147.79399999999998 E5.2887
G1 X126.701 Y147.744 E5.2936
G1 X129.965 Y151.008 E5.4594
G1 X130.162 Y151.008 E5.4665
G1 X130.484 Y151.043 E5.4781
G1 X130.733 Y151.098 E5.4873
G1 X127.21600000000001 Y147.58100000000002 E5.6660
G1 X127.27 Y147.567 E5.6680
G1 X127.633 Y147.50900000000001 E5.6812
G1 X127.814 Y147.5 E5.6877
G1 X142.826 Y162.512 E6.4503
G1 X143.505 Y162.512 E6.4747
G1 X128.481 Y147.488 E7.2379
G1 X129.16 Y147.488 E7.2623
G1 X144.184 Y162.512 E8.0255
G1 X144.863 Y162.512 E8.0499
G1 X129.839 Y147.488 E8.8131
G1 X130.517 Y147.488 E8.8375
G1 X145.541 Y162.512 E9.6007
G1 X146.22 Y162.512 E9.6251
G1 X131.196 Y147.488 E10.3883
G1 X131.875 Y147.488 E10.4127
G1 X146.899 Y162.512 E11.1759
G1 X147.578 Y162.512 E11.2003
G1 X132.554 Y147.488 E11.9635
G1 X133.233 Y147.488 E11.9879
G1 X148.257 Y162.512 E12.7511
G1 X148.936 Y162.512 E12.7755
G1 X133.912 Y147.488 E13.5387
G1 X134.59 Y147.488 E13.5631
G1 X149.614 Y162.512 E14.3263
G1 X150.293 Y162.512 E14.3507
G1 X135.269 Y147.488 E15.1139
G1 X135.948 Y147.488 E15.1383
G1 X150.972 Y162.512 E15.9015
G1 X151.651 Y162.512 E15.9259
G1 X136.627 Y147.488 E16.6891
G1 X137.30599999999998 Y147.488 E16.7135
G1 X152.32999999999998 Y162.512 E17.4767
G1 X153.008 Y162.512 E17.5011
G1 X137.984 Y147.488 E18.2643
G1 X138.663 Y147.488 E18.2887
G1 X153.687 Y162.512 E19.0519
G1 X154.36599999999999 Y162.512 E19.0763
G1 X139.34199999999998 Y147.488 E19.8395
G1 X140.02100000000002 Y147.488 E19.8639
G1 X155.04500000000002 Y162.512 E20.6271
G1 X155.724 Y162.512 E20.6515
G1 X140.7 Y147.488 E21.4147
G1 X141.379 Y147.488 E21.4391
G1 X156.403 Y162.512 E22.2023
G1 X157.08100000000002 Y162.512 E22.2267
G1 X142.05700000000002 Y147.488 E22.9899
G1 X142.736 Y147.488 E23.0143
G1 X157.76 Y162.512 E23.7775
G1 X158.439 Y162.512 E23.8019
G1 X143.415 Y147.488 E24.5651
G1 X144.094 Y147.488 E24.5895
G1 X159.118 Y162.512 E25.3527
G1 X159.797 Y162.512 E25.3771
G1 X144.773 Y147.488 E26.1403
G1 X145.452 Y147.488 E26.1647
G1 X160.476 Y162.512 E26.9279
G1 X161.154 Y162.512 E26.9523
G1 X146.13 Y147.488 E27.7155
G1 X146.809 Y147.488 E27.7399
G1 X161.833 Y162.512 E28.5031
G1 X162.512 Y162.512 E28.5275
G1 X147.488 Y147.488 E29.2907
G1 X148.167 Y147.488 E29.3151
G1 X163.191 Y162.512 E30.0783
G1 X163.87 Y162.512 E30.1027
G1 X148.846 Y147.488 E30.8659
G1 X149.524 Y147.488 E30.8903
G1 X164.548 Y162.512 E31.6535
G1 X165.227 Y162.512 E31.6779
G1 X150.203 Y147.488 E32.4411
G1 X150.882 Y147.488 E32.4655
G1 X165.906 Y162.512 E33.2287
G1 X166.585 Y162.512 E33.2531
G1 X151.561 Y147.488 E34.0163
G1 X152.24 Y147.488 E34.0407
G1 X167.264 Y162.512 E34.8039
G1 X167.94299999999998 Y162.512 E34.8283
G1 X152.91899999999998 Y147.488 E35.5915
G1 X153.597 Y147.488 E35.6159
G1 X168.621 Y162.512 E36.3791
G1 X169.3 Y162.512 E36.4035
G1 X154.276 Y147.488 E37.1667
G1 X154.95499999999998 Y147.488 E37.1911
G1 X169.97899999999998 Y162.512 E37.9543
G1 X170.65800000000002 Y162.512 E37.9787
G1 X155.63400000000001 Y147.488 E38.7419
G1 X156.313 Y147.488 E38.7663
G1 X171.337 Y162.512 E39.5295
G1 X172.01600000000002 Y162.512 E39.5539
G1 X156.992 Y147.488 E40.3171
G1 X157.67000000000002 Y147.488 E40.3415
G1 X172.69400000000002 Y162.512 E41.1047
G1 X173.373 Y162.512 E41.1291
G1 X158.349 Y147.488 E41.8923
G1 X159.028 Y147.488 E41.9167
G1 X174.05200000000002 Y162.512 E42.6799
G1 X174.731 Y162.512 E42.7043
G1 X159.707 Y147.488 E43.4675
G1 X160.386 Y147.488 E43.4919
G1 X175.41 Y162.512 E44.2551
G1 X176.088 Y162.512 E44.2795
G1 X161.064 Y147.488 E45.0427
G1 X161.743 Y147.488 E45.0671
G1 X176.767 Y162.512 E45.8303
G1 X177.446 Y162.512 E45.8547
G1 X162.422 Y147.488 E46.6179
G1 X163.101 Y147.488 E46.6423
G1 X178.125 Y162.512 E47.4055
G1 X178.804 Y162.512 E47.4299
G1 X163.78 Y147.488 E48.1931
G1 X164.459 Y147.488 E48.2175
G1 X179.483 Y162.512 E48.9807
G1 X180.161 Y162.512 E49.0051
G1 X165.137 Y147.488 E49.7683
G1 X165.816 Y147.488 E49.7927
G1 X180.84 Y162.512 E50.5559
G1 X181.519 Y162.512 E50.5803
G1 X166.495 Y147.488 E51.3435
G1 X167.174 Y147.488 E51.3679
G1 X182.186 Y162.5 E52.1305
G1 X182.36700000000002 Y162.49099999999999 E52.1370
G1 X182.73000000000002 Y162.433 E52.1503
G1 X182.784 Y162.41899999999998 E52.1522
G1 X167.853 Y147.488 E52.9107
G1 X168.53199999999998 Y147.488 E52.9351
G1 X183.299 Y162.256 E53.6853
G1 X183.428 Y162.207 E53.6903
G1 X183.755 Y162.04 E53.7035
G1 X183.75900000000001 Y162.037 E53.7036
G1 X169.20999999999998 Y147.488 E54.4427
G1 X169.889 Y147.488 E54.4671
G1 X177.095 Y154.69400000000002 E54.8332
G1 X177.079 Y154.637 E54.8353
G1 X177.027 Y154.31799999999998 E54.8469
G1 X177.00900000000001 Y153.994 E54.8586
G1 X177.013 Y153.933 E54.8608
G1 X170.56799999999998 Y147.488 E55.1882
G1 X171.247 Y147.488 E55.2125
G1 X177.086 Y153.327 E55.5092
G1 X177.166 Y153.039 E55.5199
G1 X177.255 Y152.817 E55.5285
G1 X171.926 Y147.488 E55.7992
G1 X172.60399999999998 Y147.488 E55.8236
G1 X177.49099999999999 Y152.374 E56.0718
G1 X177.619 Y152.184 E56.0801
G1 X177.785 Y151.99 E56.0892
G1 X173.28300000000002 Y147.488 E56.3179
G1 X173.962 Y147.488 E56.3423
G1 X178.135 Y151.661 E56.5543
G1 X178.322 Y151.519 E56.5627
G1 X178.54000000000002 Y151.387 E56.5719
G1 X174.64100000000002 Y147.488 E56.7700
G1 X175.32 Y147.488 E56.7944
G1 X179.00900000000001 Y151.177 E56.9818
G1 X179.2 Y151.113 E56.9890
G1 X179.51600000000002 Y151.043 E57.0006
G1 X179.55 Y151.039 E57.0019
G1 X175.999 Y147.488 E57.1823
G1 X176.67700000000002 Y147.488 E57.2066
G1 X180.202 Y151.012 E57.3857
G1 X180.48399999999998 Y151.043 E57.3959
G1 X180.79399999999998 Y151.111 E57.4073
G1 X181.07299999999998 Y151.20499999999998 E57.4179
G1 X177.356 Y147.488 E57.6067
G1 X178.035 Y147.488 E57.6311
G1 X185.512 Y154.965 E58.0109
G1 X185.512 Y154.286 E58.0353
G1 X178.714 Y147.488 E58.3806
G1 X179.393 Y147.488 E58.4050
G1 X185.512 Y153.607 E58.7159
G1 X185.512 Y152.929 E58.7402
G1 X180.071 Y147.488 E59.0166
G1 X180.75 Y147.488 E59.0410
G1 X185.512 Y152.25 E59.2829
G1 X185.512 Y151.571 E59.3073
G1 X181.429 Y147.488 E59.5147
G1 X181.961 Y147.488 E59.5338
G1 X182.076 Y147.494 E59.5379
G1 X182.11599999999999 Y147.496 E59.5394
G1 X185.50400000000002 Y150.88400000000001 E59.7115
G1 X185.49099999999999 Y150.633 E59.7205
G1 X185.433 Y150.27 E59.7337
G1 X185.38400000000001 Y150.085 E59.7406
G1 X182.91500000000002 Y147.61599999999999 E59.8660
G1 X182.785 Y152.917 F6000
G92 E0.0000
G1 X185.512 Y155.644 E0.1385 F2880
G1 X185.512 Y156.323 E0.1629
G1 X182.97899999999998 Y153.79 E0.2916
G1 X182.99099999999999 Y153.994 E0.2989
G1 X182.973 Y154.31799999999998 E0.3105
G1 X182.953 Y154.442 E0.3151
G1 X185.512 Y157.001 E0.4451
G1 X185.512 Y157.68 E0.4695
G1 X182.81900000000002 Y154.987 E0.6063
G1 X182.714 Y155.25 E0.6164
G1 X182.606 Y155.453 E0.6247
G1 X185.512 Y158.359 E0.7723
G1 X185.512 Y158.961 E0.7939
G1 X185.50799999999998 Y159.034 E0.7966
G1 X182.334 Y155.86 E0.9578
G1 X182.171 Y156.051 E0.9668
G1 X182.00400000000002 Y156.209 E0.9751
G1 X185.446 Y159.651 E1.1499
G1 X185.433 Y159.73 E1.1528
G1 X185.338 Y160.085 E1.1660
G1 X185.3 Y160.184 E1.1698
G1 X181.62099999999998 Y156.504 E1.3568
G1 X181.401 Y156.636 E1.3660
G1 X181.17700000000002 Y156.74 E1.3748
G1 X185.091 Y160.654 E1.5736
G1 X185.04000000000002 Y160.755 E1.5777
G1 X184.84 Y161.063 E1.5909
G1 X184.832 Y161.073 E1.5914
G1 X180.664 Y156.906 E1.8031
G1 X180.48399999999998 Y156.945 E1.8097
G1 X180.162 Y156.98 E1.8213
G1 X180.06 Y156.98 E1.8250
G1 X184.518 Y161.439 E2.0515
G1 X184.349 Y161.608 E2.0601
G1 X184.161 Y161.76 E2.0688
G1 X179.299 Y156.897 E2.3158
G92 E0.0000
G1 E-0.4 F2400 ; custom retraction - A
; layer 8, Z = 1.600
; feature inner perimeter
;zhopupA
G1 X181.969 Y162.8 F6000
G1 Z1.600 F1200
G1 E0 F2400 ; custom un-retraction/prime - A
G92 E0.0000
G1 X128.031 Y162.8 E1.9375 F2700
G1 X127.60300000000001 Y162.778 E1.9529
G1 X127.21000000000001 Y162.715 E1.9672
G1 X126.826 Y162.612 E1.9814
G1 X126.455 Y162.47 E1.9957
G1 X126.101 Y162.289 E2.0100
G1 X125.767 Y162.073 E2.0243
G1 X125.459 Y161.823 E2.0386
G1 X125.17699999999999 Y161.541 E2.0529
G1 X124.92699999999999 Y161.233 E2.0671
G1 X124.711 Y160.899 E2.0814
G1 X124.53 Y160.54500000000002 E2.0957
G1 X124.388 Y160.174 E2.1100
G1 X124.285 Y159.79 E2.1243
G1 X124.22200000000001 Y159.397 E2.1385
G1 X124.2 Y158.969 E2.1540
G1 X124.2 Y151.031 E2.4391
G1 X124.22200000000001 Y150.603 E2.4545
G1 X124.285 Y150.21 E2.4688
G1 X124.388 Y149.826 E2.4830
G1 X124.53 Y149.45499999999998 E2.4973
G1 X124.711 Y149.101 E2.5116
G1 X124.92699999999999 Y148.767 E2.5259
G1 X125.17699999999999 Y148.458 E2.5402
G1 X125.458 Y148.177 E2.5545
G1 X125.767 Y147.927 E2.5687
G1 X126.101 Y147.711 E2.5830
G1 X126.455 Y147.53 E2.5973
G1 X126.826 Y147.388 E2.6116
G1 X127.21000000000001 Y147.285 E2.6259
G1 X127.60300000000001 Y147.222 E2.6401
G1 X128.031 Y147.2 E2.6555
G1 X181.969 Y147.2 E4.5930
G1 X182.397 Y147.222 E4.6084
G1 X182.79000000000002 Y147.285 E4.6227
G1 X183.174 Y147.388 E4.6370
G1 X183.54500000000002 Y147.53 E4.6513
G1 X183.899 Y147.711 E4.6656
G1 X184.233 Y147.927 E4.6798
G1 X184.542 Y148.177 E4.6941
G1 X184.82299999999998 Y148.458 E4.7084
G1 X185.07299999999998 Y148.767 E4.7227
G1 X185.289 Y149.101 E4.7370
G1 X185.47 Y149.45499999999998 E4.7513
G1 X185.612 Y149.826 E4.7655
G1 X185.715 Y150.21 E4.7798
G1 X185.77800000000002 Y150.603 E4.7941
G1 X185.8 Y151.031 E4.8095
G1 X185.8 Y158.969 E5.0946
G1 X185.77800000000002 Y159.397 E5.1100
G1 X185.715 Y159.79 E5.1243
G1 X185.612 Y160.174 E5.1386
G1 X185.47 Y160.54500000000002 E5.1529
G1 X185.289 Y160.899 E5.1672
G1 X185.07299999999998 Y161.233 E5.1814
G1 X184.82299999999998 Y161.541 E5.1957
G1 X184.541 Y161.823 E5.2100
G1 X184.233 Y162.073 E5.2243
G1 X183.899 Y162.289 E5.2386
G1 X183.54500000000002 Y162.47 E5.2528
G1 X183.174 Y162.612 E5.2671
G1 X182.79000000000002 Y162.715 E5.2814
G1 X182.397 Y162.778 E5.2957
G1 X181.969 Y162.8 E5.3111
G1 X181.981 Y163.28 F6000
G92 E0.0000
G1 X128.019 Y163.28 E1.9384 F2700
G1 X127.553 Y163.256 E1.9551
G1 X127.11 Y163.185 E1.9712
G1 X126.678 Y163.07 E1.9873
G1 X126.26 Y162.909 E2.0034
G1 X125.86 Y162.70600000000002 E2.0195
G1 X125.485 Y162.462 E2.0356
G1 X125.137 Y162.18 E2.0517
G1 X124.82 Y161.863 E2.0678
G1 X124.538 Y161.515 E2.0839
G1 X124.294 Y161.139 E2.0999
G1 X124.09100000000001 Y160.74 E2.1160
G1 X123.93 Y160.322 E2.1321
G1 X123.814 Y159.89 E2.1482
G1 X123.744 Y159.447 E2.1643
G1 X123.72 Y158.981 E2.1811
G1 X123.72 Y151.019 E2.4671
G1 X123.744 Y150.553 E2.4838
G1 X123.814 Y150.11 E2.4999
G1 X123.93 Y149.678 E2.5160
G1 X124.09100000000001 Y149.26 E2.5321
G1 X124.294 Y148.861 E2.5482
G1 X124.538 Y148.485 E2.5643
G1 X124.82 Y148.137 E2.5804
G1 X125.137 Y147.82 E2.5965
G1 X125.485 Y147.538 E2.6125
G1 X125.861 Y147.29399999999998 E2.6286
G1 X126.26 Y147.091 E2.6447
G1 X126.678 Y146.93 E2.6608
G1 X127.11 Y146.814 E2.6769
G1 X127.553 Y146.744 E2.6930
G1 X128.019 Y146.72 E2.7098
G1 X181.981 Y146.72 E4.6481
G1 X182.447 Y146.744 E4.6649
G1 X182.89 Y146.815 E4.6810
G1 X183.322 Y146.93 E4.6971
G1 X183.74 Y147.091 E4.7132
G1 X184.139 Y147.29399999999998 E4.7293
G1 X184.515 Y147.538 E4.7453
G1 X184.863 Y147.82 E4.7614
G1 X185.18 Y148.137 E4.7775
G1 X185.462 Y148.485 E4.7936
G1 X185.70600000000002 Y148.861 E4.8097
G1 X185.909 Y149.26 E4.8258
G1 X186.07 Y149.678 E4.8419
G1 X186.185 Y150.11 E4.8580
G1 X186.256 Y150.553 E4.8741
G1 X186.28 Y151.019 E4.8908
G1 X186.28 Y158.981 E5.1768
G1 X186.256 Y159.447 E5.1936
G1 X186.185 Y159.89 E5.2097
G1 X186.07 Y160.322 E5.2258
G1 X185.909 Y160.74 E5.2419
G1 X185.70600000000002 Y161.14 E5.2580
G1 X185.462 Y161.515 E5.2741
G1 X185.18 Y161.863 E5.2901
G1 X184.863 Y162.18 E5.3062
G1 X184.515 Y162.462 E5.3223
G1 X184.14 Y162.70600000000002 E5.3384
G1 X183.74 Y162.909 E5.3545
G1 X183.322 Y163.07 E5.3706
G1 X182.89 Y163.186 E5.3867
G1 X182.447 Y163.256 E5.4028
G1 X181.981 Y163.28 E5.4195
; feature outer perimeter
G1 X181.994 Y163.76 F6000
G92 E0.0000
G1 X128.006 Y163.76 E1.9393 F1800
G1 X127.503 Y163.734 E1.9574
G1 X127.01 Y163.656 E1.9753
G1 X126.529 Y163.527 E1.9932
G1 X126.064 Y163.348 E2.0111
G1 X125.62 Y163.122 E2.0290
G1 X125.202 Y162.851 E2.0469
G1 X124.815 Y162.537 E2.0648
G1 X124.463 Y162.185 E2.0827
G1 X124.149 Y161.798 E2.1006
G1 X123.878 Y161.38 E2.1185
G1 X123.652 Y160.936 E2.1364
G1 X123.473 Y160.471 E2.1543
G1 X123.344 Y159.99 E2.1722
G1 X123.26599999999999 Y159.498 E2.1900
G1 X123.24 Y158.994 E2.2082
G1 X123.24 Y151.006 E2.4951
G1 X123.26599999999999 Y150.502 E2.5132
G1 X123.344 Y150.01 E2.5311
G1 X123.473 Y149.529 E2.5490
G1 X123.652 Y149.064 E2.5669
G1 X123.878 Y148.62 E2.5848
G1 X124.149 Y148.202 E2.6027
G1 X124.463 Y147.815 E2.6206
G1 X124.815 Y147.463 E2.6385
G1 X125.202 Y147.149 E2.6564
G1 X125.62 Y146.878 E2.6743
G1 X126.064 Y146.652 E2.6922
G1 X126.529 Y146.473 E2.7101
G1 X127.01 Y146.344 E2.7280
G1 X127.502 Y146.266 E2.7459
G1 X128.006 Y146.24 E2.7640
G1 X181.994 Y146.24 E4.7033
G1 X182.497 Y146.266 E4.7214
G1 X182.99 Y146.344 E4.7393
G1 X183.471 Y146.473 E4.7572
G1 X183.936 Y146.652 E4.7751
G1 X184.38 Y146.878 E4.7930
G1 X184.798 Y147.149 E4.8109
G1 X185.185 Y147.463 E4.8288
G1 X185.537 Y147.815 E4.8467
G1 X185.851 Y148.202 E4.8645
G1 X186.122 Y148.62 E4.8824
G1 X186.348 Y149.064 E4.9003
G1 X186.527 Y149.529 E4.9182
G1 X186.656 Y150.01 E4.9361
G1 X186.73399999999998 Y150.502 E4.9540
G1 X186.76 Y151.006 E4.9722
G1 X186.76 Y158.994 E5.2591
G1 X186.73399999999998 Y159.498 E5.2772
G1 X186.656 Y159.99 E5.2951
G1 X186.527 Y160.471 E5.3130
G1 X186.348 Y160.936 E5.3309
G1 X186.122 Y161.38 E5.3488
G1 X185.851 Y161.798 E5.3667
G1 X185.537 Y162.185 E5.3846
G1 X185.185 Y162.537 E5.4025
G1 X184.798 Y162.851 E5.4204
G1 X184.38 Y163.122 E5.4383
G1 X183.936 Y163.348 E5.4561
G1 X183.471 Y163.527 E5.4740
G1 X182.99 Y163.656 E5.4919
G1 X182.497 Y163.734 E5.5098
G1 X181.994 Y163.76 E5.5280
; feature solid layer
G1 X185.38400000000001 Y159.915 F6000
G92 E0.0000
G1 X182.91500000000002 Y162.38400000000001 E0.1254 F2880
G1 X182.73000000000002 Y162.433 E0.1323
G1 X182.36700000000002 Y162.49099999999999 E0.1455
G1 X182.11599999999999 Y162.504 E0.1545
G1 X185.50400000000002 Y159.11599999999999 E0.3266
G1 X185.512 Y158.961 E0.3322
G1 X185.512 Y158.429 E0.3513
G1 X181.429 Y162.512 E0.5587
G1 X180.75 Y162.512 E0.5831
G1 X185.512 Y157.75 E0.8250
G1 X185.512 Y157.072 E0.8494
G1 X180.072 Y162.512 E1.1257
G1 X179.393 Y162.512 E1.1501
G1 X185.512 Y156.393 E1.4610
G1 X185.512 Y155.714 E1.4854
G1 X178.714 Y162.512 E1.8307
G1 X178.035 Y162.512 E1.8551
G1 X185.512 Y155.035 E2.2349
G1 X185.512 Y154.356 E2.2593
G1 X177.356 Y162.512 E2.6736
G1 X176.67700000000002 Y162.512 E2.6980
G1 X185.512 Y153.677 E3.1468
G1 X185.512 Y152.999 E3.1712
G1 X175.999 Y162.512 E3.6545
G1 X175.32 Y162.512 E3.6788
G1 X181.035 Y156.796 E3.9692
G1 X180.8 Y156.876 E3.9781
G1 X180.48399999999998 Y156.945 E3.9897
G1 X180.174 Y156.97899999999998 E4.0009
G1 X174.64100000000002 Y162.512 E4.2820
G1 X173.962 Y162.512 E4.3064
G1 X179.52800000000002 Y156.947 E4.5891
G1 X179.51600000000002 Y156.945 E4.5895
G1 X179.2 Y156.876 E4.6012
G1 X178.99 Y156.805 E4.6091
G1 X173.28300000000002 Y162.512 E4.8990
G1 X172.60399999999998 Y162.512 E4.9234
G1 X178.525 Y156.59199999999998 E5.2242
G1 X178.322 Y156.469 E5.2327
G1 X178.12099999999998 Y156.317 E5.2417
G1 X171.926 Y162.512 E5.5564
G1 X171.247 Y162.512 E5.5808
G1 X177.773 Y155.985 E5.9124
G1 X177.619 Y155.804 E5.9209
G1 X177.481 Y155.599 E5.9298
G1 X170.56799999999998 Y162.512 E6.2810
G1 X169.889 Y162.512 E6.3054
G1 X177.248 Y155.154 E6.6792
G1 X177.166 Y154.949 E6.6871
G1 X177.08100000000002 Y154.642 E6.6985
G1 X169.20999999999998 Y162.512 E7.0983
G1 X168.53199999999998 Y162.512 E7.1227
G1 X177.012 Y154.03199999999998 E7.5535
G1 X177.00900000000001 Y153.994 E7.5549
G1 X177.027 Y153.671 E7.5665
G1 X177.079 Y153.351 E7.5781
G1 X177.10500000000002 Y153.26 E7.5815
G1 X167.853 Y162.512 E8.0515
G1 X167.174 Y162.512 E8.0759
G1 X182.186 Y147.5 E8.8385
G1 X182.076 Y147.494 E8.8425
G1 X181.961 Y147.488 E8.8466
G1 X181.519 Y147.488 E8.8625
G1 X166.495 Y162.512 E9.6257
G1 X165.816 Y162.512 E9.6501
G1 X180.84 Y147.488 E10.4133
G1 X180.161 Y147.488 E10.4377
G1 X165.137 Y162.512 E11.2009
G1 X164.459 Y162.512 E11.2253
G1 X179.483 Y147.488 E11.9885
G1 X178.804 Y147.488 E12.0129
G1 X163.78 Y162.512 E12.7761
G1 X163.101 Y162.512 E12.8005
G1 X178.125 Y147.488 E13.5637
G1 X177.446 Y147.488 E13.5881
G1 X162.422 Y162.512 E14.3513
G1 X161.743 Y162.512 E14.3757
G1 X176.767 Y147.488 E15.1389
G1 X176.088 Y147.488 E15.1633
G1 X161.064 Y162.512 E15.9265
G1 X160.386 Y162.512 E15.9509
G1 X175.41 Y147.488 E16.7141
G1 X174.731 Y147.488 E16.7385
G1 X159.707 Y162.512 E17.5017
G1 X159.028 Y162.512 E17.5261
G1 X174.05200000000002 Y147.488 E18.2893
G1 X173.373 Y147.488 E18.3137
G1 X158.349 Y162.512 E19.0769
G1 X157.67000000000002 Y162.512 E19.1013
G1 X172.69400000000002 Y147.488 E19.8645
G1 X172.01600000000002 Y147.488 E19.8889
G1 X156.992 Y162.512 E20.6521
G1 X156.313 Y162.512 E20.6765
G1 X171.337 Y147.488 E21.4397
G1 X170.65800000000002 Y147.488 E21.4641
G1 X155.63400000000001 Y162.512 E22.2273
G1 X154.95499999999998 Y162.512 E22.2517
G1 X169.97899999999998 Y147.488 E23.0149
G1 X169.3 Y147.488 E23.0393
G1 X154.276 Y162.512 E23.8025
G1 X153.597 Y162.512 E23.8269
G1 X168.621 Y147.488 E24.5901
G1 X167.94299999999998 Y147.488 E24.6145
G1 X152.91899999999998 Y162.512 E25.3777
G1 X152.24 Y162.512 E25.4021
G1 X167.264 Y147.488 E26.1653
G1 X166.585 Y147.488 E26.1897
G1 X151.561 Y162.512 E26.9529
G1 X150.882 Y162.512 E26.9773
G1 X165.906 Y147.488 E27.7405
G1 X165.227 Y147.488 E27.7649
G1 X150.203 Y162.512 E28.5281
G1 X149.525 Y162.512 E28.5525
G1 X164.549 Y147.488 E29.3157
G1 X163.87 Y147.488 E29.3401
G1 X148.846 Y162.512 E30.1033
G1 X148.167 Y162.512 E30.1277
G1 X163.191 Y147.488 E30.8909
G1 X162.512 Y147.488 E30.9153
G1 X147.488 Y162.512 E31.6785
G1 X146.809 Y162.512 E31.7029
G1 X161.833 Y147.488 E32.4662
G1 X161.154 Y147.488 E32.4905
G1 X146.13 Y162.512 E33.2538
G1 X145.452 Y162.512 E33.2781
G1 X160.476 Y147.488 E34.0414
G1 X159.797 Y147.488 E34.0657
G1 X144.773 Y162.512 E34.8290
G1 X144.094 Y162.512 E34.8533
G1 X159.118 Y147.488 E35.6166
G1 X158.439 Y147.488 E35.6409
G1 X143.415 Y162.512 E36.4042
G1 X142.736 Y162.512 E36.4285
G1 X157.76 Y147.488 E37.1918
G1 X157.08100000000002 Y147.488 E37.2161
G1 X142.05700000000002 Y162.512 E37.9794
G1 X141.379 Y162.512 E38.0037
G1 X156.403 Y147.488 E38.7670
G1 X155.724 Y147.488 E38.7913
G1 X140.7 Y162.512 E39.5546
G1 X140.02100000000002 Y162.512 E39.5789
G1 X155.04500000000002 Y147.488 E40.3422
G1 X154.36599999999999 Y147.488 E40.3665
G1 X139.34199999999998 Y162.512 E41.1298
G1 X138.663 Y162.512 E41.1541
G1 X153.687 Y147.488 E41.9174
G1 X153.00900000000001 Y147.488 E41.9417
G1 X137.985 Y162.512 E42.7050
G1 X137.30599999999998 Y162.512 E42.7293
G1 X152.32999999999998 Y147.488 E43.4926
G1 X151.651 Y147.488 E43.5169
G1 X136.627 Y162.512 E44.2802
G1 X135.948 Y162.512 E44.3045
G1 X150.972 Y147.488 E45.0678
G1 X150.293 Y147.488 E45.0921
G1 X135.269 Y162.512 E45.8554
G1 X134.59 Y162.512 E45.8798
G1 X149.614 Y147.488 E46.6430
