; generated by PrusaSlicer 2.3.0+win64 on 2021-02-17 at 22:24:17 UTC

; 

; external perimeters extrusion width = 0.45mm
; perimeters extrusion width = 0.45mm
; infill extrusion width = 0.45mm
; solid infill extrusion width = 0.45mm
; top infill extrusion width = 0.40mm
; first layer extrusion width = 0.42mm

M107
M190 S60 ; set bed temperature and wait for it to be reached
G10 S215 ; set temperature
;TYPE:Custom
G28 ; home all axes
;G1 Z5 F5000 ; lift nozzle
G29 S1
G10 S215 ; set temperature
M116 ; wait for temperature to be reached
G21 ; set units to millimeters
G90 ; use absolute coordinates
M82 ; use absolute distances for extrusion
G92 E0
M900 K0.05 ; Filament gcode LA 1.5
M900 K30 ; Filament gcode LA 1.0
;LAYER_CHANGE
;Z:0.35
;HEIGHT:0.35
G1 Z0.350 F4200.000
G1 E-2.00000 F2400.000
G92 E0
G1 X74.066 Y68.857 F4200.000
G1 E2.00000 F2400.000
;TYPE:Skirt
;WIDTH:0.42
G1 F1200.000
G1 X75.408 Y68.285 E2.06591
G1 X76.258 Y68.097 E2.10523
G1 X77.126 Y68.026 E2.14455
G1 X96.212 Y68.026 E3.00660
G1 X97.326 Y68.125 E3.05713
G1 X98.405 Y68.419 E3.10766
G1 X99.416 Y68.898 E3.15818
G1 X100.332 Y69.551 E3.20899
G1 X106.452 Y75.660 E3.59957
G1 X107.207 Y76.709 E3.65793
G1 X107.733 Y77.889 E3.71629
G1 X107.963 Y78.819 E3.75954
G1 X108.050 Y79.772 E3.80278
G1 X108.049 Y98.976 E4.67017
G1 X107.854 Y100.435 E4.73664
G1 X107.329 Y101.809 E4.80311
G1 X106.874 Y102.551 E4.84243
G1 X106.317 Y103.229 E4.88203
G1 X100.471 Y109.067 E5.25520
G1 X99.193 Y109.968 E5.32585
G1 X97.732 Y110.529 E5.39650
G1 X96.260 Y110.715 E5.46353
G1 X77.062 Y110.714 E6.33064
G1 X75.623 Y110.515 E6.39627
G1 X74.267 Y109.994 E6.46189
G1 X73.525 Y109.539 E6.50121
G1 X72.847 Y108.982 E6.54081
G1 X67.009 Y103.136 E6.91399
G1 X66.108 Y101.858 E6.98464
G1 X65.547 Y100.397 E7.05529
G1 X65.361 Y98.925 E7.12232
G1 X65.362 Y79.727 E7.98943
G1 X65.561 Y78.288 E8.05505
G1 X66.082 Y76.932 E8.12068
G1 X66.537 Y76.190 E8.16000
G1 X67.090 Y75.517 E8.19932
G1 X72.894 Y69.716 E8.56997
G1 X74.017 Y68.892 E8.63289
G1 E6.63289 F2400.000
G92 E0
G1 X77.675 Y74.805 F4200.000
G1 E2.00000 F2400.000
;TYPE:External perimeter
G1 F1200.000
G1 X95.736 Y74.805 E2.81574
G1 X101.270 Y80.340 E3.16928
G1 X101.270 Y98.401 E3.98502
G1 X95.736 Y103.935 E4.33856
G1 X77.675 Y103.935 E5.15430
G1 X72.140 Y98.401 E5.50784
G1 X72.140 Y80.340 E6.32358
G1 X77.633 Y74.848 E6.67442
G1 X78.005 Y75.031 F4200.000
G1 X77.818 Y75.150
;TYPE:Perimeter
G1 F1200.000
G1 X95.593 Y75.150 E7.47725
G1 X100.926 Y80.483 E7.81789
G1 X100.926 Y98.258 E8.62072
G1 X95.593 Y103.591 E8.96136
G1 X77.818 Y103.591 E9.76419
G1 X72.485 Y98.258 E10.10483
G1 X72.485 Y80.483 E10.90766
G1 X77.776 Y75.193 E11.24559
G1 X77.961 Y75.495 F4200.000
G1 F1200.000
G1 X95.450 Y75.495 E12.03552
G1 X100.581 Y80.626 E12.36325
G1 X100.581 Y98.115 E13.15318
G1 X95.450 Y103.246 E13.48091
G1 X77.961 Y103.246 E14.27084
G1 X72.830 Y98.115 E14.59858
G1 X72.830 Y80.626 E15.38850
G1 X77.919 Y75.538 E15.71353
G1 E13.71353 F2400.000
G92 E0
G1 X82.239 Y82.631 F4200.000
G1 E2.00000 F2400.000
;TYPE:External perimeter
G1 F1200.000
G1 X82.959 Y82.206 E2.03777
G1 X83.392 Y81.997 E2.05948
G1 X84.117 Y81.711 E2.09468
G1 X84.924 Y81.484 E2.13254
G1 X85.750 Y81.342 E2.17041
G1 X86.586 Y81.286 E2.20827
G1 X87.424 Y81.317 E2.24614
G1 X88.254 Y81.435 E2.28401
G1 X89.065 Y81.637 E2.32177
G1 X89.521 Y81.792 E2.34349
G1 X90.238 Y82.098 E2.37869
G1 X90.971 Y82.502 E2.41655
G1 X91.660 Y82.981 E2.45441
G1 X92.295 Y83.528 E2.49228
G1 X92.870 Y84.139 E2.53014
G1 X93.378 Y84.805 E2.56801
G1 X93.814 Y85.519 E2.60577
G1 X94.030 Y85.948 E2.62749
G1 X94.326 Y86.669 E2.66270
G1 X94.565 Y87.473 E2.70055
G1 X94.719 Y88.297 E2.73842
G1 X94.787 Y89.130 E2.77617
G1 X94.787 Y89.611 E2.79791
G1 X94.719 Y90.444 E2.83567
G1 X94.565 Y91.268 E2.87353
G1 X94.326 Y92.072 E2.91140
G1 X94.005 Y92.847 E2.94927
G1 X93.606 Y93.584 E2.98713
G1 X93.133 Y94.276 E3.02500
G1 X92.590 Y94.915 E3.06286
G1 X91.984 Y95.494 E3.10073
G1 X91.322 Y96.008 E3.13860
G1 X90.610 Y96.450 E3.17645
G1 X89.910 Y96.793 E3.21166
G1 X89.463 Y96.971 E3.23337
G1 X88.663 Y97.215 E3.27114
G1 X87.841 Y97.376 E3.30900
G1 X87.006 Y97.450 E3.34687
G1 X86.167 Y97.438 E3.38474
G1 X85.335 Y97.339 E3.42260
G1 X84.517 Y97.154 E3.46046
G1 X83.778 Y96.906 E3.49566
G1 X83.335 Y96.720 E3.51737
G1 X82.594 Y96.332 E3.55514
G1 X81.895 Y95.869 E3.59301
G1 X81.248 Y95.336 E3.63088
G1 X80.660 Y94.739 E3.66874
G1 X80.136 Y94.084 E3.70661
G1 X79.684 Y93.379 E3.74448
G1 X79.306 Y92.630 E3.78234
G1 X79.008 Y91.846 E3.82021
G1 X78.794 Y91.036 E3.85807
G1 X78.664 Y90.208 E3.89593
G1 X78.622 Y89.430 E3.93114
G1 X78.631 Y88.949 E3.95285
G1 X78.718 Y88.117 E3.99062
G1 X78.890 Y87.297 E4.02848
G1 X79.147 Y86.499 E4.06635
G1 X79.485 Y85.732 E4.10422
G1 X79.901 Y85.004 E4.14209
G1 X80.390 Y84.322 E4.17995
G1 X80.946 Y83.696 E4.21782
G1 X81.565 Y83.130 E4.25569
G1 X82.191 Y82.667 E4.29084
G1 X82.214 Y82.232 F4200.000
G1 X81.985 Y82.389
;TYPE:Perimeter
G1 F1200.000
G1 X82.796 Y81.902 E4.33357
G1 X83.253 Y81.680 E4.35651
G1 X84.007 Y81.384 E4.39309
G1 X84.847 Y81.147 E4.43254
G1 X85.709 Y80.999 E4.47203
G1 X86.581 Y80.941 E4.51151
G1 X87.455 Y80.973 E4.55100
G1 X88.320 Y81.096 E4.59048
G1 X89.163 Y81.306 E4.62970
G1 X89.644 Y81.469 E4.65265
G1 X90.389 Y81.787 E4.68923
G1 X91.154 Y82.209 E4.72868
G1 X91.871 Y82.708 E4.76816
G1 X92.533 Y83.279 E4.80765
G1 X93.133 Y83.915 E4.84713
G1 X93.663 Y84.610 E4.88662
G1 X94.116 Y85.351 E4.92582
G1 X94.344 Y85.805 E4.94878
G1 X94.652 Y86.554 E4.98537
G1 X94.900 Y87.392 E5.02481
G1 X95.061 Y88.251 E5.06430
G1 X95.132 Y89.116 E5.10350
G1 X95.132 Y89.625 E5.12650
G1 X95.061 Y90.490 E5.16570
G1 X94.900 Y91.349 E5.20519
G1 X94.651 Y92.187 E5.24467
G1 X94.317 Y92.995 E5.28415
G1 X93.901 Y93.764 E5.32364
G1 X93.407 Y94.485 E5.36312
G1 X92.841 Y95.152 E5.40260
G1 X92.210 Y95.756 E5.44209
G1 X91.519 Y96.292 E5.48157
G1 X90.777 Y96.753 E5.52102
G1 X90.050 Y97.109 E5.55760
G1 X89.577 Y97.296 E5.58055
G1 X88.747 Y97.550 E5.61977
G1 X87.889 Y97.718 E5.65925
G1 X87.018 Y97.795 E5.69874
G1 X86.144 Y97.782 E5.73822
G1 X85.276 Y97.679 E5.77771
G1 X84.424 Y97.487 E5.81716
G1 X83.656 Y97.229 E5.85374
G1 X83.188 Y97.032 E5.87668
G1 X82.419 Y96.630 E5.91591
G1 X81.690 Y96.147 E5.95539
G1 X81.015 Y95.591 E5.99488
G1 X80.402 Y94.968 E6.03436
G1 X79.856 Y94.286 E6.07384
G1 X79.384 Y93.550 E6.11333
G1 X78.990 Y92.769 E6.15281
G1 X78.680 Y91.952 E6.19230
G1 X78.456 Y91.107 E6.23178
G1 X78.320 Y90.244 E6.27124
G1 X78.277 Y89.436 E6.30781
G1 X78.287 Y88.928 E6.33075
G1 X78.377 Y88.064 E6.36999
G1 X78.557 Y87.209 E6.40946
G1 X78.824 Y86.376 E6.44895
G1 X79.177 Y85.576 E6.48843
G1 X79.610 Y84.817 E6.52792
G1 X80.120 Y84.107 E6.56740
G1 X80.700 Y83.453 E6.60689
G1 X81.345 Y82.863 E6.64637
G1 X81.937 Y82.425 E6.67963
G1 X81.732 Y82.148 F4200.000
G1 F1200.000
G1 X81.857 Y82.055 E6.68667
G1 X82.633 Y81.597 E6.72735
G1 X83.115 Y81.364 E6.75152
G1 X83.896 Y81.056 E6.78947
G1 X84.771 Y80.810 E6.83053
G1 X85.668 Y80.656 E6.87163
G1 X86.576 Y80.595 E6.91273
G1 X87.485 Y80.629 E6.95383
G1 X88.386 Y80.757 E6.99493
G1 X89.260 Y80.975 E7.03560
G1 X89.767 Y81.147 E7.05978
G1 X90.540 Y81.477 E7.09775
G1 X91.336 Y81.916 E7.13879
G1 X92.083 Y82.435 E7.17989
G1 X92.772 Y83.029 E7.22099
G1 X93.396 Y83.692 E7.26210
G1 X93.948 Y84.415 E7.30320
G1 X94.417 Y85.183 E7.34385
G1 X94.658 Y85.662 E7.36804
G1 X94.977 Y86.440 E7.40602
G1 X95.236 Y87.311 E7.44706
G1 X95.403 Y88.205 E7.48816
G1 X95.477 Y89.102 E7.52880
G1 X95.477 Y89.639 E7.55307
G1 X95.403 Y90.536 E7.59371
G1 X95.236 Y91.430 E7.63481
G1 X94.977 Y92.303 E7.67591
G1 X94.629 Y93.143 E7.71702
G1 X94.195 Y93.944 E7.75812
G1 X93.682 Y94.695 E7.79922
G1 X93.093 Y95.389 E7.84032
G1 X92.435 Y96.018 E7.88142
G1 X91.716 Y96.575 E7.92252
G1 X90.944 Y97.055 E7.96356
G1 X90.189 Y97.424 E8.00153
G1 X89.692 Y97.622 E8.02572
G1 X88.831 Y97.885 E8.06638
G1 X87.938 Y98.059 E8.10748
G1 X87.031 Y98.140 E8.14858
G1 X86.121 Y98.127 E8.18969
G1 X85.218 Y98.019 E8.23079
G1 X84.331 Y97.819 E8.27184
G1 X83.535 Y97.552 E8.30979
G1 X83.041 Y97.344 E8.33397
G1 X82.243 Y96.927 E8.37465
G1 X81.484 Y96.425 E8.41575
G1 X80.782 Y95.846 E8.45685
G1 X80.143 Y95.198 E8.49795
G1 X79.575 Y94.487 E8.53905
G1 X79.084 Y93.721 E8.58016
G1 X78.674 Y92.908 E8.62126
G1 X78.351 Y92.058 E8.66236
G1 X78.118 Y91.178 E8.70346
G1 X77.977 Y90.280 E8.74452
G1 X77.932 Y89.441 E8.78246
G1 X77.942 Y88.907 E8.80662
G1 X78.035 Y88.010 E8.84733
G1 X78.223 Y87.120 E8.88842
G1 X78.502 Y86.254 E8.92952
G1 X78.868 Y85.421 E8.97063
G1 X79.320 Y84.631 E9.01173
G1 X79.850 Y83.891 E9.05283
G1 X80.454 Y83.211 E9.09393
G1 X81.126 Y82.597 E9.13503
G1 X81.684 Y82.184 E9.16639
G1 E7.16639 F2400.000
G92 E0
G1 X95.187 Y75.599 F4200.000
G1 E2.00000 F2400.000
;TYPE:Solid infill
;WIDTH:0.420944
G1 F1200.000
G1 X100.322 Y80.734 E2.32891
G1 X100.322 Y81.223 E2.35106
G1 X94.853 Y75.754 E2.70136
G1 X94.364 Y75.754 E2.72351
G1 X100.322 Y81.712 E3.10514
G1 X100.322 Y82.201 E3.12729
G1 X93.875 Y75.754 E3.54024
G1 X93.386 Y75.754 E3.56239
G1 X100.322 Y82.690 E4.00667
G1 X100.322 Y83.179 E4.02882
G1 X92.897 Y75.754 E4.50443
G1 X92.408 Y75.754 E4.52658
G1 X100.322 Y83.668 E5.03351
G1 X100.322 Y84.157 E5.05566
G1 X91.918 Y75.754 E5.59391
G1 X91.429 Y75.754 E5.61607
G1 X100.322 Y84.647 E6.18565
G1 X100.322 Y85.136 E6.20780
G1 X90.940 Y75.754 E6.80871
G1 X90.451 Y75.754 E6.83086
G1 X100.322 Y85.625 E7.46309
G1 X100.322 Y86.114 E7.48524
G1 X89.962 Y75.754 E8.14881
G1 X89.473 Y75.754 E8.17096
G1 X100.322 Y86.603 E8.86584
G1 X100.322 Y87.092 E8.88799
G1 X88.984 Y75.754 E9.61421
G1 X88.495 Y75.754 E9.63636
G1 X100.322 Y87.581 E10.39390
G1 X100.322 Y88.070 E10.41605
G1 X88.006 Y75.754 E11.20491
G1 X87.517 Y75.754 E11.22707
G1 X100.322 Y88.559 E12.04726
G1 X100.322 Y89.048 E12.06941
G1 X87.028 Y75.754 E12.92093
G1 X86.539 Y75.754 E12.94308
G1 X100.322 Y89.537 E13.82592
G1 X100.322 Y90.026 E13.84807
G1 X86.049 Y75.754 E14.76224
G1 X85.560 Y75.754 E14.78439
G1 X91.569 Y81.763 E15.16928
G1 X92.242 Y82.231 E15.20637
G1 X92.951 Y82.842 E15.24880
G1 X93.594 Y83.524 E15.29123
G1 X94.162 Y84.269 E15.33366
G1 X94.298 Y84.492 E15.34548
G1 X100.322 Y90.516 E15.73132
G1 X100.322 Y91.005 E15.75347
G1 X94.909 Y85.592 E16.10018
G1 X95.238 Y86.410 E16.14013
G1 X100.322 Y91.494 E16.46574
G1 X100.322 Y91.983 E16.48790
G1 X95.445 Y87.106 E16.80027
G1 X95.577 Y87.727 E16.82904
G1 X100.322 Y92.472 E17.13295
G1 X100.322 Y92.961 E17.15510
G1 X95.672 Y88.310 E17.45297
G1 X95.715 Y88.843 E17.47716
G1 X100.322 Y93.450 E17.77225
G1 X100.322 Y93.939 E17.79440
G1 X95.735 Y89.352 E18.08819
G1 X95.721 Y89.827 E18.10970
G1 X100.322 Y94.428 E18.40442
G1 X100.322 Y94.917 E18.42657
G1 X95.684 Y90.279 E18.72364
G1 X95.633 Y90.717 E18.74361
G1 X100.322 Y95.406 E19.04397
G1 X100.322 Y95.895 E19.06612
G1 X95.556 Y91.129 E19.37141
G1 X95.474 Y91.537 E19.39024
G1 X100.322 Y96.385 E19.70075
G1 X100.322 Y96.874 E19.72290
G1 X95.362 Y91.914 E20.04058
G1 X95.250 Y92.291 E20.05839
G1 X100.322 Y97.363 E20.38325
G1 X100.322 Y97.852 E20.40540
G1 X95.115 Y92.645 E20.73890
G1 X94.972 Y92.991 E20.75586
G1 X100.155 Y98.174 E21.08787
G1 X99.911 Y98.419 E21.10353
G1 X94.822 Y93.330 E21.42948
G1 X94.650 Y93.647 E21.44583
G1 X99.666 Y98.663 E21.76712
G1 X99.422 Y98.908 E21.78278
G1 X94.478 Y93.964 E22.09942
G1 X94.289 Y94.265 E22.11548
G1 X99.177 Y99.152 E22.42856
G1 X98.933 Y99.397 E22.44422
G1 X94.091 Y94.555 E22.75436
G1 X93.892 Y94.845 E22.77030
G1 X98.688 Y99.642 E23.07750
G1 X98.444 Y99.886 E23.09317
G1 X93.668 Y95.110 E23.39905
G1 X93.444 Y95.375 E23.41476
G1 X98.199 Y100.131 E23.71937
G1 X97.955 Y100.375 E23.73503
G1 X93.212 Y95.633 E24.03880
G1 X92.962 Y95.872 E24.05447
G1 X97.710 Y100.620 E24.35859
G1 X97.466 Y100.864 E24.37425
G1 X92.712 Y96.111 E24.67872
G1 X92.448 Y96.335 E24.69443
G1 X97.221 Y101.109 E25.00017
G1 X96.976 Y101.353 E25.01584
G1 X92.172 Y96.549 E25.32356
G1 X91.897 Y96.763 E25.33935
G1 X96.732 Y101.598 E25.64905
G1 X96.487 Y101.842 E25.66471
G1 X91.598 Y96.953 E25.97788
G1 X91.296 Y97.141 E25.99397
G1 X96.243 Y102.087 E26.31079
G1 X95.998 Y102.332 E26.32645
G1 X90.988 Y97.321 E26.64737
G1 X90.660 Y97.482 E26.66393
G1 X95.754 Y102.576 E26.99021
G1 X95.509 Y102.821 E27.00587
G1 X90.331 Y97.643 E27.33753
G1 X89.984 Y97.784 E27.35452
G1 X95.187 Y102.987 E27.68776
G1 X94.697 Y102.987 E27.70991
G1 X89.624 Y97.913 E28.03489
G1 X89.249 Y98.028 E28.05263
G1 X94.208 Y102.987 E28.37027
G1 X93.719 Y102.987 E28.39243
G1 X88.873 Y98.141 E28.70285
G1 X88.464 Y98.220 E28.72173
G1 X93.230 Y102.987 E29.02704
G1 X92.741 Y102.987 E29.04920
G1 X88.054 Y98.300 E29.34939
G1 X87.613 Y98.348 E29.36949
G1 X92.252 Y102.987 E29.66662
G1 X91.763 Y102.987 E29.68877
G1 X87.164 Y98.388 E29.98333
G1 X86.681 Y98.394 E30.00522
G1 X91.274 Y102.987 E30.29942
G1 X90.785 Y102.987 E30.32157
G1 X86.184 Y98.387 E30.61623
G1 X85.639 Y98.330 E30.64108
G1 X90.296 Y102.987 E30.93936
G1 X89.807 Y102.987 E30.96152
G1 X85.071 Y98.251 E31.26483
G1 X84.439 Y98.109 E31.29417
G1 X89.318 Y102.987 E31.60663
G1 X88.829 Y102.987 E31.62878
G1 X83.733 Y97.891 E31.95516
G1 X83.443 Y97.794 E31.96900
G1 X82.931 Y97.579 E31.99417
G1 X88.495 Y103.142 E32.35052
G1 E30.35052 F2400.000
G92 E0
G1 X84.916 Y75.599 F4200.000
G1 E2.00000 F2400.000
G1 F1200.000
G1 X90.493 Y81.175 E2.35719
G1 X89.669 Y80.841 E2.39747
G1 X84.582 Y75.754 E2.72328
G1 X84.093 Y75.754 E2.74543
G1 X88.977 Y80.638 E3.05826
G1 X88.339 Y80.489 E3.08792
G1 X83.604 Y75.754 E3.39122
G1 X83.115 Y75.754 E3.41337
G1 X87.769 Y80.408 E3.71148
G1 X87.509 Y80.371 E3.72342
G1 X87.233 Y80.361 E3.73590
G1 X82.626 Y75.754 E4.03099
G1 X82.137 Y75.754 E4.05314
G1 X86.725 Y80.342 E4.34703
G1 X86.252 Y80.358 E4.36848
G1 X81.648 Y75.754 E4.66337
G1 X81.159 Y75.754 E4.68552
G1 X85.793 Y80.388 E4.98237
G1 X85.362 Y80.446 E5.00208
G1 X80.670 Y75.754 E5.30263
G1 X80.180 Y75.754 E5.32478
G1 X84.945 Y80.518 E5.62992
G1 X84.543 Y80.606 E5.64853
G1 X79.691 Y75.754 E5.95929
G1 X79.202 Y75.754 E5.98145
G1 X84.161 Y80.713 E6.29908
G1 X83.782 Y80.823 E6.31696
G1 X78.713 Y75.754 E6.64165
G1 X78.224 Y75.754 E6.66380
G1 X83.432 Y80.961 E6.99734
G1 X83.081 Y81.100 E7.01442
G1 X77.902 Y75.920 E7.34615
G1 X77.657 Y76.165 E7.36181
G1 X82.747 Y81.255 E7.68782
G1 X82.423 Y81.420 E7.70428
G1 X77.413 Y76.410 E8.02524
G1 X77.168 Y76.654 E8.04090
G1 X82.116 Y81.602 E8.35782
G1 X81.808 Y81.784 E8.37400
G1 X76.923 Y76.899 E8.68689
G1 X76.679 Y77.143 E8.70255
G1 X81.519 Y81.984 E9.01258
G1 X81.238 Y82.192 E9.02842
G1 X76.434 Y77.388 E9.33611
G1 X76.190 Y77.632 E9.35177
G1 X80.958 Y82.400 E9.65715
G1 X80.702 Y82.634 E9.67283
G1 X75.945 Y77.877 E9.97751
G1 X75.701 Y78.121 E9.99317
G1 X80.447 Y82.867 E10.29715
G1 X80.199 Y83.109 E10.31282
G1 X75.456 Y78.366 E10.61660
G1 X75.212 Y78.610 E10.63227
G1 X79.969 Y83.368 E10.93698
G1 X79.739 Y83.627 E10.95267
G1 X74.967 Y78.855 E11.25831
G1 X74.723 Y79.099 E11.27397
G1 X79.524 Y83.901 E11.58154
G1 X79.320 Y84.186 E11.59741
G1 X74.478 Y79.344 E11.90755
G1 X74.233 Y79.589 E11.92321
G1 X79.116 Y84.471 E12.23593
G1 X78.936 Y84.780 E12.25214
G1 X73.989 Y79.833 E12.56901
G1 X73.744 Y80.078 E12.58468
G1 X78.758 Y85.092 E12.90583
G1 X78.590 Y85.412 E12.92223
G1 X73.500 Y80.322 E13.24823
G1 X73.255 Y80.567 E13.26390
G1 X78.440 Y85.751 E13.59599
G1 X78.291 Y86.091 E13.61279
G1 X73.089 Y80.889 E13.94596
G1 X73.089 Y81.378 E13.96811
G1 X78.165 Y86.455 E14.29325
G1 X78.046 Y86.825 E14.31086
G1 X73.089 Y81.868 E14.62838
G1 X73.089 Y82.357 E14.65053
G1 X77.940 Y87.208 E14.96125
G1 X77.855 Y87.612 E14.97995
G1 X73.089 Y82.846 E15.28522
G1 X73.089 Y83.335 E15.30738
G1 X77.774 Y88.020 E15.60748
G1 X77.728 Y88.463 E15.62766
G1 X73.089 Y83.824 E15.92481
G1 X73.089 Y84.313 E15.94696
G1 X77.683 Y88.907 E16.24125
G1 X77.674 Y89.387 E16.26297
G1 X73.089 Y84.802 E16.55665
G1 X73.089 Y85.291 E16.57880
G1 X77.697 Y89.899 E16.87397
G1 X77.738 Y90.430 E16.89805
G1 X73.089 Y85.780 E17.19586
G1 X73.089 Y86.269 E17.21801
G1 X77.829 Y91.010 E17.52164
G1 X77.864 Y91.232 E17.53182
G1 X77.973 Y91.643 E17.55107
G1 X73.089 Y86.758 E17.86392
G1 X73.089 Y87.247 E17.88607
G1 X78.181 Y92.340 E18.21226
G1 X78.437 Y93.013 E18.24486
G1 X78.510 Y93.158 E18.25220
