; generated by PrusaSlicer 2.3.0+win64 on 2021-02-17 at 21:41:45 UTC

; 

; external perimeters extrusion width = 0.45mm
; perimeters extrusion width = 0.45mm
; infill extrusion width = 0.45mm
; solid infill extrusion width = 0.45mm
; top infill extrusion width = 0.40mm
; first layer extrusion width = 0.42mm

M107
M190 S60 ; set bed temperature and wait for it to be reached
G10 S215 ; set temperature
;TYPE:Custom
G28 ; home all axes
G1 Z5 F5000 ; lift nozzle
G29 S1
G10 S215 ; set temperature
M116 ; wait for temperature to be reached
G21 ; set units to millimeters
G90 ; use absolute coordinates
M82 ; use absolute distances for extrusion
G92 E0
M900 K0.05 ; Filament gcode LA 1.5
M900 K30 ; Filament gcode LA 1.0
;LAYER_CHANGE
;Z:0.35
;HEIGHT:0.35
G1 Z0.350 F4800.000
G1 E-2.00000 F2400.000
G92 E0
G1 X92.824 Y96.237 F4800.000
G1 E2.00000 F2400.000
;TYPE:Skirt
;WIDTH:0.42
G1 F1200.000
G1 X93.891 Y95.486 E2.05892
G1 X95.083 Y94.971 E2.11756
G1 X96.361 Y94.709 E2.17649
G1 X116.998 Y94.677 E3.10861
G1 X118.106 Y94.776 E3.15886
G1 X119.180 Y95.066 E3.20911
G1 X120.186 Y95.540 E3.25936
G1 X121.095 Y96.182 E3.30961
G1 X121.877 Y96.973 E3.35985
G1 X122.509 Y97.889 E3.41010
G1 X122.971 Y98.901 E3.46035
G1 X123.250 Y99.978 E3.51060
G1 X123.336 Y101.000 E3.55693
G1 X123.329 Y121.327 E4.47504
G1 X123.212 Y122.271 E4.51800
G1 X122.956 Y123.187 E4.56097
G1 X122.565 Y124.054 E4.60393
G1 X122.045 Y124.858 E4.64718
G1 X121.088 Y125.867 E4.71001
G1 X119.928 Y126.647 E4.77313
G1 X118.632 Y127.151 E4.83596
G1 X117.256 Y127.361 E4.89880
G1 X96.656 Y127.358 E5.82927
G1 X95.718 Y127.238 E5.87196
G1 X94.809 Y126.980 E5.91464
G1 X93.949 Y126.590 E5.95733
G1 X93.155 Y126.076 E6.00001
G1 X92.146 Y125.118 E6.06284
G1 X91.367 Y123.958 E6.12596
G1 X90.862 Y122.662 E6.18879
G1 X90.652 Y121.287 E6.25163
G1 X90.656 Y100.686 E7.18210
G1 X90.776 Y99.749 E7.22479
G1 X91.034 Y98.840 E7.26747
G1 X91.424 Y97.979 E7.31016
G1 X91.938 Y97.186 E7.35284
G1 X92.783 Y96.281 E7.40877
G1 E5.40877 F2400.000
G92 E0
G1 X97.402 Y101.432 F4800.000
G1 E2.00000 F2400.000
;TYPE:External perimeter
G1 F1200.000
G1 X116.582 Y101.432 E2.86631
G1 X116.582 Y120.612 E3.73262
G1 X97.402 Y120.612 E4.59893
G1 X97.402 Y101.492 E5.46253
G1 X97.788 Y101.536 F4800.000
G1 X97.746 Y101.777
;TYPE:Perimeter
G1 F1200.000
G1 X116.237 Y101.777 E6.29768
G1 X116.237 Y120.267 E7.13283
G1 X97.746 Y120.267 E7.96799
G1 X97.746 Y101.837 E8.80043
G1 X98.091 Y102.122 F4800.000
G1 F1200.000
G1 X115.892 Y102.122 E9.60443
G1 X115.892 Y119.922 E10.40843
G1 X98.091 Y119.922 E11.21243
G1 X98.091 Y102.182 E12.01372
G1 E10.01372 F2400.000
G92 E0
G1 X115.088 Y102.225 F4800.000
G1 E2.00000 F2400.000
;TYPE:Solid infill
;WIDTH:0.421358
G1 F1200.000
G1 X115.633 Y102.770 E2.03494
G1 X115.633 Y103.260 E2.05715
G1 X114.754 Y102.380 E2.11354
G1 X114.264 Y102.380 E2.13574
G1 X115.633 Y103.749 E2.22353
G1 X115.633 Y104.239 E2.24574
G1 X113.774 Y102.380 E2.36493
G1 X113.285 Y102.380 E2.38713
G1 X115.633 Y104.729 E2.53773
G1 X115.633 Y105.218 E2.55993
G1 X112.795 Y102.380 E2.74193
G1 X112.305 Y102.380 E2.76413
G1 X115.633 Y105.708 E2.97753
G1 X115.633 Y106.198 E2.99973
G1 X111.816 Y102.380 E3.24453
G1 X111.326 Y102.380 E3.26673
G1 X115.633 Y106.688 E3.54293
G1 X115.633 Y107.177 E3.56514
G1 X110.836 Y102.380 E3.87274
G1 X110.347 Y102.380 E3.89494
G1 X115.633 Y107.667 E4.23394
G1 X115.633 Y108.157 E4.25615
G1 X109.857 Y102.380 E4.62655
G1 X109.367 Y102.380 E4.64876
G1 X115.633 Y108.646 E5.05056
G1 X115.633 Y109.136 E5.07276
G1 X108.878 Y102.380 E5.50597
G1 X108.388 Y102.380 E5.52817
G1 X115.633 Y109.626 E5.99278
G1 X115.633 Y110.115 E6.01498
G1 X107.898 Y102.380 E6.51099
G1 X107.409 Y102.380 E6.53320
G1 X115.633 Y110.605 E7.06060
G1 X115.633 Y111.095 E7.08281
G1 X106.919 Y102.380 E7.64162
G1 X106.429 Y102.380 E7.66382
G1 X115.633 Y111.584 E8.25403
G1 X115.633 Y112.074 E8.27624
G1 X105.940 Y102.380 E8.89785
G1 X105.450 Y102.380 E8.92005
G1 X115.633 Y112.564 E9.57307
G1 X115.633 Y113.053 E9.59527
G1 X104.960 Y102.380 E10.27969
G1 X104.471 Y102.380 E10.30189
G1 X115.633 Y113.543 E11.01771
G1 X115.633 Y114.033 E11.03991
G1 X103.981 Y102.380 E11.78713
G1 X103.491 Y102.380 E11.80933
G1 X115.633 Y114.522 E12.58795
G1 X115.633 Y115.012 E12.61016
G1 X103.002 Y102.380 E13.42018
G1 X102.512 Y102.380 E13.44238
G1 X115.633 Y115.502 E14.28380
G1 X115.633 Y115.991 E14.30601
G1 X102.022 Y102.380 E15.17883
G1 X101.533 Y102.380 E15.20103
G1 X115.633 Y116.481 E16.10526
G1 X115.633 Y116.971 E16.12746
G1 X101.043 Y102.380 E17.06309
G1 X100.553 Y102.380 E17.08529
G1 X115.633 Y117.460 E18.05232
G1 X115.633 Y117.950 E18.07452
G1 X100.064 Y102.380 E19.07295
G1 X99.574 Y102.380 E19.09515
G1 X115.633 Y118.440 E20.12498
G1 X115.633 Y118.929 E20.14718
G1 X99.084 Y102.380 E21.20841
G1 X98.595 Y102.380 E21.23062
G1 X115.633 Y119.419 E22.32325
G1 X115.633 Y119.664 E22.33435
G1 X115.388 Y119.664 E22.34545
G1 X98.350 Y102.625 E23.43807
G1 X98.350 Y103.115 E23.46028
G1 X114.899 Y119.664 E24.52150
G1 X114.409 Y119.664 E24.54370
G1 X98.350 Y103.605 E25.57352
G1 X98.350 Y104.094 E25.59573
G1 X113.919 Y119.664 E26.59415
G1 X113.430 Y119.664 E26.61635
G1 X98.350 Y104.584 E27.58337
G1 X98.350 Y105.074 E27.60557
G1 X112.940 Y119.664 E28.54119
G1 X112.450 Y119.664 E28.56339
G1 X98.350 Y105.563 E29.46761
G1 X98.350 Y106.053 E29.48981
G1 X111.961 Y119.664 E30.36262
G1 X111.471 Y119.664 E30.38483
G1 X98.350 Y106.543 E31.22624
G1 X98.350 Y107.032 E31.24845
G1 X110.981 Y119.664 E32.05846
G1 X110.492 Y119.664 E32.08066
G1 X98.350 Y107.522 E32.85927
G1 X98.350 Y108.012 E32.88147
G1 X110.002 Y119.664 E33.62868
G1 X109.512 Y119.664 E33.65089
G1 X98.350 Y108.501 E34.36670
G1 X98.350 Y108.991 E34.38890
G1 X109.023 Y119.664 E35.07331
G1 X108.533 Y119.664 E35.09551
G1 X98.350 Y109.481 E35.74851
G1 X98.350 Y109.970 E35.77072
G1 X108.043 Y119.664 E36.39232
G1 X107.554 Y119.664 E36.41453
G1 X98.350 Y110.460 E37.00473
G1 X98.350 Y110.950 E37.02693
G1 X107.064 Y119.664 E37.58573
G1 X106.574 Y119.664 E37.60794
G1 X98.350 Y111.439 E38.13534
G1 X98.350 Y111.929 E38.15754
G1 X106.085 Y119.664 E38.65354
G1 X105.595 Y119.664 E38.67575
G1 X98.350 Y112.419 E39.14034
G1 X98.350 Y112.908 E39.16255
G1 X105.105 Y119.664 E39.59574
G1 X104.616 Y119.664 E39.61795
G1 X98.350 Y113.398 E40.01974
G1 X98.350 Y113.888 E40.04195
G1 X104.126 Y119.664 E40.41234
G1 X103.636 Y119.664 E40.43455
G1 X98.350 Y114.377 E40.77354
G1 X98.350 Y114.867 E40.79574
G1 X103.147 Y119.664 E41.10333
G1 X102.657 Y119.664 E41.12554
G1 X98.350 Y115.357 E41.40173
G1 X98.350 Y115.846 E41.42393
G1 X102.167 Y119.664 E41.66872
G1 X101.678 Y119.664 E41.69093
G1 X98.350 Y116.336 E41.90431
G1 X98.350 Y116.826 E41.92652
G1 X101.188 Y119.664 E42.10851
G1 X100.698 Y119.664 E42.13071
G1 X98.350 Y117.315 E42.28129
G1 X98.350 Y117.805 E42.30350
G1 X100.209 Y119.664 E42.42268
G1 X99.719 Y119.664 E42.44489
G1 X98.350 Y118.295 E42.53267
G1 X98.350 Y118.784 E42.55487
G1 X99.229 Y119.664 E42.61126
G1 X98.740 Y119.664 E42.63346
G1 X98.195 Y119.119 E42.66839
M106 S91.8
;LAYER_CHANGE
;Z:0.65
;HEIGHT:0.3
G1 Z0.650 F4800.000
G10 S210 ; set temperature
G1 E40.66839 F2400.000
G92 E0
G1 X90.862 Y122.662 F4800.000
G1 E2.00000 F2400.000
;TYPE:Skirt
;WIDTH:0.42
G1 F3600.000
G1 X90.652 Y121.287 E2.05553
G1 X90.656 Y100.686 E2.87790
G1 X90.776 Y99.749 E2.91562
G1 X91.034 Y98.840 E2.95335
G1 X91.424 Y97.979 E2.99107
G1 X91.938 Y97.186 E3.02880
G1 X92.824 Y96.237 E3.08063
G1 X93.891 Y95.486 E3.13270
G1 X95.083 Y94.971 E3.18453
G1 X96.361 Y94.709 E3.23661
G1 X116.998 Y94.677 E4.06043
G1 X118.106 Y94.776 E4.10484
G1 X119.180 Y95.066 E4.14925
G1 X120.186 Y95.540 E4.19366
G1 X121.095 Y96.182 E4.23807
G1 X121.877 Y96.973 E4.28248
G1 X122.509 Y97.889 E4.32689
G1 X122.971 Y98.901 E4.37130
G1 X123.250 Y99.978 E4.41571
G1 X123.336 Y101.000 E4.45665
G1 X123.329 Y121.327 E5.26809
G1 X123.212 Y122.271 E5.30606
G1 X122.956 Y123.187 E5.34404
G1 X122.565 Y124.054 E5.38201
G1 X122.045 Y124.858 E5.42023
G1 X121.088 Y125.867 E5.47576
G1 X119.928 Y126.647 E5.53154
G1 X118.632 Y127.151 E5.58708
G1 X117.256 Y127.361 E5.64261
G1 X96.656 Y127.358 E6.46498
G1 X95.718 Y127.238 E6.50270
G1 X94.809 Y126.980 E6.54042
G1 X93.949 Y126.590 E6.57815
G1 X93.155 Y126.076 E6.61587
G1 X92.146 Y125.118 E6.67141
G1 X91.367 Y123.958 E6.72719
G1 X90.884 Y122.718 E6.78033
G1 E4.78033 F2400.000
G92 E0
G1 X97.217 Y101.432 F4800.000
G1 E2.00000 F2400.000
;TYPE:External perimeter
;WIDTH:0.45
G1 F1800.000
G1 X97.217 Y101.247 E2.00801
G1 X116.767 Y101.247 E2.85427
G1 X116.767 Y120.797 E3.70053
G1 X97.217 Y120.797 E4.54679
G1 X97.217 Y101.492 E5.38244
G1 X97.347 Y101.301 F4800.000
G1 X97.602 Y101.633
;TYPE:Perimeter
G1 F3600.000
G1 X116.381 Y101.633 E6.19532
G1 X116.381 Y120.411 E7.00819
G1 X97.602 Y120.411 E7.82106
G1 X97.602 Y101.693 E8.63134
G1 X97.988 Y102.018 F4800.000
G1 F3600.000
G1 X115.995 Y102.018 E9.41083
G1 X115.995 Y120.026 E10.19032
G1 X97.988 Y120.026 E10.96981
G1 X97.988 Y102.078 E11.74671
G1 X115.096 Y119.910 F4800.000
;TYPE:Solid infill
;WIDTH:0.451978
G1 F1200.000
G1 X115.706 Y119.300 E11.78425
G1 X115.706 Y118.752 E11.80810
G1 X114.721 Y119.737 E11.86870
G1 X114.173 Y119.737 E11.89255
G1 X115.706 Y118.204 E11.98687
G1 X115.706 Y117.656 E12.01072
G1 X113.625 Y119.737 E12.13877
G1 X113.077 Y119.737 E12.16262
G1 X115.706 Y117.107 E12.32440
G1 X115.706 Y116.559 E12.34825
G1 X112.529 Y119.737 E12.54376
G1 X111.981 Y119.737 E12.56761
G1 X115.706 Y116.011 E12.79684
G1 X115.706 Y115.463 E12.82069
G1 X111.432 Y119.737 E13.08366
G1 X110.884 Y119.737 E13.10751
G1 X115.706 Y114.915 E13.40420
G1 X115.706 Y114.367 E13.42805
G1 X110.336 Y119.737 E13.75847
G1 X109.788 Y119.737 E13.78232
G1 X115.706 Y113.818 E14.14646
G1 X115.706 Y113.270 E14.17031
G1 X109.240 Y119.737 E14.56819
G1 X108.692 Y119.737 E14.59204
G1 X115.706 Y112.722 E15.02364
G1 X115.706 Y112.174 E15.04749
G1 X108.144 Y119.737 E15.51282
G1 X107.595 Y119.737 E15.53667
G1 X115.706 Y111.626 E16.03573
G1 X115.706 Y111.078 E16.05958
G1 X107.047 Y119.737 E16.59236
G1 X106.499 Y119.737 E16.61621
G1 X115.706 Y110.530 E17.18273
G1 X115.706 Y109.981 E17.20657
G1 X105.951 Y119.737 E17.80682
G1 X105.403 Y119.737 E17.83067
G1 X115.706 Y109.433 E18.46464
G1 X115.706 Y108.885 E18.48849
G1 X104.855 Y119.737 E19.15618
G1 X104.307 Y119.737 E19.18003
G1 X115.706 Y108.337 E19.88146
G1 X115.706 Y107.789 E19.90531
G1 X103.758 Y119.737 E20.64046
G1 X103.210 Y119.737 E20.66431
G1 X115.706 Y107.241 E21.43319
G1 X115.706 Y106.693 E21.45704
G1 X102.662 Y119.737 E22.25965
G1 X102.114 Y119.737 E22.28350
G1 X115.706 Y106.144 E23.11984
G1 X115.706 Y105.596 E23.14368
G1 X101.566 Y119.737 E24.01375
G1 X101.018 Y119.737 E24.03760
G1 X115.706 Y105.048 E24.94139
G1 X115.706 Y104.500 E24.96524
G1 X100.470 Y119.737 E25.90276
G1 X99.921 Y119.737 E25.92661
G1 X115.706 Y103.952 E26.89786
G1 X115.706 Y103.404 E26.92171
G1 X99.373 Y119.737 E27.92668
G1 X98.825 Y119.737 E27.95053
G1 X115.706 Y102.856 E28.98924
G1 X115.706 Y102.307 E29.01308
G1 X98.277 Y119.737 E30.08551
G1 X98.277 Y119.188 E30.10936
G1 X115.158 Y102.307 E31.14806
G1 X114.610 Y102.307 E31.17191
G1 X98.277 Y118.640 E32.17688
G1 X98.277 Y118.092 E32.20073
G1 X114.062 Y102.307 E33.17197
G1 X113.513 Y102.307 E33.19582
G1 X98.277 Y117.544 E34.13334
G1 X98.277 Y116.996 E34.15718
G1 X112.965 Y102.307 E35.06097
G1 X112.417 Y102.307 E35.08482
G1 X98.277 Y116.448 E35.95488
G1 X98.277 Y115.900 E35.97873
G1 X111.869 Y102.307 E36.81506
G1 X111.321 Y102.307 E36.83891
G1 X98.277 Y115.351 E37.64151
G1 X98.277 Y114.803 E37.66536
G1 X110.773 Y102.307 E38.43424
G1 X110.225 Y102.307 E38.45809
G1 X98.277 Y114.255 E39.19324
G1 X98.277 Y113.707 E39.21708
G1 X109.676 Y102.307 E39.91850
G1 X109.128 Y102.307 E39.94235
G1 X98.277 Y113.159 E40.61005
G1 X98.277 Y112.611 E40.63390
G1 X108.580 Y102.307 E41.26786
G1 X108.032 Y102.307 E41.29171
G1 X98.277 Y112.063 E41.89195
G1 X98.277 Y111.514 E41.91579
G1 X107.484 Y102.307 E42.48230
G1 X106.936 Y102.307 E42.50615
G1 X98.277 Y110.966 E43.03893
G1 X98.277 Y110.418 E43.06278
G1 X106.388 Y102.307 E43.56183
G1 X105.839 Y102.307 E43.58568
G1 X98.277 Y109.870 E44.05101
G1 X98.277 Y109.322 E44.07486
G1 X105.291 Y102.307 E44.50646
G1 X104.743 Y102.307 E44.53030
G1 X98.277 Y108.774 E44.92817
G1 X98.277 Y108.226 E44.95202
G1 X104.195 Y102.307 E45.31617
G1 X103.647 Y102.307 E45.34001
G1 X98.277 Y107.677 E45.67043
G1 X98.277 Y107.129 E45.69428
G1 X103.099 Y102.307 E45.99096
G1 X102.551 Y102.307 E46.01481
G1 X98.277 Y106.581 E46.27777
G1 X98.277 Y106.033 E46.30162
G1 X102.002 Y102.307 E46.53085
G1 X101.454 Y102.307 E46.55470
G1 X98.277 Y105.485 E46.75020
G1 X98.277 Y104.937 E46.77405
G1 X100.906 Y102.307 E46.93582
G1 X100.358 Y102.307 E46.95967
G1 X98.277 Y104.389 E47.08772
G1 X98.277 Y103.840 E47.11157
G1 X99.810 Y102.307 E47.20589
G1 X99.262 Y102.307 E47.22974
G1 X98.277 Y103.292 E47.29033
G1 X98.277 Y102.744 E47.31418
G1 X98.887 Y102.134 E47.35172
M106 S183.6
;LAYER_CHANGE
;Z:0.95
;HEIGHT:0.3
G1 Z0.950 F4800.000
G1 X97.217 Y101.432
;TYPE:External perimeter
;WIDTH:0.45
G1 F1800.000
G1 X97.217 Y101.247 E47.35973
G1 X116.767 Y101.247 E48.20599
G1 X116.767 Y120.797 E49.05225
G1 X97.217 Y120.797 E49.89850
G1 X97.217 Y101.492 E50.73416
G1 X97.347 Y101.301 F4800.000
G1 X97.602 Y101.633
;TYPE:Perimeter
G1 F3600.000
G1 X116.381 Y101.633 E51.54703
G1 X116.381 Y120.411 E52.35991
G1 X97.602 Y120.411 E53.17278
G1 X97.602 Y101.693 E53.98306
G1 X97.988 Y102.018 F4800.000
G1 F3600.000
G1 X115.995 Y102.018 E54.76255
G1 X115.995 Y120.026 E55.54204
G1 X97.988 Y120.026 E56.32153
G1 X97.988 Y102.078 E57.09843
G1 X115.880 Y102.918 F4800.000
;TYPE:Solid infill
;WIDTH:0.451978
G1 F1200.000
G1 X115.269 Y102.307 E57.13597
G1 X114.721 Y102.307 E57.15982
G1 X115.706 Y103.292 E57.22042
G1 X115.706 Y103.840 E57.24427
G1 X114.173 Y102.307 E57.33859
G1 X113.625 Y102.307 E57.36244
G1 X115.706 Y104.389 E57.49049
G1 X115.706 Y104.937 E57.51434
G1 X113.077 Y102.307 E57.67612
G1 X112.529 Y102.307 E57.69997
G1 X115.706 Y105.485 E57.89548
G1 X115.706 Y106.033 E57.91933
G1 X111.981 Y102.307 E58.14856
G1 X111.432 Y102.307 E58.17241
G1 X115.706 Y106.581 E58.43538
G1 X115.706 Y107.129 E58.45922
G1 X110.884 Y102.307 E58.75592
G1 X110.336 Y102.307 E58.77977
G1 X115.706 Y107.677 E59.11018
G1 X115.706 Y108.226 E59.13403
G1 X109.788 Y102.307 E59.49818
G1 X109.240 Y102.307 E59.52203
G1 X115.706 Y108.774 E59.91991
G1 X115.706 Y109.322 E59.94375
G1 X108.692 Y102.307 E60.37536
G1 X108.144 Y102.307 E60.39921
G1 X115.706 Y109.870 E60.86454
G1 X115.706 Y110.418 E60.88839
G1 X107.595 Y102.307 E61.38744
G1 X107.047 Y102.307 E61.41129
G1 X115.706 Y110.966 E61.94408
G1 X115.706 Y111.514 E61.96793
G1 X106.499 Y102.307 E62.53444
G1 X105.951 Y102.307 E62.55829
G1 X115.706 Y112.063 E63.15854
G1 X115.706 Y112.611 E63.18238
G1 X105.403 Y102.307 E63.81635
G1 X104.855 Y102.307 E63.84020
G1 X115.706 Y113.159 E64.50790
G1 X115.706 Y113.707 E64.53175
G1 X104.307 Y102.307 E65.23318
G1 X103.758 Y102.307 E65.25702
G1 X115.706 Y114.255 E65.99218
G1 X115.706 Y114.803 E66.01603
G1 X103.210 Y102.307 E66.78491
G1 X102.662 Y102.307 E66.80876
G1 X115.706 Y115.351 E67.61137
G1 X115.706 Y115.900 E67.63522
G1 X102.114 Y102.307 E68.47155
G1 X101.566 Y102.307 E68.49540
G1 X115.706 Y116.448 E69.36547
G1 X115.706 Y116.996 E69.38932
G1 X101.018 Y102.307 E70.29311
G1 X100.470 Y102.307 E70.31696
G1 X115.706 Y117.544 E71.25448
G1 X115.706 Y118.092 E71.27833
G1 X99.921 Y102.307 E72.24958
G1 X99.373 Y102.307 E72.27343
G1 X115.706 Y118.640 E73.27840
G1 X115.706 Y119.189 E73.30225
G1 X98.825 Y102.307 E74.34095
G1 X98.277 Y102.307 E74.36480
G1 X115.706 Y119.737 E75.43723
G1 X115.158 Y119.737 E75.46108
G1 X98.277 Y102.856 E76.49978
G1 X98.277 Y103.404 E76.52363
G1 X114.610 Y119.737 E77.52860
G1 X114.062 Y119.737 E77.55245
G1 X98.277 Y103.952 E78.52369
G1 X98.277 Y104.500 E78.54754
G1 X113.513 Y119.737 E79.48505
G1 X112.965 Y119.737 E79.50890
G1 X98.277 Y105.048 E80.41269
G1 X98.277 Y105.596 E80.43654
G1 X112.417 Y119.737 E81.30660
G1 X111.869 Y119.737 E81.33045
G1 X98.277 Y106.145 E82.16678
G1 X98.277 Y106.693 E82.19063
G1 X111.321 Y119.737 E82.99323
G1 X110.773 Y119.737 E83.01708
