; G-Code generated by Simplify3D(R) Version 4.1.2
; Jun 30, 2021 at 9:13:29 AM
; Settings Summary
;   processName,Color2
;   applyToModels,clips_V2
;   profileName,blv_triple_head (modified)
;   profileVersion,2021-06-17 01:43:00
;   baseProfile,Default
;   printMaterial,PLA
;   printQuality,Medium
;   printExtruders,All Extruders
;   extruderName,Extruder 1,Extruder 2,Extruder 3
;   extruderToolheadNumber,0,1,2
;   extruderDiameter,0.4,0.4,0.4
;   extruderAutoWidth,0,0,0
;   extruderWidth,0.4,0.4,0.4
;   extrusionMultiplier,0.9,0.9,0.9
;   extruderUseRetract,1,1,1
;   extruderRetractionDistance,1,1,1
;   extruderExtraRestartDistance,0,0,0
;   extruderRetractionZLift,0,0,0
;   extruderRetractionSpeed,1800,1800,1800
;   extruderUseCoasting,0,0,0
;   extruderCoastingDistance,0.2,0.2,0.2
;   extruderUseWipe,0,0,0
;   extruderWipeDistance,5,5,5
;   primaryExtruder,1
;   layerHeight,0.2
;   topSolidLayers,3
;   bottomSolidLayers,3
;   perimeterOutlines,2
;   printPerimetersInsideOut,1
;   startPointOption,2
;   startPointOriginX,0
;   startPointOriginY,0
;   sequentialIslands,0
;   spiralVaseMode,0
;   firstLayerHeightPercentage,100
;   firstLayerWidthPercentage,100
;   firstLayerUnderspeed,0.5
;   useRaft,0
;   raftExtruder,2
;   raftTopLayers,3
;   raftBaseLayers,2
;   raftOffset,3
;   raftSeparationDistance,0.14
;   raftTopInfill,100
;   aboveRaftSpeedMultiplier,0.3
;   useSkirt,0
;   skirtExtruder,0
;   skirtLayers,1
;   skirtOutlines,2
;   skirtOffset,4
;   usePrimePillar,0
;   primePillarExtruder,999
;   primePillarWidth,12
;   primePillarLocation,7
;   primePillarSpeedMultiplier,1
;   useOozeShield,0
;   oozeShieldExtruder,999
;   oozeShieldOffset,2
;   oozeShieldOutlines,1
;   oozeShieldSidewallShape,1
;   oozeShieldSidewallAngle,30
;   oozeShieldSpeedMultiplier,1
;   infillExtruder,1
;   internalInfillPattern,Rectilinear
;   externalInfillPattern,Rectilinear
;   infillPercentage,20
;   outlineOverlapPercentage,15
;   infillExtrusionWidthPercentage,100
;   minInfillLength,5
;   infillLayerInterval,1
;   internalInfillAngles,45,-45
;   overlapInternalInfillAngles,0
;   externalInfillAngles,45,-45
;   generateSupport,0
;   supportExtruder,1
;   supportInfillPercentage,30
;   supportExtraInflation,0
;   supportBaseLayers,0
;   denseSupportExtruder,1
;   denseSupportLayers,0
;   denseSupportInfillPercentage,70
;   supportLayerInterval,1
;   supportHorizontalPartOffset,0.3
;   supportUpperSeparationLayers,1
;   supportLowerSeparationLayers,1
;   supportType,0
;   supportGridSpacing,4
;   maxOverhangAngle,45
;   supportAngles,0
;   temperatureName,Extruder 1,Extruder 2,Extruder 3,Heated Bed
;   temperatureNumber,0,1,2,0
;   temperatureSetpointCount,1,1,1,1
;   temperatureSetpointLayers,1,1,1,1
;   temperatureSetpointTemperatures,190,190,190,60
;   temperatureStabilizeAtStartup,1,1,1,1
;   temperatureHeatedBed,0,0,0,1
;   fanLayers,1,2
;   fanSpeeds,0,100
;   blipFanToFullPower,0
;   adjustSpeedForCooling,1
;   minSpeedLayerTime,15
;   minCoolingSpeedSlowdown,20
;   increaseFanForCooling,0
;   minFanLayerTime,45
;   maxCoolingFanSpeed,100
;   increaseFanForBridging,0
;   bridgingFanSpeed,100
;   use5D,1
;   relativeEdistances,0
;   allowEaxisZeroing,1
;   independentExtruderAxes,0
;   includeM10123,0
;   stickySupport,1
;   applyToolheadOffsets,0
;   gcodeXoffset,0
;   gcodeYoffset,0
;   gcodeZoffset,0
;   overrideMachineDefinition,1
;   machineTypeOverride,0
;   strokeXoverride,310
;   strokeYoverride,310
;   strokeZoverride,355
;   originOffsetXoverride,0
;   originOffsetYoverride,0
;   originOffsetZoverride,0
;   homeXdirOverride,-1
;   homeYdirOverride,-1
;   homeZdirOverride,-1
;   flipXoverride,1
;   flipYoverride,-1
;   flipZoverride,1
;   toolheadOffsets,0,0|0,0|0,0|0,0|0,0|0,0
;   overrideFirmwareConfiguration,1
;   firmwareTypeOverride,RepRap (Marlin/Repetier/Sprinter)
;   GPXconfigOverride,r2
;   baudRateOverride,115200
;   overridePrinterModels,0
;   printerModelsOverride
;   startingGcode,G28 ; home all axes
;   layerChangeGcode,
;   retractionGcode,
;   toolChangeGcode,T[new_tool],M98 P"/macros/set_baby_step"	; set baby step,M98 P"/macros/purge_wipe"; purge and wipe,M98 P"/macros/restore_tool_change_start_position" ; go back to the position right before the tool change
;   endingGcode,M568 P0 S0 R0 A0                                                   ; turn off tools,M568 P1 S0 R0 A0,M568 P2 S0 R0 A0,M140 S-273                                                             ; switch off bed,M98 P"/macros/remove_baby_step"	; unset baby step,M98 P"/macros/rise30mm",M98 P"/macros/rise30mm",T-1,G1 X0 Y310 F1000 ; prepare for part removal,M84 ; disable motors,M106 S0 ;turn off part cooling fan
;   exportFileFormat,gcode
;   celebration,0
;   celebrationSong,Random Song
;   postProcessing,
;   defaultSpeed,4800
;   outlineUnderspeed,0.5
;   solidInfillUnderspeed,0.8
;   supportUnderspeed,0.8
;   rapidXYspeed,7200
;   rapidZspeed,1002
;   minBridgingArea,50
;   bridgingExtraInflation,0
;   bridgingExtrusionMultiplier,1
;   bridgingSpeedMultiplier,1
;   useFixedBridgingAngle,0
;   fixedBridgingAngle,0
;   applyBridgingToPerimeters,0
;   filamentDiameters,1.75|1.75|1.75|1.75|1.75|1.75
;   filamentPricesPerKg,46|46|46|46|46|46
;   filamentDensities,1.25|1.25|1.25|1.25|1.25|1.25
;   useMinPrintHeight,0
;   minPrintHeight,0
;   useMaxPrintHeight,0
;   maxPrintHeight,0
;   useDiaphragm,0
;   diaphragmLayerInterval,20
;   robustSlicing,1
;   mergeAllIntoSolid,0
;   onlyRetractWhenCrossingOutline,1
;   retractBetweenLayers,1
;   useRetractionMinTravel,0
;   retractionMinTravel,3
;   retractWhileWiping,0
;   onlyWipeOutlines,1
;   avoidCrossingOutline,0
;   maxMovementDetourFactor,3
;   toolChangeRetractionDistance,12
;   toolChangeExtraRestartDistance,-0.5
;   toolChangeRetractionSpeed,600
;   externalThinWallType,0
;   internalThinWallType,1
;   thinWallAllowedOverlapPercentage,10
;   singleExtrusionMinLength,1
;   singleExtrusionMinPrintingWidthPercentage,50
;   singleExtrusionMaxPrintingWidthPercentage,200
;   singleExtrusionEndpointExtension,0.2
;   horizontalSizeCompensation,0
G90
M82
M106 S0
M140 S60
M190 S60
M104 S190 T2
M109 S190 T2
G28 ; home all axes
; process Color2
; layer 1, Z = 0.200
T2
M98 P"/macros/set_baby_step"	; set baby step
M98 P"/macros/purge_wipe"; purge and wipe
M98 P"/macros/restore_tool_change_start_position" ; go back to the position right before the tool change
G92 E0.0000
G1 E-1.0000 F1800
; feature inner perimeter
; tool H0.200 W0.400
G1 Z0.200 F1002
G1 X142.858 Y138.423 F7200
G1 E0.0000 F1800
G92 E0.0000
G1 X143.093 Y138.244 E0.0089 F1800
G1 X143.254 Y138.161 E0.0143
G1 X143.424 Y138.100 E0.0197
G1 X143.726 Y138.048 E0.0288
G1 X158.761 Y138.044 E0.4789
G1 X159.210 Y138.013 E0.4924
G1 X159.467 Y137.968 E0.5002
G1 X159.910 Y137.844 E0.5140
G1 X160.144 Y137.752 E0.5215
G1 X160.370 Y137.644 E0.5290
G1 X160.772 Y137.400 E0.5431
G1 X161.145 Y137.096 E0.5575
G1 X161.473 Y136.745 E0.5719
G1 X161.744 Y136.360 E0.5859
G1 X161.867 Y136.142 E0.5934
G1 X161.975 Y135.915 E0.6009
G1 X162.132 Y135.472 E0.6150
G1 X162.229 Y135.001 E0.6294
G1 X162.260 Y134.542 E0.6432
G1 X162.263 Y131.416 E0.7368
G1 X162.315 Y131.114 E0.7459
G1 X162.375 Y130.944 E0.7513
G1 X162.463 Y130.774 E0.7571
G1 X162.567 Y130.627 E0.7625
G1 X162.783 Y130.410 E0.7716
G1 X162.931 Y130.306 E0.7770
G1 X163.091 Y130.222 E0.7824
G1 X163.557 Y130.074 E0.7971
G1 X163.560 Y133.115 E0.8881
G1 X167.558 Y133.121 E1.0078
G1 X167.553 Y134.430 E1.0470
G1 X167.489 Y134.554 E1.0512
G1 X167.384 Y134.599 E1.0546
G1 X167.280 Y134.614 E1.0577
G1 X163.561 Y134.616 E1.1691
G1 X163.588 Y175.316 E2.3874
G1 X167.337 Y175.314 E2.4996
G1 X167.427 Y175.323 E2.5023
G1 X167.494 Y175.355 E2.5045
G1 X167.547 Y175.407 E2.5068
G1 X167.573 Y175.461 E2.5086
G1 X167.586 Y175.514 E2.5102
G1 X167.588 Y175.554 E2.5114
G1 X167.589 Y176.462 E2.5386
G1 X167.571 Y176.596 E2.5426
G1 X167.551 Y176.645 E2.5442
G1 X167.523 Y176.688 E2.5458
G1 X167.447 Y176.759 E2.5489
G1 X167.401 Y176.785 E2.5504
G1 X167.342 Y176.804 E2.5523
G1 X167.248 Y176.814 E2.5551
G1 X163.589 Y176.816 E2.6646
G1 X163.591 Y179.906 E2.7571
G1 X163.213 Y179.814 E2.7688
G1 X163.048 Y179.742 E2.7742
G1 X162.893 Y179.649 E2.7796
G1 X162.670 Y179.454 E2.7884
G1 X162.497 Y179.227 E2.7970
G1 X162.370 Y178.959 E2.8059
G1 X162.324 Y178.796 E2.8110
G1 X162.290 Y178.470 E2.8208
G1 X162.282 Y173.704 E2.9634
G1 X162.233 Y173.344 E2.9743
G1 X162.079 Y172.858 E2.9896
G1 X161.912 Y172.535 E3.0005
G1 X161.708 Y172.245 E3.0110
G1 X161.460 Y171.979 E3.0219
G1 X161.055 Y171.670 E3.0372
G1 X160.723 Y171.496 E3.0484
G1 X160.238 Y171.340 E3.0637
G1 X159.877 Y171.289 E3.0746
G1 X159.523 Y171.287 E3.0852
G1 X159.112 Y171.341 E3.0976
G1 X159.019 Y171.058 E3.1065
G1 X159.502 Y170.791 E3.1230
G1 X159.736 Y170.604 E3.1320
G1 X159.941 Y170.387 E3.1409
G1 X160.175 Y170.035 E3.1536
G1 X160.331 Y169.642 E3.1663
G1 X160.393 Y169.349 E3.1752
G1 X160.411 Y169.082 E3.1832
G1 X160.404 Y143.303 E3.9549
G1 X160.337 Y142.816 E3.9696
G1 X160.204 Y142.342 E3.9843
G1 X160.009 Y141.892 E3.9990
G1 X159.753 Y141.472 E4.0138
G1 X159.443 Y141.090 E4.0285
G1 X159.084 Y140.755 E4.0432
G1 X158.682 Y140.471 E4.0579
G1 X158.255 Y140.250 E4.0723
G1 X158.007 Y140.152 E4.0803
G1 X157.544 Y140.022 E4.0947
G1 X157.067 Y139.957 E4.1091
G1 X156.821 Y139.948 E4.1165
G1 X146.603 Y139.955 E4.4223
G1 X146.126 Y140.021 E4.4367
G1 X145.868 Y140.084 E4.4447
G1 X145.414 Y140.245 E4.4591
G1 X144.978 Y140.471 E4.4738
G1 X144.576 Y140.755 E4.4885
G1 X144.217 Y141.090 E4.5032
G1 X143.907 Y141.472 E4.5180
G1 X143.657 Y141.883 E4.5324
G1 X143.542 Y142.123 E4.5403
G1 X143.381 Y142.577 E4.5547
G1 X143.281 Y143.058 E4.5695
G1 X143.249 Y143.528 E4.5836
G1 X143.253 Y169.185 E5.3516
G1 X143.323 Y169.592 E5.3639
G1 X143.425 Y169.874 E5.3729
G1 X143.564 Y170.139 E5.3819
G1 X143.816 Y170.467 E5.3942
G1 X144.044 Y170.676 E5.4035
G1 X144.392 Y170.899 E5.4159
G1 X144.678 Y171.019 E5.4252
G1 X145.091 Y171.114 E5.4379
G1 X145.514 Y171.121 E5.4505
G1 X145.821 Y171.073 E5.4598
G1 X146.222 Y170.937 E5.4725
G1 X146.586 Y170.722 E5.4852
G1 X146.822 Y170.520 E5.4944
G1 X147.092 Y170.194 E5.5071
G1 X147.294 Y169.810 E5.5201
G1 X147.409 Y169.405 E5.5327
G1 X148.770 Y157.246 E5.8989
G1 X149.122 Y157.279 E5.9095
G1 X148.238 Y169.240 E6.2685
G1 X148.216 Y169.441 E6.2746
G1 X148.127 Y169.848 E6.2871
G1 X147.986 Y170.229 E6.2992
G1 X147.794 Y170.587 E6.3114
G1 X147.554 Y170.914 E6.3235
G1 X147.263 Y171.213 E6.3360
G1 X147.123 Y171.329 E6.3415
G1 X146.777 Y171.561 E6.3539
G1 X146.411 Y171.737 E6.3661
G1 X146.024 Y171.862 E6.3782
G1 X145.624 Y171.931 E6.3904
G1 X145.208 Y171.944 E6.4029
G1 X145.026 Y171.931 E6.4083
G1 X144.616 Y171.857 E6.4208
G1 X144.230 Y171.731 E6.4330
G1 X143.866 Y171.552 E6.4451
G1 X143.529 Y171.325 E6.4573
G1 X143.220 Y171.046 E6.4697
G1 X143.098 Y170.910 E6.4752
G1 X142.854 Y170.573 E6.4877
G1 X142.664 Y170.214 E6.4998
G1 X142.521 Y169.822 E6.5123
G1 X142.477 Y169.645 E6.5177
G1 X142.418 Y169.223 E6.5305
G1 X142.411 Y169.019 E6.5366
G1 X142.416 Y139.348 E7.4248
G1 X142.440 Y139.169 E7.4302
G1 X142.530 Y138.887 E7.4391
G1 X142.670 Y138.638 E7.4476
G1 X142.858 Y138.423 E7.4562
G92 E0.0000
G1 E-1.0000 F1800
G1 X154.504 Y157.107 F7200
G1 E0.0000 F1800
G92 E0.0000
G1 X154.856 Y157.074 E0.0106 F1800
G1 X156.232 Y169.316 E0.3793
G1 X156.282 Y169.590 E0.3877
G1 X156.424 Y169.977 E0.4000
G1 X156.580 Y170.244 E0.4093
G1 X156.844 Y170.561 E0.4216
G1 X157.081 Y170.760 E0.4309
G1 X157.437 Y170.969 E0.4432
G1 X157.790 Y171.100 E0.4545
G1 X157.690 Y171.425 E0.4647
G1 X157.473 Y171.372 E0.4714
G1 X157.087 Y171.234 E0.4837
G1 X156.921 Y171.155 E0.4892
G1 X156.760 Y171.064 E0.4947
G1 X156.434 Y170.834 E0.5066
G1 X156.150 Y170.569 E0.5183
G1 X155.897 Y170.260 E0.5302
G1 X155.801 Y170.115 E0.5354
G1 X155.616 Y169.761 E0.5474
G1 X155.484 Y169.396 E0.5590
G1 X155.403 Y169.015 E0.5707
G1 X154.504 Y157.107 E0.9281
; feature outer perimeter
G1 X156.628 Y169.257 F7200
G92 E0.0000
G1 X156.669 Y169.484 E0.0069 F1200
G1 X156.788 Y169.806 E0.0172
G1 X156.908 Y170.014 E0.0244
G1 X157.129 Y170.277 E0.0346
G1 X157.313 Y170.432 E0.0418
G1 X157.609 Y170.606 E0.0521
G1 X157.831 Y170.689 E0.0592
G1 X158.062 Y170.740 E0.0663
G1 X158.405 Y170.757 E0.0766
G1 X158.644 Y170.727 E0.0838
G1 X158.975 Y170.625 E0.0942
G1 X159.279 Y170.458 E0.1045
G1 X159.464 Y170.310 E0.1116
G1 X159.627 Y170.137 E0.1187
G1 X159.819 Y169.848 E0.1291
G1 X159.947 Y169.526 E0.1395
G1 X159.995 Y169.294 E0.1466
G1 X160.011 Y169.068 E0.1534
G1 X160.004 Y143.330 E0.9238
G1 X159.945 Y142.897 E0.9369
G1 X159.827 Y142.477 E0.9500
G1 X159.653 Y142.076 E0.9630
G1 X159.426 Y141.703 E0.9761
G1 X159.150 Y141.364 E0.9892
G1 X158.831 Y141.066 E1.0023
G1 X158.474 Y140.814 E1.0154
G1 X158.089 Y140.614 E1.0283
G1 X157.879 Y140.532 E1.0351
G1 X157.462 Y140.415 E1.0480
G1 X157.033 Y140.356 E1.0610
G1 X156.814 Y140.348 E1.0676
G1 X146.631 Y140.355 E1.3724
G1 X146.201 Y140.414 E1.3854
G1 X145.982 Y140.468 E1.3921
G1 X145.574 Y140.613 E1.4051
G1 X145.186 Y140.814 E1.4182
G1 X144.829 Y141.066 E1.4312
G1 X144.510 Y141.364 E1.4443
G1 X144.234 Y141.703 E1.4574
G1 X144.009 Y142.073 E1.4704
G1 X143.912 Y142.277 E1.4771
G1 X143.767 Y142.685 E1.4901
G1 X143.678 Y143.113 E1.5032
G1 X143.649 Y143.542 E1.5160
G1 X143.653 Y169.150 E2.2826
G1 X143.712 Y169.489 E2.2929
G1 X143.792 Y169.713 E2.3000
G1 X143.902 Y169.923 E2.3071
G1 X144.112 Y170.195 E2.3174
G1 X144.289 Y170.358 E2.3246
G1 X144.579 Y170.544 E2.3349
G1 X144.801 Y170.637 E2.3421
G1 X145.139 Y170.714 E2.3525
G1 X145.487 Y170.721 E2.3629
G1 X145.725 Y170.683 E2.3701
G1 X146.054 Y170.572 E2.3805
G1 X146.352 Y170.395 E2.3909
G1 X146.536 Y170.238 E2.3981
G1 X146.757 Y169.971 E2.4085
G1 X146.920 Y169.660 E2.4190
G1 X147.015 Y169.327 E2.4294
G1 X149.961 Y143.016 E3.2219
G1 X149.979 Y142.953 E3.2239
G1 X150.005 Y142.904 E3.2255
G1 X150.087 Y142.821 E3.2290
G1 X150.135 Y142.793 E3.2307
G1 X150.187 Y142.776 E3.2323
G1 X150.320 Y142.772 E3.2363
G1 X150.373 Y142.785 E3.2379
G1 X150.422 Y142.808 E3.2396
G1 X150.509 Y142.884 E3.2430
G1 X150.538 Y142.930 E3.2447
G1 X150.558 Y142.980 E3.2463
G1 X150.570 Y143.106 E3.2500
G1 X148.637 Y169.277 E4.0356
G1 X148.611 Y169.506 E4.0425
G1 X148.512 Y169.961 E4.0564
G1 X148.352 Y170.394 E4.0703
G1 X148.133 Y170.801 E4.0841
G1 X147.860 Y171.173 E4.0979
G1 X147.535 Y171.507 E4.1118
G1 X147.363 Y171.650 E4.1186
G1 X146.976 Y171.909 E4.1325
G1 X146.560 Y172.110 E4.1463
G1 X146.120 Y172.251 E4.1601
G1 X145.665 Y172.330 E4.1740
G1 X145.200 Y172.345 E4.1879
G1 X144.976 Y172.328 E4.1946
G1 X144.518 Y172.246 E4.2085
G1 X144.079 Y172.103 E4.2224
G1 X143.664 Y171.899 E4.2362
G1 X143.282 Y171.640 E4.2500
G1 X142.937 Y171.328 E4.2639
G1 X142.787 Y171.162 E4.2707
G1 X142.514 Y170.785 E4.2846
G1 X142.297 Y170.377 E4.2984
G1 X142.138 Y169.939 E4.3123
G1 X142.084 Y169.722 E4.3191
G1 X142.019 Y169.257 E4.3331
G1 X142.011 Y169.026 E4.3400
G1 X142.016 Y139.321 E5.2292
G1 X142.049 Y139.081 E5.2365
G1 X142.161 Y138.727 E5.2476
G1 X142.341 Y138.406 E5.2586
G1 X142.583 Y138.129 E5.2696
G1 X142.879 Y137.904 E5.2807
G1 X143.094 Y137.793 E5.2880
G1 X143.322 Y137.712 E5.2952
G1 X143.692 Y137.648 E5.3065
G1 X158.747 Y137.644 E5.7571
G1 X159.162 Y137.615 E5.7696
G1 X159.379 Y137.578 E5.7762
G1 X159.783 Y137.465 E5.7887
G1 X159.984 Y137.385 E5.7952
G1 X160.180 Y137.292 E5.8017
G1 X160.541 Y137.072 E5.8143
G1 X160.871 Y136.803 E5.8271
G1 X161.162 Y136.492 E5.8398
G1 X161.405 Y136.147 E5.8525
G1 X161.511 Y135.958 E5.8590
G1 X161.604 Y135.762 E5.8655
G1 X161.746 Y135.364 E5.8781
