; G-Code generated by Simplify3D(R) Version 4.1.2
; Apr 15, 2021 at 10:48:21 PM
; Settings Summary
;   processName,Process1
;   applyToModels,fan shrouder back
;   profileName,BLV mgn Cube-  Simplify3D Profile (modified)
;   profileVersion,2021-04-02 01:52:57
;   baseProfile,Anet A8
;   printMaterial,PLA
;   printQuality,Medium
;   printExtruders,
;   extruderName,Primary Extruder
;   extruderToolheadNumber,0
;   extruderDiameter,0.4
;   extruderAutoWidth,1
;   extruderWidth,0.48
;   extrusionMultiplier,1
;   extruderUseRetract,1
;   extruderRetractionDistance,1.5
;   extruderExtraRestartDistance,0
;   extruderRetractionZLift,0
;   extruderRetractionSpeed,5100
;   extruderUseCoasting,1
;   extruderCoastingDistance,0.2
;   extruderUseWipe,1
;   extruderWipeDistance,4
;   primaryExtruder,0
;   layerHeight,0.2
;   topSolidLayers,3
;   bottomSolidLayers,3
;   perimeterOutlines,3
;   printPerimetersInsideOut,0
;   startPointOption,3
;   startPointOriginX,0
;   startPointOriginY,500
;   sequentialIslands,0
;   spiralVaseMode,0
;   firstLayerHeightPercentage,150
;   firstLayerWidthPercentage,100
;   firstLayerUnderspeed,0.4
;   useRaft,0
;   raftExtruder,0
;   raftTopLayers,3
;   raftBaseLayers,2
;   raftOffset,3
;   raftSeparationDistance,0.14
;   raftTopInfill,100
;   aboveRaftSpeedMultiplier,0.3
;   useSkirt,1
;   skirtExtruder,0
;   skirtLayers,1
;   skirtOutlines,2
;   skirtOffset,6
;   usePrimePillar,0
;   primePillarExtruder,999
;   primePillarWidth,12
;   primePillarLocation,7
;   primePillarSpeedMultiplier,1
;   useOozeShield,0
;   oozeShieldExtruder,999
;   oozeShieldOffset,2
;   oozeShieldOutlines,1
;   oozeShieldSidewallShape,1
;   oozeShieldSidewallAngle,30
;   oozeShieldSpeedMultiplier,1
;   infillExtruder,0
;   internalInfillPattern,Rectilinear
;   externalInfillPattern,Rectilinear
;   infillPercentage,15
;   outlineOverlapPercentage,15
;   infillExtrusionWidthPercentage,100
;   minInfillLength,5
;   infillLayerInterval,1
;   internalInfillAngles,45,-45
;   overlapInternalInfillAngles,0
;   externalInfillAngles,45,-45
;   generateSupport,1
;   supportExtruder,0
;   supportInfillPercentage,30
;   supportExtraInflation,0
;   supportBaseLayers,0
;   denseSupportExtruder,0
;   denseSupportLayers,0
;   denseSupportInfillPercentage,70
;   supportLayerInterval,1
;   supportHorizontalPartOffset,0.4
;   supportUpperSeparationLayers,1
;   supportLowerSeparationLayers,1
;   supportType,0
;   supportGridSpacing,1
;   maxOverhangAngle,45
;   supportAngles,45,-45
;   temperatureName,Primary Extruder,Heated Bed
;   temperatureNumber,0,0
;   temperatureSetpointCount,2,1
;   temperatureSetpointLayers,1,2,1
;   temperatureSetpointTemperatures,215,210,60
;   temperatureStabilizeAtStartup,1,1
;   temperatureHeatedBed,0,1
;   fanLayers,1,2
;   fanSpeeds,0,100
;   blipFanToFullPower,1
;   adjustSpeedForCooling,1
;   minSpeedLayerTime,15
;   minCoolingSpeedSlowdown,20
;   increaseFanForCooling,0
;   minFanLayerTime,45
;   maxCoolingFanSpeed,100
;   increaseFanForBridging,1
;   bridgingFanSpeed,100
;   use5D,1
;   relativeEdistances,0
;   allowEaxisZeroing,1
;   independentExtruderAxes,0
;   includeM10123,0
;   stickySupport,1
;   applyToolheadOffsets,0
;   gcodeXoffset,24
;   gcodeYoffset,22
;   gcodeZoffset,0
;   overrideMachineDefinition,1
;   machineTypeOverride,0
;   strokeXoverride,310
;   strokeYoverride,310
;   strokeZoverride,334
;   originOffsetXoverride,0
;   originOffsetYoverride,0
;   originOffsetZoverride,0
;   homeXdirOverride,-1
;   homeYdirOverride,-1
;   homeZdirOverride,-1
;   flipXoverride,1
;   flipYoverride,-1
;   flipZoverride,1
;   toolheadOffsets,0,0|0,0|0,0|0,0|0,0|0,0
;   overrideFirmwareConfiguration,1
;   firmwareTypeOverride,RepRap (Marlin/Repetier/Sprinter)
;   GPXconfigOverride,r2
;   baudRateOverride,115200
;   overridePrinterModels,1
;   printerModelsOverride,Blvfull.stl
;   startingGcode,M291 P"Homing all axis" R"Printing.." S1 T2,G21		; metric values,G28		; home all,M98 P"/macros/load_meshbed"	; load mesh bed corresponding to the temp,M98 P"/macros/set_baby_step"	; set baby step,M98 P"/macros/purge_and_prime"; purge and do the prime line,,G92 E0 F100		; reset extruder,G1 Z10 F3000 		; move z up little to prevent scratching of surface,G92 E0 		; reset extruder,M291 P"Printing started !" R"Printing.." S1 T3
;   layerChangeGcode,
;   retractionGcode,
;   toolChangeGcode,
;   endingGcode,M104 S0 ; turn off extruder,M140 S0 ; turn off bed,M98 P"/macros/remove_baby_step"	; unset baby step,M98 P"/macros/rise30mm",G1 X0 Y300 F1000 ; prepare for part removal,M84 ; disable motors,M106 S0 ;turn off part cooling fan,;M81 ; shutdown,; play song,M300 S294 P200 ;D4: 294,M300 S588 P200 ;D5: 588,M300 S440 P200 ;A4: 440,M300 S392 P200 ;G4: 392,M300 S784 P200 ;G5: 784,M300 S440 P200 ;A4: 440,M300 S740 P200 ;F#5: 740,M300 S440 P200 ;A4: 440,M291 P"Printing finished !" R"Printing.." S1 T0,
;   exportFileFormat,gcode
;   celebration,0
;   celebrationSong,Star Wars
;   postProcessing,
;   defaultSpeed,6000
;   outlineUnderspeed,0.66
;   solidInfillUnderspeed,0.8
;   supportUnderspeed,0.8
;   rapidXYspeed,7200
;   rapidZspeed,1002
;   minBridgingArea,50
;   bridgingExtraInflation,0
;   bridgingExtrusionMultiplier,1
;   bridgingSpeedMultiplier,1
;   useFixedBridgingAngle,0
;   fixedBridgingAngle,0
;   applyBridgingToPerimeters,1
;   filamentDiameters,1.75|1.75|1.75|1.75|1.75|1.75
;   filamentPricesPerKg,30|110|110|110|110|110
;   filamentDensities,1.25|1.25|1.25|1.25|1.25|1.25
;   useMinPrintHeight,0
;   minPrintHeight,0
;   useMaxPrintHeight,0
;   maxPrintHeight,0
;   useDiaphragm,0
;   diaphragmLayerInterval,20
;   robustSlicing,1
;   mergeAllIntoSolid,0
;   onlyRetractWhenCrossingOutline,0
;   retractBetweenLayers,1
;   useRetractionMinTravel,1
;   retractionMinTravel,3
;   retractWhileWiping,1
;   onlyWipeOutlines,1
;   avoidCrossingOutline,1
;   maxMovementDetourFactor,3
;   toolChangeRetractionDistance,12
;   toolChangeExtraRestartDistance,-0.5
;   toolChangeRetractionSpeed,600
;   externalThinWallType,1
;   internalThinWallType,2
;   thinWallAllowedOverlapPercentage,15
;   singleExtrusionMinLength,1
;   singleExtrusionMinPrintingWidthPercentage,50
;   singleExtrusionMaxPrintingWidthPercentage,200
;   singleExtrusionEndpointExtension,0.2
;   horizontalSizeCompensation,0
G90
M82
M106 S0
M140 S60
M190 S60
M104 S215 T0
M109 S215 T0
M291 P"Homing all axis" R"Printing.." S1 T2
G21		; metric values
G28		; home all
M98 P"/macros/load_meshbed"	; load mesh bed corresponding to the temp
M98 P"/macros/set_baby_step"	; set baby step
M98 P"/macros/purge_and_prime"; purge and do the prime line
G92 E0 F100		; reset extruder
G1 Z10 F3000 		; move z up little to prevent scratching of surface
G92 E0 		; reset extruder
M291 P"Printing started !" R"Printing.." S1 T3
; process Process1
; layer 1, Z = 0.300
T0
G92 E0.0000
G1 E-1.5000 F5100
; feature skirt
; tool H0.300 W0.480
G1 Z0.300 F1002
G1 X151.731 Y183.049 F7200
G1 E0.0000 F5100
G92 E0.0000
G1 X150.617 Y182.560 E0.0728 F2400
G1 X150.128 Y182.296 E0.1061
G1 X149.110 Y181.630 E0.1789
G1 X148.671 Y181.289 E0.2122
G1 X147.776 Y180.465 E0.2851
G1 X147.400 Y180.056 E0.3183
G1 X146.653 Y179.096 E0.3912
G1 X146.349 Y178.631 E0.4244
G1 X145.770 Y177.561 E0.4973
G1 X145.546 Y177.052 E0.5306
G1 X145.151 Y175.901 E0.6034
G1 X145.015 Y175.362 E0.6367
G1 X144.815 Y174.162 E0.7095
G1 X144.769 Y173.608 E0.7428
G1 X144.769 Y172.392 E0.8156
G1 X144.815 Y171.838 E0.8489
G1 X145.015 Y170.638 E0.9217
G1 X145.151 Y170.099 E0.9550
G1 X145.546 Y168.948 E1.0278
G1 X145.770 Y168.439 E1.0611
G1 X146.349 Y167.369 E1.1339
G1 X146.653 Y166.904 E1.1672
G1 X147.400 Y165.944 E1.2400
G1 X147.776 Y165.535 E1.2733
G1 X148.671 Y164.711 E1.3462
G1 X149.110 Y164.370 E1.3794
G1 X150.128 Y163.704 E1.4523
G1 X150.617 Y163.440 E1.4855
G1 X151.560 Y163.026 E1.5472
G1 X151.560 Y157.970 E1.8499
G1 X148.938 Y157.970 E2.0068
G1 X146.468 Y156.947 E2.1669
G1 X143.578 Y154.056 E2.4116
G1 X142.555 Y151.587 E2.5717
G1 X142.555 Y142.466 E3.1177
G1 X146.491 Y138.530 E3.4510
G1 X151.560 Y138.530 E3.7544
G1 X151.560 Y135.845 E3.9151
G1 X157.497 Y129.909 E4.4178
G1 X158.497 Y129.909 E4.4776
G1 X171.497 Y116.909 E5.5783
G1 X172.497 Y116.909 E5.6382
G1 X181.497 Y107.909 E6.4002
G1 X182.766 Y107.909 E6.4762
G1 X185.014 Y106.978 E6.6218
G1 X189.223 Y106.978 E6.8738
G1 X189.292 Y106.909 E6.8796
G1 X200.504 Y106.909 E7.5509
G1 X206.440 Y112.845 E8.0535
G1 X206.440 Y121.852 E8.5927
G1 X205.440 Y122.852 E8.6774
G1 X205.440 Y123.606 E8.7225
G1 X213.359 Y123.606 E9.1966
G1 X217.296 Y127.542 E9.5299
G1 X217.296 Y143.549 E10.4882
G1 X213.359 Y147.486 E10.8215
G1 X206.917 Y147.486 E11.2072
G1 X206.240 Y148.163 E11.2645
G1 X202.195 Y148.163 E11.5067
G1 X202.195 Y169.829 E12.8038
G1 X198.259 Y173.765 E13.1370
G1 X196.168 Y173.765 E13.2622
G1 X196.135 Y174.162 E13.2860
G1 X195.935 Y175.362 E13.3589
G1 X195.799 Y175.901 E13.3921
G1 X195.404 Y177.052 E13.4650
G1 X195.180 Y177.561 E13.4982
G1 X194.601 Y178.631 E13.5711
G1 X194.297 Y179.096 E13.6043
G1 X193.550 Y180.056 E13.6772
G1 X193.174 Y180.465 E13.7105
G1 X192.279 Y181.289 E13.7833
G1 X191.840 Y181.630 E13.8166
G1 X190.822 Y182.296 E13.8894
G1 X190.333 Y182.560 E13.9227
G1 X189.219 Y183.049 E13.9955
G1 X188.693 Y183.229 E14.0288
G1 X187.514 Y183.528 E14.1016
G1 X186.965 Y183.620 E14.1349
G1 X185.892 Y183.709 E14.1994
G1 X185.614 Y183.720 E14.2160
G1 X155.336 Y183.720 E16.0287
G1 X155.058 Y183.709 E16.0454
G1 X153.985 Y183.620 E16.1099
G1 X153.436 Y183.528 E16.1431
G1 X152.257 Y183.229 E16.2160
G1 X151.731 Y183.049 E16.2493
G1 X151.906 Y182.601 F7200
G92 E0.0000
G1 X150.828 Y182.129 E0.0705 F2400
G1 X150.374 Y181.883 E0.1014
G1 X149.389 Y181.239 E0.1718
G1 X148.982 Y180.922 E0.2027
G1 X148.116 Y180.125 E0.2732
G1 X147.766 Y179.745 E0.3041
G1 X147.044 Y178.817 E0.3745
G1 X146.761 Y178.385 E0.4054
G1 X146.201 Y177.350 E0.4759
G1 X145.994 Y176.877 E0.5068
G1 X145.612 Y175.764 E0.5772
G1 X145.485 Y175.264 E0.6081
G1 X145.291 Y174.103 E0.6786
G1 X145.249 Y173.588 E0.7095
G1 X145.249 Y172.412 E0.7799
G1 X145.291 Y171.897 E0.8108
G1 X145.485 Y170.736 E0.8813
G1 X145.612 Y170.236 E0.9122
G1 X145.994 Y169.123 E0.9827
G1 X146.201 Y168.650 E1.0136
G1 X146.761 Y167.615 E1.0840
G1 X147.044 Y167.183 E1.1149
G1 X147.766 Y166.255 E1.1854
G1 X148.116 Y165.875 E1.2163
G1 X148.982 Y165.078 E1.2867
G1 X149.389 Y164.761 E1.3176
G1 X150.374 Y164.117 E1.3881
G1 X150.828 Y163.871 E1.4190
G1 X151.907 Y163.398 E1.4895
G1 X152.040 Y163.353 E1.4979
G1 X152.040 Y157.490 E1.8489
G1 X149.034 Y157.490 E2.0289
G1 X146.740 Y156.540 E2.1775
G1 X143.985 Y153.785 E2.4108
G1 X143.035 Y151.491 E2.5594
G1 X143.035 Y142.665 E3.0878
G1 X146.690 Y139.010 E3.3973
G1 X152.040 Y139.010 E3.7176
G1 X152.040 Y136.044 E3.8951
G1 X157.695 Y130.389 E4.3739
G1 X158.695 Y130.389 E4.4338
G1 X171.695 Y117.389 E5.5345
G1 X172.695 Y117.389 E5.5943
G1 X181.695 Y108.389 E6.3563
G1 X182.862 Y108.389 E6.4262
G1 X185.110 Y107.458 E6.5718
G1 X189.421 Y107.458 E6.8300
G1 X189.490 Y107.389 E6.8358
G1 X200.305 Y107.389 E7.4832
G1 X205.960 Y113.044 E7.9621
G1 X205.960 Y121.654 E8.4775
G1 X204.960 Y122.654 E8.5622
G1 X204.960 Y123.654 E8.6220
G1 X204.528 Y124.086 E8.6586
G1 X213.160 Y124.086 E9.1754
G1 X216.816 Y127.741 E9.4849
G1 X216.816 Y143.351 E10.4194
G1 X213.160 Y147.006 E10.7289
G1 X206.718 Y147.006 E11.1146
G1 X206.041 Y147.683 E11.1719
G1 X201.715 Y147.683 E11.4309
G1 X201.715 Y169.630 E12.7448
G1 X198.060 Y173.285 E13.0543
G1 X195.701 Y173.285 E13.1955
G1 X195.701 Y173.588 E13.2137
G1 X195.659 Y174.103 E13.2446
G1 X195.465 Y175.264 E13.3150
G1 X195.338 Y175.764 E13.3459
G1 X194.956 Y176.877 E13.4164
G1 X194.749 Y177.350 E13.4473
G1 X194.189 Y178.385 E13.5177
G1 X193.906 Y178.817 E13.5486
G1 X193.184 Y179.745 E13.6191
G1 X192.834 Y180.125 E13.6500
G1 X191.968 Y180.922 E13.7204
G1 X191.561 Y181.239 E13.7513
G1 X190.576 Y181.883 E13.8218
G1 X190.122 Y182.129 E13.8527
G1 X189.044 Y182.601 E13.9231
G1 X188.556 Y182.769 E13.9540
G1 X187.415 Y183.058 E14.0245
G1 X186.906 Y183.143 E14.0554
G1 X185.862 Y183.229 E14.1181
G1 X185.604 Y183.240 E14.1336
G1 X155.346 Y183.240 E15.9451
G1 X155.088 Y183.229 E15.9605
G1 X154.044 Y183.143 E16.0232
G1 X153.535 Y183.058 E16.0541
G1 X152.394 Y182.769 E16.1246
G1 X151.906 Y182.601 E16.1555
G92 E0.0000
G1 E-1.5000 F5100
; feature outer perimeter
G1 X150.374 Y151.010 F7200
G1 E0.0000 F5100
G92 E0.0000
G1 X149.515 Y150.151 E0.0728 F1584
G1 X149.515 Y145.490 E0.3518
G1 X165.211 Y145.490 E1.2915
G1 X165.298 Y146.085 E1.3275
G1 X165.475 Y146.499 E1.3544
G1 X165.753 Y146.854 E1.3814
G1 X166.112 Y147.126 E1.4084
G1 X166.528 Y147.296 E1.4353
G1 X166.959 Y147.353 E1.4614
G1 X173.991 Y147.353 E1.8823
G1 X174.422 Y147.296 E1.9083
G1 X174.838 Y147.126 E1.9353
G1 X175.197 Y146.854 E1.9623
G1 X175.475 Y146.499 E1.9892
G1 X175.652 Y146.085 E2.0162
G1 X175.739 Y145.490 E2.0522
G1 X195.235 Y145.490 E3.2194
G1 X195.235 Y166.805 E4.4955
G1 X193.715 Y166.805 E4.5865
G1 X193.715 Y150.010 E5.5920
G1 X191.576 Y150.010 E5.7201
G1 X190.576 Y151.010 E5.8048
G1 X150.574 Y151.010 E8.1996
G1 X150.374 Y151.010 F1584
G1 X149.515 Y150.151 F1584
G1 X149.515 Y147.366
; feature inner perimeter
G1 X149.995 Y145.970 F7200
G92 E0.0000
G1 X152.003 Y145.970 E0.1202 F1992
G1 X152.097 Y146.247 E0.1377
G1 X151.630 Y146.605 E0.1730
G1 X151.260 Y147.087 E0.2093
G1 X151.028 Y147.648 E0.2457
G1 X150.949 Y148.250 E0.2820
G1 X151.028 Y148.852 E0.3184
G1 X151.260 Y149.413 E0.3547
G1 X151.630 Y149.895 E0.3911
G1 X152.097 Y150.253 E0.4263
G1 X152.003 Y150.530 E0.4438
G1 X150.573 Y150.530 E0.5294
G1 X149.995 Y149.952 E0.5784
G1 X149.995 Y146.170 E0.8048
G1 X149.995 Y145.970 F1992
G92 E0.0000
G1 E-1.5000 F5100
G1 X154.453 Y146.247 F7200
G1 E0.0000 F5100
G92 E0.0000
G1 X154.547 Y145.970 E0.0175 F1992
G1 X164.796 Y145.970 E0.6311
G1 X164.832 Y146.216 E0.6460
G1 X165.058 Y146.745 E0.6804
G1 X165.413 Y147.198 E0.7149
G1 X165.872 Y147.546 E0.7494
G1 X166.404 Y147.764 E0.7838
G1 X166.928 Y147.833 E0.8155
G1 X174.022 Y147.833 E1.2401
G1 X174.546 Y147.764 E1.2718
G1 X175.078 Y147.546 E1.3062
G1 X175.537 Y147.198 E1.3407
G1 X175.892 Y146.745 E1.3751
G1 X176.118 Y146.216 E1.4096
G1 X176.154 Y145.970 E1.4245
G1 X186.403 Y145.970 E2.0381
G1 X186.497 Y146.247 E2.0556
G1 X186.030 Y146.605 E2.0908
G1 X185.659 Y147.090 E2.1273
G1 X185.428 Y147.648 E2.1635
G1 X185.349 Y148.250 E2.1999
G1 X185.428 Y148.852 E2.2362
G1 X185.660 Y149.413 E2.2726
G1 X186.030 Y149.895 E2.3089
G1 X186.497 Y150.253 E2.3442
G1 X186.403 Y150.530 E2.3617
G1 X154.547 Y150.530 E4.2688
G1 X154.453 Y150.253 E4.2864
G1 X154.920 Y149.895 E4.3216
G1 X155.290 Y149.412 E4.3580
G1 X155.523 Y148.847 E4.3946
G1 X155.601 Y148.246 E4.4309
G1 X155.522 Y147.648 E4.4670
G1 X155.290 Y147.087 E4.5033
G1 X154.920 Y146.605 E4.5397
G1 X154.612 Y146.369 E4.5630
G1 X154.453 Y146.247 F1992
G92 E0.0000
G1 E-1.5000 F5100
G1 X165.367 Y146.247 F7200
G1 X165.475 Y146.499
G1 X165.753 Y146.854
G1 X166.112 Y147.126
G1 X166.528 Y147.296
G1 X166.959 Y147.353
G1 X173.991 Y147.353
G1 X174.422 Y147.296
G1 X174.838 Y147.126
G1 X175.197 Y146.854
G1 X175.475 Y146.499
G1 X175.583 Y146.247
G1 X188.853 Y146.247
G1 E0.0000 F5100
G92 E0.0000
G1 X188.947 Y145.970 E0.0175 F1992
G1 X194.755 Y145.970 E0.3652
G1 X194.755 Y166.325 E1.5839
G1 X194.195 Y166.325 E1.6174
G1 X194.195 Y149.530 E2.6229
G1 X191.377 Y149.530 E2.7916
G1 X190.377 Y150.530 E2.8763
G1 X188.947 Y150.530 E2.9619
G1 X188.853 Y150.253 E2.9794
G1 X189.320 Y149.895 E3.0146
G1 X189.690 Y149.413 E3.0510
G1 X189.922 Y148.852 E3.0873
G1 X190.001 Y148.250 E3.1237
