; generated by PrusaSlicer 2.3.0+win64 on 2021-02-25 at 13:21:27 UTC

; 

; external perimeters extrusion width = 0.45mm
; perimeters extrusion width = 0.45mm
; infill extrusion width = 0.45mm
; solid infill extrusion width = 0.45mm
; top infill extrusion width = 0.40mm
; first layer extrusion width = 0.42mm

M107
;TYPE:Custom
G90 ; use absolute coordinates
M83 ; extruder relative mode
M104 S170 ; set extruder temp for bed leveling
M140 S70 ; set bed temp
M109 R170 ; wait for bed leveling extruder temp
M190 S70 ; wait for bed temp
G28 ; home all without mesh bed level
G29 S1 ; mesh bed leveling 
M104 S215 ; set extruder temp
G90 ; use absolute coordinates
G92 E0.0
G0 X20 Y23 Z25 F4800
G1 Z3 F720
M109 S215 ; wait for extruder temp
M98 P"/macros/set_baby_step"

M98 P"/macros/purge_and_prime"

G92 E0.0

;M221 S95 ; set flow
G21 ; set units to millimeters
G90 ; use absolute coordinates
M82 ; use absolute distances for extrusion
G92 E0
M900 K0.05 ; Filament gcode LA 1.5
M900 K30 ; Filament gcode LA 1.0
;LAYER_CHANGE
;Z:0.25
;HEIGHT:0.25
G1 Z0.250 F7800.000
;AFTER_LAYER_CHANGE
;0.25
G1 E-2.00000 F2400.000
G92 E0
G1 X137.469 Y140.506 F7800.000
G1 E2.00000 F2400.000
;TYPE:Skirt
;WIDTH:0.42
G1 F1800.000
G1 X139.006 Y138.878 E2.07672
G1 X140.546 Y137.432 E2.14911
G1 X142.160 Y136.080 E2.22129
G1 X143.948 Y134.755 E2.29753
G1 X152.722 Y130.311 E2.63458
G1 X153.534 Y129.978 E2.66468
G1 X155.423 Y129.416 E2.73222
G1 X157.557 Y128.908 E2.80739
G1 X159.736 Y128.527 E2.88319
G1 X162.314 Y128.268 E2.97199
G1 X172.077 Y128.854 E3.30717
G1 X174.577 Y129.415 E3.39497
G1 X176.677 Y130.048 E3.47014
G1 X178.689 Y130.786 E3.54360
G1 X181.040 Y131.846 E3.63196
G1 X189.489 Y137.465 E3.97970
G1 X191.131 Y139.015 E4.05706
G1 X192.634 Y140.621 E4.13244
G1 X194.011 Y142.279 E4.20633
G1 X195.185 Y143.860 E4.27380
G1 X195.643 Y144.631 E4.30454
G1 X199.982 Y153.416 E4.64032
G1 X200.619 Y155.549 E4.71661
G1 X201.101 Y157.600 E4.78879
G1 X201.465 Y159.674 E4.86097
G1 X201.712 Y161.804 E4.93443
G1 X201.723 Y162.657 E4.96367
G1 X201.151 Y172.040 E5.28584
G1 X200.588 Y174.565 E5.37448
G1 X199.966 Y176.636 E5.44858
G1 X199.216 Y178.684 E5.52332
G1 X198.157 Y181.035 E5.61169
G1 X192.559 Y189.461 E5.95836
G1 X190.989 Y191.126 E6.03679
G1 X189.379 Y192.634 E6.11239
G1 X187.726 Y194.008 E6.18606
G1 X186.145 Y195.181 E6.25354
G1 X185.374 Y195.640 E6.28427
G1 X176.584 Y199.982 E6.62026
G1 X174.451 Y200.619 E6.69656
G1 X172.400 Y201.101 E6.76874
G1 X170.326 Y201.465 E6.84091
G1 X168.196 Y201.712 E6.91437
G1 X167.343 Y201.723 E6.94362
G1 X157.960 Y201.151 E7.26578
G1 X155.435 Y200.588 E7.35443
G1 X153.364 Y199.966 E7.42852
G1 X151.316 Y199.216 E7.50327
G1 X148.965 Y198.157 E7.59163
G1 X140.539 Y192.559 E7.93831
G1 X138.874 Y190.989 E8.01674
G1 X137.366 Y189.379 E8.09233
G1 X135.992 Y187.726 E8.16600
G1 X134.819 Y186.145 E8.23348
G1 X134.360 Y185.374 E8.26422
G1 X130.018 Y176.584 E8.60021
G1 X129.381 Y174.451 E8.67650
G1 X128.899 Y172.400 E8.74868
G1 X128.535 Y170.326 E8.82086
G1 X128.288 Y168.196 E8.89432
G1 X128.277 Y167.343 E8.92356
G1 X128.849 Y157.960 E9.24573
G1 X129.412 Y155.435 E9.33437
G1 X130.036 Y153.358 E9.40868
G1 X130.784 Y151.316 E9.48321
G1 X131.846 Y148.960 E9.57179
G1 X137.436 Y140.556 E9.91768
G1 E7.91768 F2400.000
G92 E0
G1 X162.282 Y160.196 F7800.000
G1 E2.00000 F2400.000
;TYPE:Perimeter
G1 F1800.000
G1 X167.801 Y160.244 E2.18915
G1 X170.519 Y165.048 E2.37830
G1 X167.718 Y169.804 E2.56745
G1 X162.199 Y169.756 E2.75661
G1 X159.481 Y164.952 E2.94576
G1 X162.252 Y160.248 E3.13285
G1 X162.490 Y160.564 F7800.000
G1 F1800.000
G1 X167.587 Y160.609 E3.30751
G1 X170.096 Y165.045 E3.48216
G1 X167.510 Y169.436 E3.65682
G1 X162.413 Y169.391 E3.83147
G1 X159.904 Y164.955 E4.00613
G1 X162.460 Y160.616 E4.17872
G1 X162.699 Y160.932 F7800.000
;TYPE:External perimeter
G1 F1800.000
G1 X167.372 Y160.973 E4.33888
G1 X169.673 Y165.041 E4.49904
G1 X167.301 Y169.068 E4.65920
G1 X162.628 Y169.027 E4.81935
G1 X160.327 Y164.959 E4.97951
G1 X162.668 Y160.984 E5.13761
G1 X162.702 Y160.532 F7800.000
G1 E3.13761 F2400.000
G92 E0
G1 X177.647 Y185.470 F7800.000
G1 E2.00000 F2400.000
;TYPE:Perimeter
G1 F1800.000
G1 X175.468 Y186.616 E2.08437
G1 X173.949 Y187.285 E2.14124
G1 X172.388 Y187.847 E2.19811
G1 X170.791 Y188.300 E2.25499
G1 X169.167 Y188.642 E2.31186
G1 X167.524 Y188.871 E2.36873
G1 X165.868 Y188.986 E2.42560
G1 X164.208 Y188.986 E2.48248
G1 X162.553 Y188.871 E2.53935
G1 X160.909 Y188.642 E2.59622
G1 X159.285 Y188.300 E2.65310
G1 X157.689 Y187.847 E2.70997
G1 X156.127 Y187.285 E2.76684
G1 X154.609 Y186.616 E2.82371
G1 X152.430 Y185.470 E2.90808
G1 X152.800 Y183.473 E2.97769
G1 X153.147 Y182.276 E3.02040
G1 X153.611 Y181.119 E3.06310
G1 X154.187 Y180.014 E3.10580
G1 X154.870 Y178.972 E3.14850
G1 X155.652 Y178.002 E3.19121
G1 X156.526 Y177.114 E3.23391
G1 X157.484 Y176.318 E3.27661
G1 X158.517 Y175.619 E3.31931
G1 X159.613 Y175.027 E3.36202
G1 X160.362 Y174.713 E3.38984
G1 X160.762 Y174.546 E3.40472
G1 X161.954 Y174.181 E3.44742
G1 X163.175 Y173.935 E3.49012
G1 X164.415 Y173.812 E3.53283
G1 X165.661 Y173.812 E3.57553
G1 X166.901 Y173.935 E3.61823
G1 X168.123 Y174.181 E3.66094
G1 X169.314 Y174.546 E3.70364
G1 X170.464 Y175.027 E3.74634
G1 X171.560 Y175.619 E3.78904
G1 X172.592 Y176.318 E3.83175
G1 X173.550 Y177.114 E3.87445
G1 X174.425 Y178.002 E3.91715
G1 X175.207 Y178.972 E3.95985
G1 X175.889 Y180.014 E4.00256
G1 X176.466 Y181.119 E4.04526
G1 X176.929 Y182.276 E4.08796
G1 X177.277 Y183.473 E4.13066
G1 X177.636 Y185.411 E4.19822
G1 X177.237 Y185.271 F7800.000
G1 F1800.000
G1 X175.308 Y186.286 E4.27290
G1 X173.813 Y186.944 E4.32891
G1 X172.275 Y187.498 E4.38491
G1 X170.703 Y187.945 E4.44092
G1 X169.104 Y188.281 E4.49692
G1 X167.486 Y188.507 E4.55292
G1 X165.855 Y188.620 E4.60893
G1 X164.221 Y188.620 E4.66493
G1 X162.591 Y188.507 E4.72094
G1 X160.972 Y188.281 E4.77694
G1 X159.373 Y187.945 E4.83294
G1 X157.801 Y187.498 E4.88895
G1 X156.264 Y186.944 E4.94495
G1 X154.768 Y186.285 E5.00096
G1 X152.839 Y185.271 E5.07564
G1 X153.157 Y183.557 E5.13538
G1 X153.494 Y182.395 E5.17684
G1 X153.944 Y181.273 E5.21829
G1 X154.503 Y180.200 E5.25975
G1 X155.166 Y179.188 E5.30121
G1 X155.926 Y178.246 E5.34267
G1 X156.775 Y177.384 E5.38412
G1 X157.705 Y176.611 E5.42558
G1 X158.707 Y175.933 E5.46704
G1 X159.771 Y175.358 E5.50850
G1 X160.503 Y175.051 E5.53569
G1 X160.887 Y174.891 E5.54995
G1 X162.044 Y174.536 E5.59141
G1 X163.230 Y174.298 E5.63287
G1 X164.433 Y174.178 E5.67433
G1 X165.643 Y174.178 E5.71578
G1 X166.847 Y174.298 E5.75724
G1 X168.033 Y174.536 E5.79870
G1 X169.190 Y174.891 E5.84015
G1 X170.306 Y175.358 E5.88161
G1 X171.370 Y175.933 E5.92307
G1 X172.372 Y176.611 E5.96453
G1 X173.302 Y177.384 E6.00598
G1 X174.151 Y178.246 E6.04744
G1 X174.910 Y179.188 E6.08890
G1 X175.573 Y180.200 E6.13036
G1 X176.132 Y181.273 E6.17181
G1 X176.583 Y182.395 E6.21327
G1 X176.920 Y183.557 E6.25473
G1 X177.226 Y185.212 E6.31241
G1 X176.828 Y185.073 F7800.000
;TYPE:External perimeter
G1 F1800.000
G1 X175.149 Y185.955 E6.37741
G1 X173.677 Y186.604 E6.43255
G1 X172.163 Y187.149 E6.48768
G1 X170.616 Y187.589 E6.54282
G1 X169.041 Y187.920 E6.59795
G1 X167.448 Y188.142 E6.65309
G1 X165.843 Y188.253 E6.70822
G1 X164.234 Y188.253 E6.76336
G1 X162.629 Y188.142 E6.81849
G1 X161.035 Y187.920 E6.87363
G1 X159.461 Y187.589 E6.92877
G1 X157.913 Y187.149 E6.98390
G1 X156.400 Y186.604 E7.03904
G1 X154.927 Y185.955 E7.09417
G1 X153.249 Y185.073 E7.15917
G1 X153.514 Y183.642 E7.20904
G1 X153.841 Y182.515 E7.24925
G1 X154.277 Y181.426 E7.28946
G1 X154.820 Y180.385 E7.32967
G1 X155.463 Y179.404 E7.36989
G1 X156.199 Y178.490 E7.41010
G1 X157.023 Y177.654 E7.45031
G1 X157.925 Y176.904 E7.49052
G1 X158.897 Y176.247 E7.53073
G1 X159.929 Y175.689 E7.57095
G1 X160.645 Y175.389 E7.59752
G1 X161.012 Y175.236 E7.61116
G1 X162.133 Y174.892 E7.65137
G1 X163.284 Y174.661 E7.69158
G1 X164.452 Y174.545 E7.73179
G1 X165.625 Y174.545 E7.77201
G1 X166.793 Y174.661 E7.81222
G1 X167.943 Y174.892 E7.85243
G1 X169.065 Y175.236 E7.89264
G1 X170.147 Y175.689 E7.93285
G1 X171.180 Y176.247 E7.97307
G1 X172.151 Y176.904 E8.01328
G1 X173.054 Y177.654 E8.05349
G1 X173.877 Y178.490 E8.09370
G1 X174.614 Y179.404 E8.13391
G1 X175.257 Y180.385 E8.17413
G1 X175.799 Y181.426 E8.21434
G1 X176.236 Y182.515 E8.25455
G1 X176.563 Y183.642 E8.29476
G1 X176.817 Y185.014 E8.34257
G1 X176.983 Y185.441 F7800.000
G1 E6.34257 F2400.000
G92 E0
G1 X144.568 Y152.391 F7800.000
G1 E2.00000 F2400.000
;TYPE:Perimeter
G1 F1800.000
G1 X146.566 Y152.761 E2.06961
G1 X147.762 Y153.109 E2.11231
G1 X148.919 Y153.573 E2.15502
G1 X150.024 Y154.149 E2.19772
G1 X151.066 Y154.831 E2.24042
G1 X152.036 Y155.614 E2.28312
G1 X152.924 Y156.488 E2.32583
G1 X153.721 Y157.446 E2.36853
G1 X154.419 Y158.478 E2.41123
G1 X155.011 Y159.574 E2.45394
G1 X155.492 Y160.724 E2.49664
G1 X155.857 Y161.915 E2.53934
G1 X156.103 Y163.137 E2.58204
G1 X156.226 Y164.377 E2.62475
G1 X156.226 Y165.623 E2.66745
G1 X156.103 Y166.863 E2.71015
G1 X155.857 Y168.085 E2.75285
G1 X155.492 Y169.276 E2.79556
G1 X155.011 Y170.425 E2.83826
G1 X154.419 Y171.522 E2.88096
G1 X153.721 Y172.554 E2.92366
G1 X152.924 Y173.512 E2.96637
G1 X152.036 Y174.386 E3.00907
G1 X151.066 Y175.169 E3.05177
G1 X150.024 Y175.851 E3.09448
G1 X148.919 Y176.427 E3.13718
G1 X147.762 Y176.891 E3.17988
G1 X146.566 Y177.238 E3.22258
G1 X144.568 Y177.608 E3.29219
G1 X143.422 Y175.429 E3.37656
G1 X142.753 Y173.911 E3.43344
G1 X142.191 Y172.349 E3.49031
G1 X141.738 Y170.753 E3.54718
G1 X141.396 Y169.129 E3.60405
G1 X141.167 Y167.485 E3.66093
G1 X141.052 Y165.830 E3.71780
G1 X141.052 Y164.170 E3.77467
G1 X141.167 Y162.514 E3.83154
G1 X141.396 Y160.871 E3.88842
G1 X141.738 Y159.247 E3.94529
G1 X142.191 Y157.650 E4.00216
G1 X142.753 Y156.089 E4.05903
G1 X143.423 Y154.570 E4.11591
G1 X144.540 Y152.444 E4.19822
G1 X144.767 Y152.801 F7800.000
G1 F1800.000
G1 X146.481 Y153.118 E4.25796
G1 X147.643 Y153.455 E4.29942
G1 X148.766 Y153.906 E4.34087
G1 X149.838 Y154.465 E4.38233
G1 X150.850 Y155.128 E4.42379
G1 X151.792 Y155.887 E4.46525
G1 X152.654 Y156.736 E4.50670
G1 X153.427 Y157.666 E4.54816
G1 X154.105 Y158.668 E4.58962
G1 X154.680 Y159.733 E4.63107
G1 X155.147 Y160.848 E4.67253
G1 X155.502 Y162.005 E4.71399
G1 X155.740 Y163.191 E4.75545
G1 X155.860 Y164.395 E4.79690
G1 X155.860 Y165.605 E4.83836
G1 X155.740 Y166.809 E4.87982
G1 X155.502 Y167.995 E4.92128
G1 X155.147 Y169.151 E4.96273
G1 X154.680 Y170.267 E5.00419
G1 X154.105 Y171.331 E5.04565
G1 X153.427 Y172.333 E5.08711
G1 X152.654 Y173.263 E5.12856
G1 X151.792 Y174.112 E5.17002
G1 X150.850 Y174.872 E5.21148
G1 X149.838 Y175.535 E5.25293
G1 X148.766 Y176.094 E5.29439
G1 X147.643 Y176.544 E5.33585
G1 X146.481 Y176.881 E5.37731
G1 X144.767 Y177.199 E5.43705
G1 X143.753 Y175.270 E5.51173
G1 X143.094 Y173.775 E5.56773
G1 X142.540 Y172.237 E5.62374
G1 X142.094 Y170.665 E5.67974
G1 X141.757 Y169.066 E5.73575
G1 X141.532 Y167.447 E5.79175
G1 X141.419 Y165.817 E5.84775
G1 X141.419 Y164.183 E5.90376
G1 X141.532 Y162.552 E5.95976
G1 X141.757 Y160.934 E6.01577
G1 X142.094 Y159.335 E6.07177
G1 X142.540 Y157.763 E6.12777
G1 X143.094 Y156.225 E6.18378
G1 X143.753 Y154.730 E6.23978
G1 X144.739 Y152.854 E6.31241
G1 X144.966 Y153.210 F7800.000
;TYPE:External perimeter
G1 F1800.000
G1 X146.396 Y153.475 E6.36228
G1 X147.523 Y153.802 E6.40249
G1 X148.612 Y154.239 E6.44270
G1 X149.653 Y154.782 E6.48291
G1 X150.635 Y155.424 E6.52313
G1 X151.548 Y156.161 E6.56334
G1 X152.384 Y156.984 E6.60355
G1 X153.134 Y157.887 E6.64376
G1 X153.791 Y158.859 E6.68397
G1 X154.349 Y159.891 E6.72419
G1 X154.802 Y160.973 E6.76440
G1 X155.146 Y162.095 E6.80461
G1 X155.377 Y163.246 E6.84482
G1 X155.493 Y164.413 E6.88503
G1 X155.493 Y165.587 E6.92525
G1 X155.377 Y166.754 E6.96546
G1 X155.146 Y167.905 E7.00567
G1 X154.802 Y169.027 E7.04588
G1 X154.349 Y170.109 E7.08609
G1 X153.791 Y171.141 E7.12631
G1 X153.134 Y172.113 E7.16652
G1 X152.384 Y173.015 E7.20673
G1 X151.548 Y173.839 E7.24694
G1 X150.634 Y174.575 E7.28715
G1 X149.653 Y175.218 E7.32737
G1 X148.612 Y175.761 E7.36758
G1 X147.523 Y176.197 E7.40779
G1 X146.396 Y176.524 E7.44800
G1 X144.966 Y176.790 E7.49787
G1 X144.083 Y175.111 E7.56287
G1 X143.434 Y173.638 E7.61800
G1 X142.889 Y172.125 E7.67314
G1 X142.449 Y170.577 E7.72828
G1 X142.118 Y169.003 E7.78341
G1 X141.896 Y167.409 E7.83855
G1 X141.785 Y165.804 E7.89368
G1 X141.785 Y164.195 E7.94882
G1 X141.896 Y162.590 E8.00395
G1 X142.118 Y160.997 E8.05909
G1 X142.449 Y159.423 E8.11422
G1 X142.889 Y157.875 E8.16936
G1 X143.434 Y156.361 E8.22449
G1 X144.083 Y154.889 E8.27963
G1 X144.938 Y153.263 E8.34257
G1 X145.073 Y152.825 F7800.000
G1 E6.34257 F2400.000
G92 E0
G1 X177.647 Y144.530 F7800.000
G1 E2.00000 F2400.000
;TYPE:Perimeter
G1 F1800.000
G1 X177.277 Y146.527 E2.06961
G1 X176.929 Y147.724 E2.11231
G1 X176.466 Y148.880 E2.15502
G1 X175.890 Y149.985 E2.19772
G1 X175.207 Y151.028 E2.24042
G1 X174.425 Y151.998 E2.28312
G1 X173.550 Y152.885 E2.32583
G1 X172.592 Y153.682 E2.36853
G1 X171.560 Y154.380 E2.41123
G1 X170.464 Y154.973 E2.45393
G1 X169.314 Y155.454 E2.49664
G1 X168.123 Y155.819 E2.53934
G1 X166.901 Y156.064 E2.58204
G1 X165.661 Y156.188 E2.62475
G1 X164.415 Y156.188 E2.66745
G1 X163.175 Y156.064 E2.71015
G1 X161.954 Y155.819 E2.75285
G1 X160.762 Y155.454 E2.79556
G1 X159.613 Y154.973 E2.83826
G1 X158.517 Y154.380 E2.88096
G1 X157.484 Y153.682 E2.92366
G1 X156.526 Y152.885 E2.96637
G1 X155.652 Y151.998 E3.00907
G1 X154.870 Y151.028 E3.05177
G1 X154.187 Y149.985 E3.09447
G1 X153.611 Y148.880 E3.13718
G1 X153.147 Y147.724 E3.17988
G1 X152.800 Y146.527 E3.22258
G1 X152.430 Y144.530 E3.29219
G1 X154.609 Y143.384 E3.37656
G1 X156.127 Y142.715 E3.43343
G1 X157.689 Y142.153 E3.49031
G1 X159.285 Y141.699 E3.54718
G1 X160.909 Y141.357 E3.60405
G1 X162.553 Y141.129 E3.66093
G1 X164.161 Y141.017 E3.71618
G1 X165.867 Y141.014 E3.77464
G1 X167.524 Y141.129 E3.83154
G1 X169.167 Y141.357 E3.88841
G1 X170.791 Y141.699 E3.94529
G1 X172.388 Y142.153 E4.00216
G1 X173.949 Y142.715 E4.05903
G1 X175.468 Y143.384 E4.11590
G1 X177.594 Y144.502 E4.19822
G1 X177.237 Y144.729 F7800.000
G1 F1800.000
G1 X176.920 Y146.443 E4.25795
G1 X176.583 Y147.604 E4.29941
G1 X176.132 Y148.727 E4.34087
G1 X175.573 Y149.800 E4.38233
G1 X174.910 Y150.812 E4.42378
G1 X174.151 Y151.754 E4.46524
G1 X173.302 Y152.615 E4.50670
G1 X172.372 Y153.389 E4.54816
G1 X171.370 Y154.067 E4.58961
G1 X170.306 Y154.642 E4.63107
G1 X169.190 Y155.109 E4.67253
G1 X168.033 Y155.463 E4.71398
G1 X166.847 Y155.702 E4.75544
G1 X165.643 Y155.821 E4.79690
G1 X164.433 Y155.821 E4.83836
G1 X163.230 Y155.702 E4.87981
G1 X162.044 Y155.463 E4.92127
G1 X160.887 Y155.109 E4.96273
G1 X159.771 Y154.642 E5.00419
G1 X158.707 Y154.067 E5.04564
G1 X157.705 Y153.389 E5.08710
G1 X156.775 Y152.615 E5.12856
G1 X155.926 Y151.754 E5.17002
G1 X155.166 Y150.812 E5.21147
G1 X154.504 Y149.800 E5.25293
G1 X153.944 Y148.727 E5.29439
G1 X153.494 Y147.604 E5.33584
G1 X153.157 Y146.443 E5.37730
G1 X152.839 Y144.729 E5.43704
G1 X154.768 Y143.714 E5.51173
G1 X156.264 Y143.055 E5.56773
G1 X157.801 Y142.501 E5.62373
G1 X159.373 Y142.055 E5.67974
G1 X160.972 Y141.718 E5.73574
G1 X162.591 Y141.493 E5.79175
G1 X164.174 Y141.383 E5.84614
G1 X165.855 Y141.380 E5.90373
G1 X167.486 Y141.493 E5.95975
G1 X169.104 Y141.718 E6.01576
G1 X170.703 Y142.055 E6.07176
G1 X172.276 Y142.501 E6.12777
G1 X173.813 Y143.055 E6.18377
G1 X175.309 Y143.714 E6.23977
G1 X177.184 Y144.701 E6.31240
G1 X176.828 Y144.927 F7800.000
;TYPE:External perimeter
G1 F1800.000
G1 X176.563 Y146.358 E6.36227
G1 X176.236 Y147.485 E6.40248
G1 X175.799 Y148.574 E6.44269
G1 X175.257 Y149.614 E6.48291
G1 X174.614 Y150.596 E6.52312
G1 X173.877 Y151.509 E6.56333
G1 X173.054 Y152.345 E6.60354
G1 X172.152 Y153.096 E6.64375
G1 X171.180 Y153.753 E6.68397
G1 X170.147 Y154.311 E6.72418
G1 X169.065 Y154.764 E6.76439
G1 X167.943 Y155.108 E6.80460
G1 X166.793 Y155.339 E6.84481
G1 X165.625 Y155.455 E6.88503
G1 X164.452 Y155.455 E6.92524
G1 X163.284 Y155.339 E6.96545
G1 X162.134 Y155.108 E7.00566
G1 X161.012 Y154.764 E7.04587
G1 X159.929 Y154.311 E7.08609
