; G-Code generated by Simplify3D(R) Version 4.1.2
; Apr 7, 2021 at 6:52:10 PM
; Settings Summary
;   processName,Process1
;   applyToModels,lock for bed thermistor,support bed thermistor
;   profileName,BLV mgn Cube-  Simplify3D Profile
;   profileVersion,2021-04-02 01:52:57
;   baseProfile,Anet A8
;   printMaterial,PLA
;   printQuality,Medium
;   printExtruders,
;   extruderName,Primary Extruder
;   extruderToolheadNumber,0
;   extruderDiameter,0.4
;   extruderAutoWidth,1
;   extruderWidth,0.48
;   extrusionMultiplier,1
;   extruderUseRetract,1
;   extruderRetractionDistance,1.5
;   extruderExtraRestartDistance,0
;   extruderRetractionZLift,0
;   extruderRetractionSpeed,5100
;   extruderUseCoasting,1
;   extruderCoastingDistance,0.2
;   extruderUseWipe,1
;   extruderWipeDistance,4
;   primaryExtruder,0
;   layerHeight,0.2
;   topSolidLayers,3
;   bottomSolidLayers,3
;   perimeterOutlines,3
;   printPerimetersInsideOut,0
;   startPointOption,3
;   startPointOriginX,0
;   startPointOriginY,500
;   sequentialIslands,0
;   spiralVaseMode,0
;   firstLayerHeightPercentage,150
;   firstLayerWidthPercentage,100
;   firstLayerUnderspeed,0.4
;   useRaft,0
;   raftExtruder,0
;   raftTopLayers,3
;   raftBaseLayers,2
;   raftOffset,3
;   raftSeparationDistance,0.14
;   raftTopInfill,100
;   aboveRaftSpeedMultiplier,0.3
;   useSkirt,1
;   skirtExtruder,0
;   skirtLayers,1
;   skirtOutlines,2
;   skirtOffset,6
;   usePrimePillar,0
;   primePillarExtruder,999
;   primePillarWidth,12
;   primePillarLocation,7
;   primePillarSpeedMultiplier,1
;   useOozeShield,0
;   oozeShieldExtruder,999
;   oozeShieldOffset,2
;   oozeShieldOutlines,1
;   oozeShieldSidewallShape,1
;   oozeShieldSidewallAngle,30
;   oozeShieldSpeedMultiplier,1
;   infillExtruder,0
;   internalInfillPattern,Rectilinear
;   externalInfillPattern,Rectilinear
;   infillPercentage,15
;   outlineOverlapPercentage,15
;   infillExtrusionWidthPercentage,100
;   minInfillLength,5
;   infillLayerInterval,1
;   internalInfillAngles,45,-45
;   overlapInternalInfillAngles,0
;   externalInfillAngles,45,-45
;   generateSupport,1
;   supportExtruder,0
;   supportInfillPercentage,30
;   supportExtraInflation,0
;   supportBaseLayers,0
;   denseSupportExtruder,0
;   denseSupportLayers,0
;   denseSupportInfillPercentage,70
;   supportLayerInterval,1
;   supportHorizontalPartOffset,0.4
;   supportUpperSeparationLayers,1
;   supportLowerSeparationLayers,1
;   supportType,0
;   supportGridSpacing,1
;   maxOverhangAngle,45
;   supportAngles,45,-45
;   temperatureName,Primary Extruder,Heated Bed
;   temperatureNumber,0,0
;   temperatureSetpointCount,2,1
;   temperatureSetpointLayers,1,2,1
;   temperatureSetpointTemperatures,215,210,60
;   temperatureStabilizeAtStartup,1,1
;   temperatureHeatedBed,0,1
;   fanLayers,1,2
;   fanSpeeds,0,100
;   blipFanToFullPower,1
;   adjustSpeedForCooling,1
;   minSpeedLayerTime,15
;   minCoolingSpeedSlowdown,20
;   increaseFanForCooling,0
;   minFanLayerTime,45
;   maxCoolingFanSpeed,100
;   increaseFanForBridging,1
;   bridgingFanSpeed,100
;   use5D,1
;   relativeEdistances,0
;   allowEaxisZeroing,1
;   independentExtruderAxes,0
;   includeM10123,0
;   stickySupport,1
;   applyToolheadOffsets,0
;   gcodeXoffset,24
;   gcodeYoffset,22
;   gcodeZoffset,0
;   overrideMachineDefinition,1
;   machineTypeOverride,0
;   strokeXoverride,310
;   strokeYoverride,310
;   strokeZoverride,334
;   originOffsetXoverride,0
;   originOffsetYoverride,0
;   originOffsetZoverride,0
;   homeXdirOverride,-1
;   homeYdirOverride,-1
;   homeZdirOverride,-1
;   flipXoverride,1
;   flipYoverride,-1
;   flipZoverride,1
;   toolheadOffsets,0,0|0,0|0,0|0,0|0,0|0,0
;   overrideFirmwareConfiguration,1
;   firmwareTypeOverride,RepRap (Marlin/Repetier/Sprinter)
;   GPXconfigOverride,r2
;   baudRateOverride,115200
;   overridePrinterModels,1
;   printerModelsOverride,Blvfull.stl
;   startingGcode,M291 P"Homing all axis" R"Printing.." S1 T2,G21		; metric values,G28		; home all,M98 P"/macros/load_meshbed"	; load mesh bed corresponding to the temp,M98 P"/macros/set_baby_step"	; set baby step,M98 P"/macros/purge_and_prime"; purge and do the prime line,,G92 E0 F100		; reset extruder,G1 Z10 F3000 		; move z up little to prevent scratching of surface,G92 E0 		; reset extruder,M291 P"Printing started !" R"Printing.." S1 T3
;   layerChangeGcode,
;   retractionGcode,
;   toolChangeGcode,
;   endingGcode,M104 S0 ; turn off extruder,M140 S0 ; turn off bed,M98 P"/macros/remove_baby_step"	; unset baby step,M98 P"/macros/rise30mm",G1 X0 Y300 F1000 ; prepare for part removal,M84 ; disable motors,M106 S0 ;turn off part cooling fan,;M81 ; shutdown,; play song,M300 S294 P200 ;D4: 294,M300 S588 P200 ;D5: 588,M300 S440 P200 ;A4: 440,M300 S392 P200 ;G4: 392,M300 S784 P200 ;G5: 784,M300 S440 P200 ;A4: 440,M300 S740 P200 ;F#5: 740,M300 S440 P200 ;A4: 440,M291 P"Printing finished !" R"Printing.." S1 T0,
;   exportFileFormat,gcode
;   celebration,0
;   celebrationSong,Star Wars
;   postProcessing,
;   defaultSpeed,6000
;   outlineUnderspeed,0.66
;   solidInfillUnderspeed,0.8
;   supportUnderspeed,0.8
;   rapidXYspeed,7200
;   rapidZspeed,1002
;   minBridgingArea,50
;   bridgingExtraInflation,0
;   bridgingExtrusionMultiplier,1
;   bridgingSpeedMultiplier,1
;   useFixedBridgingAngle,0
;   fixedBridgingAngle,0
;   applyBridgingToPerimeters,1
;   filamentDiameters,1.75|1.75|1.75|1.75|1.75|1.75
;   filamentPricesPerKg,30|110|110|110|110|110
;   filamentDensities,1.25|1.25|1.25|1.25|1.25|1.25
;   useMinPrintHeight,0
;   minPrintHeight,0
;   useMaxPrintHeight,0
;   maxPrintHeight,0
;   useDiaphragm,0
;   diaphragmLayerInterval,20
;   robustSlicing,1
;   mergeAllIntoSolid,0
;   onlyRetractWhenCrossingOutline,0
;   retractBetweenLayers,1
;   useRetractionMinTravel,1
;   retractionMinTravel,3
;   retractWhileWiping,1
;   onlyWipeOutlines,1
;   avoidCrossingOutline,1
;   maxMovementDetourFactor,3
;   toolChangeRetractionDistance,12
;   toolChangeExtraRestartDistance,-0.5
;   toolChangeRetractionSpeed,600
;   externalThinWallType,1
;   internalThinWallType,2
;   thinWallAllowedOverlapPercentage,15
;   singleExtrusionMinLength,1
;   singleExtrusionMinPrintingWidthPercentage,50
;   singleExtrusionMaxPrintingWidthPercentage,200
;   singleExtrusionEndpointExtension,0.2
;   horizontalSizeCompensation,0
G90
M82
M106 S0
M140 S60
M190 S60
M104 S215 T0
M109 S215 T0
M291 P"Homing all axis" R"Printing.." S1 T2
G21		; metric values
G28		; home all
M98 P"/macros/load_meshbed"	; load mesh bed corresponding to the temp
M98 P"/macros/set_baby_step"	; set baby step
M98 P"/macros/purge_and_prime"; purge and do the prime line
G92 E0 F100		; reset extruder
G1 Z10 F3000 		; move z up little to prevent scratching of surface
G92 E0 		; reset extruder
M291 P"Printing started !" R"Printing.." S1 T3
; process Process1
; layer 1, Z = 0.300
T0
G92 E0.0000
G1 E-1.5000 F5100
; feature skirt
; tool H0.300 W0.480
G1 Z0.300 F1002
G1 X177.735 Y162.870 F7200
G1 E0.0000 F5100
G92 E0.0000
G1 X173.799 Y158.934 E0.3333 F2400
G1 X173.799 Y142.232 E1.3332
G1 X107.274 Y135.579 E5.3358
G1 X103.799 Y131.739 E5.6458
G1 X103.799 Y107.570 E7.0928
G1 X99.698 Y107.570 E7.3384
G1 X95.761 Y103.633 E7.6717
G1 X95.761 Y95.066 E8.1845
G1 X99.698 Y91.130 E8.5178
G1 X116.302 Y91.130 E9.5119
G1 X120.239 Y95.066 E9.8452
G1 X120.239 Y115.478 E11.0672
G1 X181.026 Y125.831 E14.7588
G1 X181.286 Y125.886 E14.7747
G1 X182.361 Y126.158 E14.8412
G1 X182.865 Y126.329 E14.8730
G1 X184.007 Y126.819 E14.9474
G1 X184.477 Y127.067 E14.9792
G1 X185.527 Y127.732 E15.0536
G1 X185.953 Y128.051 E15.0855
G1 X186.885 Y128.872 E15.1599
G1 X187.255 Y129.254 E15.1917
G1 X188.046 Y130.212 E15.2661
G1 X188.352 Y130.648 E15.2979
G1 X188.982 Y131.719 E15.3723
G1 X189.215 Y132.197 E15.4042
G1 X189.669 Y133.353 E15.4786
G1 X189.824 Y133.862 E15.5104
G1 X190.061 Y134.946 E15.5768
G1 X190.108 Y135.208 E15.5927
G1 X192.207 Y150.461 E16.5145
G1 X192.239 Y150.920 E16.5421
G1 X192.239 Y158.934 E17.0218
G1 X188.302 Y162.870 E17.3551
G1 X177.735 Y162.870 E17.9877
G1 X177.934 Y162.390 F7200
G92 E0.0000
G1 X174.279 Y158.735 E0.3095 F2400
G1 X174.279 Y141.797 E1.3235
G1 X107.506 Y135.120 E5.3410
G1 X104.279 Y131.554 E5.6289
G1 X104.279 Y107.090 E7.0936
G1 X99.896 Y107.090 E7.3559
G1 X96.241 Y103.435 E7.6654
G1 X96.241 Y95.265 E8.1545
G1 X99.896 Y91.610 E8.4640
G1 X116.104 Y91.610 E9.4343
G1 X119.759 Y95.265 E9.7438
G1 X119.759 Y115.883 E10.9781
G1 X180.936 Y126.302 E14.6934
G1 X181.177 Y126.353 E14.7082
G1 X182.225 Y126.619 E14.7729
G1 X182.693 Y126.777 E14.8025
G1 X183.800 Y127.253 E14.8746
G1 X184.237 Y127.483 E14.9042
G1 X185.255 Y128.127 E14.9763
G1 X185.650 Y128.423 E15.0058
G1 X186.554 Y129.220 E15.0780
G1 X186.897 Y129.574 E15.1075
G1 X187.664 Y130.503 E15.1796
G1 X187.948 Y130.908 E15.2092
G1 X188.559 Y131.946 E15.2813
G1 X188.775 Y132.390 E15.3109
G1 X189.215 Y133.511 E15.3830
G1 X189.359 Y133.983 E15.4126
G1 X189.590 Y135.040 E15.4773
G1 X189.634 Y135.283 E15.4921
G1 X191.730 Y150.511 E16.4123
G1 X191.759 Y150.937 E16.4379
G1 X191.759 Y158.735 E16.9048
G1 X188.104 Y162.390 E17.2143
G1 X177.934 Y162.390 E17.8231
G92 E0.0000
G1 E-1.5000 F5100
G1 X180.759 Y155.910 F7200
G1 X180.759 Y146.793
G1 X182.877 Y135.098
G1 X182.840 Y135.005
G1 X182.499 Y134.425
G1 X182.070 Y133.906
G1 X181.565 Y133.461
G1 X180.997 Y133.101
G1 X180.378 Y132.836
G1 X187.735 Y108.270
G1 E0.0000 F5100
G92 E0.0000
G1 X183.799 Y104.334 E0.3333 F2400
G1 X183.799 Y95.066 E0.8881
G1 X187.735 Y91.130 E1.2214
G1 X198.302 Y91.130 E1.8540
G1 X202.239 Y95.066 E2.1873
G1 X202.239 Y104.334 E2.7421
G1 X198.302 Y108.270 E3.0754
G1 X187.735 Y108.270 E3.7080
G1 X187.934 Y107.790 F7200
G92 E0.0000
G1 X184.279 Y104.135 E0.3095 F2400
G1 X184.279 Y95.265 E0.8405
G1 X187.934 Y91.610 E1.1500
G1 X198.104 Y91.610 E1.7588
G1 X201.759 Y95.265 E2.0683
G1 X201.759 Y104.135 E2.5993
G1 X198.104 Y107.790 E2.9087
G1 X187.934 Y107.790 E3.5176
G92 E0.0000
G1 E-1.5000 F5100
; feature outer perimeter
G1 X180.378 Y132.836 F7200
G1 X180.997 Y133.101
G1 X181.565 Y133.461
G1 X182.070 Y133.906
G1 X182.499 Y134.425
G1 X182.840 Y135.005
G1 X183.086 Y135.631
G1 X183.232 Y136.298
G1 X183.449 Y137.871
G1 X180.759 Y155.910
G1 E0.0000 F5100
G92 E0.0000
G1 X180.759 Y140.213 E0.9398 F1584
G1 X180.697 Y139.451 E0.9855
G1 X180.509 Y138.700 E1.0319
G1 X180.201 Y137.990 E1.0782
G1 X179.782 Y137.339 E1.1246
G1 X179.263 Y136.765 E1.1709
G1 X178.657 Y136.283 E1.2172
G1 X177.980 Y135.906 E1.2636
G1 X177.252 Y135.645 E1.3099
G1 X176.500 Y135.507 E1.3557
G1 X110.759 Y128.933 E5.3111
G1 X110.759 Y100.610 E7.0068
G1 X102.721 Y100.610 E7.4880
G1 X102.721 Y98.090 E7.6388
G1 X113.279 Y98.090 E8.2709
G1 X113.279 Y117.361 E9.4246
G1 X113.336 Y118.087 E9.4682
G1 X113.506 Y118.805 E9.5124
G1 X113.787 Y119.487 E9.5566
G1 X114.169 Y120.118 E9.6008
G1 X114.645 Y120.682 E9.6449
G1 X115.203 Y121.165 E9.6891
G1 X115.829 Y121.556 E9.7333
G1 X116.507 Y121.845 E9.7774
G1 X117.214 Y122.023 E9.8211
G1 X179.717 Y132.668 E13.6169
G1 X180.378 Y132.836 E13.6577
G1 X180.997 Y133.101 E13.6980
G1 X181.565 Y133.461 E13.7383
G1 X182.070 Y133.906 E13.7786
G1 X182.499 Y134.425 E13.8189
G1 X182.840 Y135.005 E13.8592
G1 X183.086 Y135.631 E13.8995
G1 X183.232 Y136.298 E13.9403
G1 X185.279 Y151.166 E14.8389
G1 X185.279 Y155.910 E15.1229
G1 X180.959 Y155.910 E15.3815
G1 X180.759 Y155.910 F1584
G1 X180.759 Y151.910 F1584
; feature inner perimeter
G1 X181.239 Y152.704 F7200
G92 E0.0000
G1 X181.239 Y140.193 E0.7490 F1992
G1 X181.172 Y139.373 E0.7983
G1 X180.965 Y138.545 E0.8493
G1 X180.626 Y137.763 E0.9004
G1 X180.164 Y137.046 E0.9514
G1 X179.592 Y136.414 E1.0025
G1 X178.925 Y135.883 E1.0535
G1 X178.180 Y135.468 E1.1046
G1 X177.377 Y135.180 E1.1556
G1 X176.568 Y135.031 E1.2049
G1 X111.239 Y128.498 E5.1355
G1 X111.239 Y100.130 E6.8339
G1 X103.201 Y100.130 E7.3151
G1 X103.201 Y98.570 E7.4085
G1 X112.799 Y98.570 E7.9831
G1 X112.799 Y117.380 E9.1092
G1 X112.860 Y118.162 E9.1562
G1 X113.048 Y118.953 E9.2048
G1 X113.357 Y119.704 E9.2535
G1 X113.778 Y120.399 E9.3021
G1 X114.303 Y121.020 E9.3508
G1 X114.917 Y121.553 E9.3995
G1 X115.606 Y121.983 E9.4481
G1 X116.354 Y122.301 E9.4968
G1 X117.115 Y122.493 E9.5437
G1 X179.618 Y133.138 E13.3396
G1 X180.224 Y133.292 E13.3770
G1 X180.772 Y133.527 E13.4127
G1 X181.277 Y133.846 E13.4485
G1 X181.724 Y134.241 E13.4842
G1 X182.104 Y134.701 E13.5199
G1 X182.407 Y135.215 E13.5557
G1 X182.625 Y135.771 E13.5914
G1 X182.759 Y136.382 E13.6288
G1 X184.799 Y151.199 E14.5243
G1 X184.799 Y152.704 E14.6143
G1 X184.522 Y152.798 E14.6319
G1 X184.240 Y152.429 E14.6596
G1 X183.882 Y152.155 E14.6866
G1 X183.466 Y151.983 E14.7136
G1 X183.019 Y151.924 E14.7406
G1 X182.572 Y151.983 E14.7675
G1 X182.156 Y152.155 E14.7945
G1 X181.798 Y152.429 E14.8215
G1 X181.516 Y152.798 E14.8493
G1 X181.428 Y152.768 E14.8548
G1 X181.239 Y152.704 F1992
G1 X181.516 Y154.502 F7200
G92 E0.0000
G1 X181.798 Y154.871 E0.0278 F1992
G1 X182.166 Y155.153 E0.0556
G1 X182.072 Y155.430 E0.0731
G1 X181.239 Y155.430 E0.1230
G1 X181.239 Y154.596 E0.1729
G1 X181.326 Y154.567 E0.1784
G1 X181.516 Y154.502 F1992
G1 X182.546 Y154.787 F7200
G1 X182.697 Y154.850
G1 X182.842 Y154.869
G1 X183.871 Y155.153
G92 E0.0000
G1 X184.240 Y154.871 E0.0278 F1992
G1 X184.522 Y154.502 E0.0556
G1 X184.799 Y154.596 E0.0731
G1 X184.799 Y155.430 E0.1230
G1 X183.965 Y155.430 E0.1729
G1 X183.936 Y155.343 E0.1784
G1 X183.871 Y155.153 F1992
G92 E0.0000
G1 E-1.5000 F5100
G1 X183.967 Y154.437 F7200
G1 X184.095 Y154.271
G1 X184.219 Y153.971
G1 X184.261 Y153.650
G1 X184.219 Y153.328
G1 X184.141 Y153.141
G1 X184.319 Y151.816
G1 E0.0000 F5100
G92 E0.0000
G1 X183.591 Y151.515 E0.0472 F1992
G1 X183.019 Y151.440 E0.0817
G1 X182.447 Y151.515 E0.1163
G1 X181.719 Y151.816 E0.1634
G1 X181.719 Y140.173 E0.8605
G1 X181.647 Y139.294 E0.9133
G1 X181.421 Y138.391 E0.9690
G1 X181.051 Y137.536 E1.0248
G1 X180.547 Y136.753 E1.0806
G1 X179.922 Y136.063 E1.1363
G1 X179.193 Y135.483 E1.1921
G1 X178.379 Y135.030 E1.2478
G1 X177.503 Y134.715 E1.3036
G1 X176.635 Y134.556 E1.3564
G1 X111.719 Y128.064 E5.2622
G1 X111.719 Y99.650 E6.9633
G1 X103.681 Y99.650 E7.4445
G1 X103.681 Y99.050 E7.4804
G1 X112.319 Y99.050 E7.9975
G1 X112.319 Y117.398 E9.0960
G1 X112.384 Y118.237 E9.1464
G1 X112.590 Y119.100 E9.1995
G1 X112.927 Y119.921 E9.2527
G1 X113.387 Y120.680 E9.3058
G1 X113.960 Y121.359 E9.3589
G1 X114.631 Y121.940 E9.4121
G1 X115.384 Y122.410 E9.4652
G1 X116.200 Y122.758 E9.5184
G1 X117.016 Y122.963 E9.5687
G1 X179.518 Y133.608 E13.3645
G1 X180.069 Y133.748 E13.3985
G1 X180.548 Y133.953 E13.4297
G1 X180.988 Y134.232 E13.4609
G1 X181.378 Y134.576 E13.4921
G1 X181.710 Y134.977 E13.5232
G1 X181.974 Y135.426 E13.5544
G1 X182.165 Y135.911 E13.5856
G1 X182.286 Y136.466 E13.6196
G1 X184.319 Y151.232 E14.5120
G1 X184.319 Y151.616 E14.5350
G1 X184.319 Y151.816 F1992
; feature outer perimeter
G1 X183.640 Y152.574 F7200
G92 E0.0000
G1 X183.340 Y152.450 E0.0194 F1584
G1 X183.019 Y152.408 E0.0388
G1 X182.697 Y152.450 E0.0582
G1 X182.398 Y152.574 E0.0776
G1 X182.141 Y152.772 E0.0971
G1 X181.943 Y153.029 E0.1165
G1 X181.819 Y153.329 E0.1359
G1 X181.777 Y153.651 E0.1554
G1 X181.825 Y153.985 E0.1756
G1 X181.943 Y154.271 E0.1941
G1 X182.141 Y154.528 E0.2135
G1 X182.398 Y154.726 E0.2329
G1 X182.697 Y154.850 E0.2523
G1 X183.019 Y154.892 E0.2717
G1 X183.340 Y154.850 E0.2912
G1 X183.640 Y154.726 E0.3106
G1 X183.897 Y154.528 E0.3300
G1 X184.095 Y154.271 E0.3494
G1 X184.219 Y153.971 E0.3688
G1 X184.261 Y153.650 E0.3882
G1 X184.219 Y153.328 E0.4076
G1 X184.095 Y153.029 E0.4270
G1 X183.897 Y152.772 E0.4465
