; G-Code generated by Simplify3D(R) Version 4.1.2
; Apr 10, 2021 at 7:09:47 PM
; Settings Summary
;   processName,Process1
;   applyToModels,support bed thermistor
;   profileName,BLV mgn Cube-  Simplify3D Profile (modified)
;   profileVersion,2021-04-02 01:52:57
;   baseProfile,Anet A8
;   printMaterial,PLA
;   printQuality,Medium
;   printExtruders,
;   extruderName,Primary Extruder
;   extruderToolheadNumber,0
;   extruderDiameter,0.4
;   extruderAutoWidth,1
;   extruderWidth,0.48
;   extrusionMultiplier,1
;   extruderUseRetract,1
;   extruderRetractionDistance,1.5
;   extruderExtraRestartDistance,0
;   extruderRetractionZLift,0
;   extruderRetractionSpeed,5100
;   extruderUseCoasting,1
;   extruderCoastingDistance,0.2
;   extruderUseWipe,1
;   extruderWipeDistance,4
;   primaryExtruder,0
;   layerHeight,0.2
;   topSolidLayers,3
;   bottomSolidLayers,2
;   perimeterOutlines,2
;   printPerimetersInsideOut,0
;   startPointOption,3
;   startPointOriginX,0
;   startPointOriginY,500
;   sequentialIslands,0
;   spiralVaseMode,0
;   firstLayerHeightPercentage,150
;   firstLayerWidthPercentage,100
;   firstLayerUnderspeed,0.4
;   useRaft,0
;   raftExtruder,0
;   raftTopLayers,3
;   raftBaseLayers,2
;   raftOffset,3
;   raftSeparationDistance,0.14
;   raftTopInfill,100
;   aboveRaftSpeedMultiplier,0.3
;   useSkirt,1
;   skirtExtruder,0
;   skirtLayers,1
;   skirtOutlines,2
;   skirtOffset,6
;   usePrimePillar,0
;   primePillarExtruder,999
;   primePillarWidth,12
;   primePillarLocation,7
;   primePillarSpeedMultiplier,1
;   useOozeShield,0
;   oozeShieldExtruder,999
;   oozeShieldOffset,2
;   oozeShieldOutlines,1
;   oozeShieldSidewallShape,1
;   oozeShieldSidewallAngle,30
;   oozeShieldSpeedMultiplier,1
;   infillExtruder,0
;   internalInfillPattern,Rectilinear
;   externalInfillPattern,Rectilinear
;   infillPercentage,15
;   outlineOverlapPercentage,15
;   infillExtrusionWidthPercentage,100
;   minInfillLength,5
;   infillLayerInterval,1
;   internalInfillAngles,45,-45
;   overlapInternalInfillAngles,0
;   externalInfillAngles,45,-45
;   generateSupport,1
;   supportExtruder,0
;   supportInfillPercentage,30
;   supportExtraInflation,0
;   supportBaseLayers,0
;   denseSupportExtruder,0
;   denseSupportLayers,0
;   denseSupportInfillPercentage,70
;   supportLayerInterval,1
;   supportHorizontalPartOffset,0.4
;   supportUpperSeparationLayers,1
;   supportLowerSeparationLayers,1
;   supportType,0
;   supportGridSpacing,1
;   maxOverhangAngle,45
;   supportAngles,45,-45
;   temperatureName,Primary Extruder,Heated Bed
;   temperatureNumber,0,0
;   temperatureSetpointCount,2,1
;   temperatureSetpointLayers,1,2,1
;   temperatureSetpointTemperatures,215,210,60
;   temperatureStabilizeAtStartup,1,1
;   temperatureHeatedBed,0,1
;   fanLayers,1,2
;   fanSpeeds,0,100
;   blipFanToFullPower,1
;   adjustSpeedForCooling,1
;   minSpeedLayerTime,15
;   minCoolingSpeedSlowdown,20
;   increaseFanForCooling,0
;   minFanLayerTime,45
;   maxCoolingFanSpeed,100
;   increaseFanForBridging,1
;   bridgingFanSpeed,100
;   use5D,1
;   relativeEdistances,0
;   allowEaxisZeroing,1
;   independentExtruderAxes,0
;   includeM10123,0
;   stickySupport,1
;   applyToolheadOffsets,0
;   gcodeXoffset,24
;   gcodeYoffset,22
;   gcodeZoffset,0
;   overrideMachineDefinition,1
;   machineTypeOverride,0
;   strokeXoverride,310
;   strokeYoverride,310
;   strokeZoverride,334
;   originOffsetXoverride,0
;   originOffsetYoverride,0
;   originOffsetZoverride,0
;   homeXdirOverride,-1
;   homeYdirOverride,-1
;   homeZdirOverride,-1
;   flipXoverride,1
;   flipYoverride,-1
;   flipZoverride,1
;   toolheadOffsets,0,0|0,0|0,0|0,0|0,0|0,0
;   overrideFirmwareConfiguration,1
;   firmwareTypeOverride,RepRap (Marlin/Repetier/Sprinter)
;   GPXconfigOverride,r2
;   baudRateOverride,115200
;   overridePrinterModels,1
;   printerModelsOverride,Blvfull.stl
;   startingGcode,M291 P"Homing all axis" R"Printing.." S1 T2,G21		; metric values,G28		; home all,M98 P"/macros/load_meshbed"	; load mesh bed corresponding to the temp,M98 P"/macros/set_baby_step"	; set baby step,M98 P"/macros/purge_and_prime"; purge and do the prime line,,G92 E0 F100		; reset extruder,G1 Z10 F3000 		; move z up little to prevent scratching of surface,G92 E0 		; reset extruder,M291 P"Printing started !" R"Printing.." S1 T3
;   layerChangeGcode,
;   retractionGcode,
;   toolChangeGcode,
;   endingGcode,M104 S0 ; turn off extruder,M140 S0 ; turn off bed,M98 P"/macros/remove_baby_step"	; unset baby step,M98 P"/macros/rise30mm",G1 X0 Y300 F1000 ; prepare for part removal,M84 ; disable motors,M106 S0 ;turn off part cooling fan,;M81 ; shutdown,; play song,M300 S294 P200 ;D4: 294,M300 S588 P200 ;D5: 588,M300 S440 P200 ;A4: 440,M300 S392 P200 ;G4: 392,M300 S784 P200 ;G5: 784,M300 S440 P200 ;A4: 440,M300 S740 P200 ;F#5: 740,M300 S440 P200 ;A4: 440,M291 P"Printing finished !" R"Printing.." S1 T0,
;   exportFileFormat,gcode
;   celebration,0
;   celebrationSong,Star Wars
;   postProcessing,
;   defaultSpeed,6000
;   outlineUnderspeed,0.66
;   solidInfillUnderspeed,0.8
;   supportUnderspeed,0.8
;   rapidXYspeed,7200
;   rapidZspeed,1002
;   minBridgingArea,50
;   bridgingExtraInflation,0
;   bridgingExtrusionMultiplier,1
;   bridgingSpeedMultiplier,1
;   useFixedBridgingAngle,0
;   fixedBridgingAngle,0
;   applyBridgingToPerimeters,1
;   filamentDiameters,1.75|1.75|1.75|1.75|1.75|1.75
;   filamentPricesPerKg,30|110|110|110|110|110
;   filamentDensities,1.25|1.25|1.25|1.25|1.25|1.25
;   useMinPrintHeight,0
;   minPrintHeight,0
;   useMaxPrintHeight,0
;   maxPrintHeight,0
;   useDiaphragm,0
;   diaphragmLayerInterval,20
;   robustSlicing,1
;   mergeAllIntoSolid,0
;   onlyRetractWhenCrossingOutline,0
;   retractBetweenLayers,1
;   useRetractionMinTravel,1
;   retractionMinTravel,3
;   retractWhileWiping,1
;   onlyWipeOutlines,1
;   avoidCrossingOutline,1
;   maxMovementDetourFactor,3
;   toolChangeRetractionDistance,12
;   toolChangeExtraRestartDistance,-0.5
;   toolChangeRetractionSpeed,600
;   externalThinWallType,1
;   internalThinWallType,2
;   thinWallAllowedOverlapPercentage,15
;   singleExtrusionMinLength,1
;   singleExtrusionMinPrintingWidthPercentage,50
;   singleExtrusionMaxPrintingWidthPercentage,200
;   singleExtrusionEndpointExtension,0.2
;   horizontalSizeCompensation,0
G90
M82
M106 S0
M140 S60
M190 S60
M104 S215 T0
M109 S215 T0
M291 P"Homing all axis" R"Printing.." S1 T2
G21		; metric values
G28		; home all
M98 P"/macros/load_meshbed"	; load mesh bed corresponding to the temp
M98 P"/macros/set_baby_step"	; set baby step
M98 P"/macros/purge_and_prime"; purge and do the prime line
G92 E0 F100		; reset extruder
G1 Z10 F3000 		; move z up little to prevent scratching of surface
G92 E0 		; reset extruder
M291 P"Printing started !" R"Printing.." S1 T3
; process Process1
; layer 1, Z = 0.300
T0
G92 E0.0000
G1 E-1.5000 F5100
; feature skirt
; tool H0.300 W0.480
G1 Z0.300 F1002
G1 X142.435 Y188.186 F7200
G1 E0.0000 F5100
G92 E0.0000
G1 X138.799 Y184.308 E0.3183 F2400
G1 X138.799 Y160.070 E1.7693
G1 X134.698 Y160.070 E2.0149
G1 X130.761 Y156.133 E2.3482
G1 X130.761 Y147.566 E2.8611
G1 X134.698 Y143.630 E3.1944
G1 X151.302 Y143.630 E4.1885
G1 X155.239 Y147.566 E4.5217
G1 X155.239 Y167.978 E5.7437
G1 X216.730 Y178.451 E9.4781
G1 X216.990 Y178.506 E9.4940
G1 X218.066 Y178.778 E9.5605
G1 X218.570 Y178.949 E9.5923
G1 X219.712 Y179.439 E9.6667
G1 X220.182 Y179.687 E9.6985
G1 X221.232 Y180.352 E9.7729
G1 X221.657 Y180.671 E9.8048
G1 X222.590 Y181.492 E9.8792
G1 X222.960 Y181.874 E9.9110
G1 X223.751 Y182.832 E9.9854
G1 X224.056 Y183.268 E10.0172
G1 X224.687 Y184.339 E10.0916
G1 X224.920 Y184.816 E10.1235
G1 X225.374 Y185.973 E10.1979
G1 X225.528 Y186.482 E10.2297
G1 X225.766 Y187.566 E10.2961
G1 X225.813 Y187.828 E10.3120
G1 X227.207 Y197.961 E10.9244
G1 X227.239 Y198.420 E10.9520
G1 X227.239 Y206.434 E11.4317
G1 X223.302 Y210.370 E11.7650
G1 X212.735 Y210.370 E12.3976
G1 X208.799 Y206.434 E12.7309
G1 X208.799 Y192.452 E13.5680
G1 X142.435 Y188.186 E17.5493
G1 X142.656 Y187.719 F7200
G92 E0.0000
G1 X139.279 Y184.118 E0.2955 F2400
G1 X139.279 Y159.590 E1.7640
G1 X134.896 Y159.590 E2.0264
G1 X131.241 Y155.935 E2.3358
G1 X131.241 Y147.765 E2.8249
G1 X134.896 Y144.110 E3.1344
G1 X151.104 Y144.110 E4.1047
G1 X154.759 Y147.765 E4.4142
G1 X154.759 Y168.383 E5.6485
G1 X216.640 Y178.922 E9.4066
G1 X216.882 Y178.974 E9.4214
G1 X217.930 Y179.239 E9.4861
G1 X218.398 Y179.397 E9.5157
G1 X219.505 Y179.873 E9.5878
G1 X219.941 Y180.103 E9.6174
G1 X220.959 Y180.747 E9.6895
G1 X221.354 Y181.043 E9.7190
G1 X222.258 Y181.840 E9.7912
G1 X222.602 Y182.194 E9.8207
G1 X223.369 Y183.123 E9.8928
G1 X223.652 Y183.528 E9.9224
G1 X224.264 Y184.566 E9.9945
G1 X224.480 Y185.010 E10.0241
G1 X224.920 Y186.131 E10.0962
G1 X225.064 Y186.604 E10.1258
G1 X225.295 Y187.660 E10.1905
G1 X225.338 Y187.903 E10.2053
G1 X226.730 Y198.011 E10.8161
G1 X226.759 Y198.437 E10.8417
G1 X226.759 Y206.235 E11.3086
G1 X223.104 Y209.890 E11.6180
G1 X212.934 Y209.890 E12.2269
G1 X209.279 Y206.235 E12.5363
G1 X209.279 Y192.002 E13.3884
G1 X142.656 Y187.719 E17.3853
G92 E0.0000
G1 E-1.5000 F5100
; feature outer perimeter
G1 X145.759 Y181.425 F7200
G1 E0.0000 F5100
G92 E0.0000
G1 X145.759 Y153.110 E1.6952 F1584
G1 X137.721 Y153.110 E2.1764
G1 X137.721 Y150.590 E2.3272
G1 X148.279 Y150.590 E2.9593
G1 X148.279 Y169.759 E4.1069
G1 X148.335 Y170.586 E4.1566
G1 X148.506 Y171.305 E4.2008
G1 X148.787 Y171.987 E4.2450
G1 X149.169 Y172.618 E4.2891
G1 X149.645 Y173.182 E4.3333
G1 X150.203 Y173.665 E4.3775
G1 X150.829 Y174.056 E4.4217
G1 X151.507 Y174.345 E4.4658
G1 X152.214 Y174.523 E4.5094
G1 X215.422 Y185.288 E8.3481
G1 X216.083 Y185.456 E8.3889
G1 X216.701 Y185.721 E8.4292
G1 X217.270 Y186.081 E8.4695
G1 X217.775 Y186.526 E8.5098
G1 X218.204 Y187.045 E8.5501
G1 X218.545 Y187.625 E8.5904
G1 X218.791 Y188.251 E8.6307
G1 X218.937 Y188.918 E8.6715
G1 X220.279 Y198.666 E9.2606
G1 X220.279 Y203.410 E9.5446
G1 X215.759 Y203.410 E9.8152
G1 X215.759 Y190.361 E10.5965
G1 X215.706 Y189.658 E10.6386
G1 X215.546 Y188.963 E10.6814
G1 X215.284 Y188.299 E10.7241
G1 X214.924 Y187.683 E10.7668
G1 X214.477 Y187.127 E10.8095
G1 X213.951 Y186.645 E10.8522
G1 X213.359 Y186.247 E10.8950
G1 X212.713 Y185.942 E10.9377
G1 X212.030 Y185.738 E10.9804
G1 X211.332 Y185.640 E11.0226
G1 X145.958 Y181.438 E14.9444
G1 X145.759 Y181.425 F1584
G92 E0.0000
G1 X145.759 Y180.959 E-1.5000 F1584
G1 X145.759 Y177.425 F1584
; feature inner perimeter
G1 X146.239 Y180.975 F7200
G1 E0.0000 F5100
G92 E0.0000
G1 X146.239 Y152.630 E1.6970 F1992
G1 X138.201 Y152.630 E2.1782
G1 X138.201 Y151.070 E2.2716
G1 X147.799 Y151.070 E2.8462
G1 X147.799 Y169.775 E3.9660
G1 X147.859 Y170.658 E4.0190
G1 X148.048 Y171.453 E4.0679
G1 X148.357 Y172.204 E4.1165
G1 X148.778 Y172.899 E4.1652
G1 X149.302 Y173.520 E4.2139
G1 X149.917 Y174.053 E4.2625
G1 X150.606 Y174.483 E4.3112
G1 X151.354 Y174.801 E4.3598
G1 X152.115 Y174.993 E4.4068
G1 X208.439 Y184.586 E7.8274
G1 X208.394 Y184.971 E7.8506
G1 X146.438 Y180.988 E11.5674
G1 X146.239 Y180.975 F1992
G92 E0.0000
G1 E-1.5000 F5100
G1 X213.522 Y185.779 F7200
G1 E0.0000 F5100
G92 E0.0000
G1 X213.645 Y185.473 E0.0197 F1992
G1 X215.322 Y185.758 E0.1216
G1 X215.929 Y185.912 E0.1591
G1 X216.477 Y186.147 E0.1948
G1 X216.981 Y186.466 E0.2305
G1 X217.429 Y186.861 E0.2663
G1 X217.809 Y187.321 E0.3020
G1 X218.112 Y187.836 E0.3377
G1 X218.330 Y188.391 E0.3735
G1 X218.464 Y189.002 E0.4109
G1 X219.799 Y198.699 E0.9969
G1 X219.799 Y200.204 E1.0870
G1 X219.522 Y200.298 E1.1045
G1 X219.240 Y199.929 E1.1323
G1 X218.882 Y199.655 E1.1593
G1 X218.466 Y199.483 E1.1862
G1 X218.019 Y199.424 E1.2132
G1 X217.572 Y199.483 E1.2402
G1 X217.156 Y199.655 E1.2672
G1 X216.798 Y199.929 E1.2942
G1 X216.516 Y200.298 E1.3219
G1 X216.239 Y200.204 E1.3394
G1 X216.239 Y190.343 E1.9298
G1 X216.182 Y189.586 E1.9752
G1 X216.006 Y188.820 E2.0223
G1 X215.717 Y188.089 E2.0693
G1 X215.321 Y187.410 E2.1164
G1 X214.828 Y186.798 E2.1634
G1 X214.249 Y186.267 E2.2105
G1 X213.688 Y185.890 E2.2509
G1 X213.522 Y185.779 F1992
G92 E0.0000
G1 E-1.5000 F5100
G1 X213.644 Y186.439 F7200
G1 X213.951 Y186.645
G1 X214.477 Y187.127
G1 X214.924 Y187.683
G1 X215.284 Y188.300
G1 X215.546 Y188.963
G1 X215.706 Y189.658
G1 X215.759 Y190.361
G1 X215.759 Y197.900
G1 X216.516 Y202.002
G1 E0.0000 F5100
G92 E0.0000
G1 X216.798 Y202.371 E0.0278 F1992
G1 X217.166 Y202.653 E0.0556
G1 X217.072 Y202.930 E0.0731
G1 X216.239 Y202.930 E0.1230
G1 X216.239 Y202.096 E0.1729
G1 X216.326 Y202.067 E0.1784
G1 X216.516 Y202.002 F1992
G1 X217.546 Y202.287 F7200
G1 X217.697 Y202.350
G1 X217.842 Y202.369
G1 X218.871 Y202.653
G92 E0.0000
G1 X219.240 Y202.371 E0.0278 F1992
G1 X219.522 Y202.002 E0.0556
G1 X219.799 Y202.096 E0.0731
G1 X219.799 Y202.930 E0.1230
G1 X218.965 Y202.930 E0.1729
G1 X218.936 Y202.843 E0.1784
G1 X218.871 Y202.653 F1992
; feature outer perimeter
G1 X218.640 Y202.226 F7200
G92 E0.0000
G1 X218.897 Y202.028 E0.0194 F1584
G1 X219.095 Y201.771 E0.0388
G1 X219.219 Y201.471 E0.0582
G1 X219.261 Y201.150 E0.0777
G1 X219.219 Y200.829 E0.0971
G1 X219.095 Y200.529 E0.1165
G1 X218.897 Y200.272 E0.1359
G1 X218.640 Y200.074 E0.1553
G1 X218.340 Y199.950 E0.1747
G1 X218.019 Y199.908 E0.1941
G1 X217.697 Y199.950 E0.2135
G1 X217.398 Y200.074 E0.2329
G1 X217.141 Y200.272 E0.2524
G1 X216.943 Y200.529 E0.2718
G1 X216.819 Y200.829 E0.2912
G1 X216.777 Y201.151 E0.3107
G1 X216.825 Y201.485 E0.3309
G1 X216.943 Y201.771 E0.3494
G1 X217.141 Y202.028 E0.3688
G1 X217.398 Y202.226 E0.3882
G1 X217.697 Y202.350 E0.4076
G1 X218.019 Y202.392 E0.4270
G1 X218.340 Y202.350 E0.4465
G1 X218.455 Y202.302 E0.4539
G1 X218.640 Y202.226 F1584
G1 X218.897 Y202.028 F1584
G1 X219.095 Y201.771
G1 X219.219 Y201.471
G1 X219.261 Y201.150
G1 X219.219 Y200.829
G1 X219.095 Y200.529
G1 X218.897 Y200.272
G1 X218.640 Y200.074
G1 X218.340 Y199.950
G1 X218.019 Y199.908
G1 X217.697 Y199.950
G1 X217.398 Y200.074
G1 X217.311 Y200.141
; feature gap fill
G1 X216.204 Y200.628 F7200
G92 E0.0000
G1 X216.407 Y200.831 E0.0172 F2400
G1 X216.365 Y201.154 E0.0367
G1 X216.418 Y201.520 E0.0588
G1 X216.308 Y201.411 E0.0681
G1 X216.167 Y201.269 F2400
G1 X217.653 Y202.755 F7200
G92 E0.0000
G1 X217.900 Y203.002 E0.0209 F2400
G1 X218.554 Y203.002 E0.0600
G1 X218.541 Y202.965 E0.0624
G1 X218.479 Y202.903 E0.0676
G1 X218.338 Y202.762 F2400
G1 X219.646 Y201.354 F7200
G92 E0.0000
G1 X219.871 Y201.579 E0.0191 F2400
G1 X219.871 Y200.900 E0.0597
G1 X219.799 Y200.829 E0.0658
G1 X219.658 Y200.687 F2400
G92 E0.0000
G1 E-1.5000 F5100
G1 X215.759 Y191.540 F7200
G1 X215.759 Y190.361
G1 X215.706 Y189.658
G1 X215.546 Y188.963
G1 X215.284 Y188.300
G1 X214.924 Y187.683
G1 X214.477 Y187.127
G1 X213.951 Y186.645
G1 X213.561 Y186.383
G1 X213.102 Y185.307
G1 E0.0000 F5100
G92 E0.0000
G1 X213.220 Y185.424 E0.0099 F2400
G1 X213.117 Y185.682 E0.0265
G1 X212.860 Y185.560 E0.0435
G1 X212.599 Y185.483 E0.0598
G1 X212.284 Y185.168 E0.0865
G1 X211.466 Y185.028 E0.1362
G1 X211.721 Y185.283 E0.1577
G1 X211.374 Y185.234 E0.1787
G1 X210.967 Y185.208 E0.2031
G1 X210.648 Y184.889 E0.2301
G1 X209.830 Y184.750 E0.2798
G1 X210.241 Y185.161 E0.3146
G1 X209.516 Y185.115 E0.3582
G1 X209.153 Y184.752 E0.3889
G1 X209.011 Y184.610 F2400
G92 E0.0000
G1 E-1.5000 F5100
; feature solid layer
G1 X203.871 Y184.222 F7200
G1 E0.0000 F5100
G92 E0.0000
G1 X203.924 Y184.274 E0.0044 F1920
G1 X203.198 Y184.228 E0.0480
G1 X203.053 Y184.082 E0.0603
G1 X202.235 Y183.943 E0.1100
G1 X202.473 Y184.181 E0.1301
G1 X201.747 Y184.134 E0.1736
G1 X201.417 Y183.804 E0.2016
