; G-Code generated by Simplify3D(R) Version 4.1.2
; Apr 19, 2021 at 12:04:05 AM
; Settings Summary
;   processName,Process1
;   applyToModels,ballplate v2 LGX
;   profileName,BLV mgn Cube-  Simplify3D Profile (modified)
;   profileVersion,2021-04-02 01:52:57
;   baseProfile,Anet A8
;   printMaterial,PLA
;   printQuality,Medium
;   printExtruders,
;   extruderName,Primary Extruder
;   extruderToolheadNumber,0
;   extruderDiameter,0.4
;   extruderAutoWidth,1
;   extruderWidth,0.48
;   extrusionMultiplier,1
;   extruderUseRetract,1
;   extruderRetractionDistance,1.5
;   extruderExtraRestartDistance,0
;   extruderRetractionZLift,0
;   extruderRetractionSpeed,5100
;   extruderUseCoasting,1
;   extruderCoastingDistance,0.2
;   extruderUseWipe,1
;   extruderWipeDistance,4
;   primaryExtruder,0
;   layerHeight,0.2
;   topSolidLayers,6
;   bottomSolidLayers,6
;   perimeterOutlines,6
;   printPerimetersInsideOut,0
;   startPointOption,3
;   startPointOriginX,0
;   startPointOriginY,500
;   sequentialIslands,0
;   spiralVaseMode,0
;   firstLayerHeightPercentage,150
;   firstLayerWidthPercentage,100
;   firstLayerUnderspeed,0.4
;   useRaft,0
;   raftExtruder,0
;   raftTopLayers,3
;   raftBaseLayers,2
;   raftOffset,3
;   raftSeparationDistance,0.14
;   raftTopInfill,100
;   aboveRaftSpeedMultiplier,0.3
;   useSkirt,1
;   skirtExtruder,0
;   skirtLayers,1
;   skirtOutlines,2
;   skirtOffset,6
;   usePrimePillar,0
;   primePillarExtruder,999
;   primePillarWidth,12
;   primePillarLocation,7
;   primePillarSpeedMultiplier,1
;   useOozeShield,0
;   oozeShieldExtruder,999
;   oozeShieldOffset,2
;   oozeShieldOutlines,1
;   oozeShieldSidewallShape,1
;   oozeShieldSidewallAngle,30
;   oozeShieldSpeedMultiplier,1
;   infillExtruder,0
;   internalInfillPattern,Rectilinear
;   externalInfillPattern,Rectilinear
;   infillPercentage,15
;   outlineOverlapPercentage,15
;   infillExtrusionWidthPercentage,100
;   minInfillLength,5
;   infillLayerInterval,1
;   internalInfillAngles,45,-45
;   overlapInternalInfillAngles,0
;   externalInfillAngles,45,-45
;   generateSupport,1
;   supportExtruder,0
;   supportInfillPercentage,30
;   supportExtraInflation,0
;   supportBaseLayers,0
;   denseSupportExtruder,0
;   denseSupportLayers,0
;   denseSupportInfillPercentage,70
;   supportLayerInterval,1
;   supportHorizontalPartOffset,0.4
;   supportUpperSeparationLayers,1
;   supportLowerSeparationLayers,1
;   supportType,0
;   supportGridSpacing,1
;   maxOverhangAngle,45
;   supportAngles,45,-45
;   temperatureName,Primary Extruder,Heated Bed
;   temperatureNumber,0,0
;   temperatureSetpointCount,2,1
;   temperatureSetpointLayers,1,2,1
;   temperatureSetpointTemperatures,215,210,60
;   temperatureStabilizeAtStartup,1,1
;   temperatureHeatedBed,0,1
;   fanLayers,1,2
;   fanSpeeds,0,100
;   blipFanToFullPower,1
;   adjustSpeedForCooling,1
;   minSpeedLayerTime,15
;   minCoolingSpeedSlowdown,20
;   increaseFanForCooling,0
;   minFanLayerTime,45
;   maxCoolingFanSpeed,100
;   increaseFanForBridging,1
;   bridgingFanSpeed,100
;   use5D,1
;   relativeEdistances,0
;   allowEaxisZeroing,1
;   independentExtruderAxes,0
;   includeM10123,0
;   stickySupport,1
;   applyToolheadOffsets,0
;   gcodeXoffset,24
;   gcodeYoffset,22
;   gcodeZoffset,0
;   overrideMachineDefinition,1
;   machineTypeOverride,0
;   strokeXoverride,310
;   strokeYoverride,310
;   strokeZoverride,334
;   originOffsetXoverride,0
;   originOffsetYoverride,0
;   originOffsetZoverride,0
;   homeXdirOverride,-1
;   homeYdirOverride,-1
;   homeZdirOverride,-1
;   flipXoverride,1
;   flipYoverride,-1
;   flipZoverride,1
;   toolheadOffsets,0,0|0,0|0,0|0,0|0,0|0,0
;   overrideFirmwareConfiguration,1
;   firmwareTypeOverride,RepRap (Marlin/Repetier/Sprinter)
;   GPXconfigOverride,r2
;   baudRateOverride,115200
;   overridePrinterModels,1
;   printerModelsOverride,Blvfull.stl
;   startingGcode,M291 P"Homing all axis" R"Printing.." S1 T2,G21		; metric values,G28		; home all,M98 P"/macros/load_meshbed"	; load mesh bed corresponding to the temp,M98 P"/macros/set_baby_step"	; set baby step,M98 P"/macros/purge_and_prime"; purge and do the prime line,,G92 E0 F100		; reset extruder,G1 Z10 F3000 		; move z up little to prevent scratching of surface,G92 E0 		; reset extruder,M291 P"Printing started !" R"Printing.." S1 T3
;   layerChangeGcode,
;   retractionGcode,
;   toolChangeGcode,
;   endingGcode,M104 S0 ; turn off extruder,M140 S0 ; turn off bed,M98 P"/macros/remove_baby_step"	; unset baby step,M98 P"/macros/rise30mm",G1 X0 Y300 F1000 ; prepare for part removal,M84 ; disable motors,M106 S0 ;turn off part cooling fan,;M81 ; shutdown,; play song,M300 S294 P200 ;D4: 294,M300 S588 P200 ;D5: 588,M300 S440 P200 ;A4: 440,M300 S392 P200 ;G4: 392,M300 S784 P200 ;G5: 784,M300 S440 P200 ;A4: 440,M300 S740 P200 ;F#5: 740,M300 S440 P200 ;A4: 440,M291 P"Printing finished !" R"Printing.." S1 T0,
;   exportFileFormat,gcode
;   celebration,0
;   celebrationSong,Star Wars
;   postProcessing,
;   defaultSpeed,6000
;   outlineUnderspeed,0.66
;   solidInfillUnderspeed,0.8
;   supportUnderspeed,0.8
;   rapidXYspeed,7200
;   rapidZspeed,1002
;   minBridgingArea,50
;   bridgingExtraInflation,0
;   bridgingExtrusionMultiplier,1
;   bridgingSpeedMultiplier,1
;   useFixedBridgingAngle,0
;   fixedBridgingAngle,0
;   applyBridgingToPerimeters,1
;   filamentDiameters,1.75|1.75|1.75|1.75|1.75|1.75
;   filamentPricesPerKg,30|110|110|110|110|110
;   filamentDensities,1.25|1.25|1.25|1.25|1.25|1.25
;   useMinPrintHeight,0
;   minPrintHeight,0
;   useMaxPrintHeight,0
;   maxPrintHeight,0
;   useDiaphragm,0
;   diaphragmLayerInterval,20
;   robustSlicing,1
;   mergeAllIntoSolid,0
;   onlyRetractWhenCrossingOutline,0
;   retractBetweenLayers,1
;   useRetractionMinTravel,1
;   retractionMinTravel,3
;   retractWhileWiping,1
;   onlyWipeOutlines,1
;   avoidCrossingOutline,1
;   maxMovementDetourFactor,3
;   toolChangeRetractionDistance,12
;   toolChangeExtraRestartDistance,-0.5
;   toolChangeRetractionSpeed,600
;   externalThinWallType,1
;   internalThinWallType,1
;   thinWallAllowedOverlapPercentage,15
;   singleExtrusionMinLength,1
;   singleExtrusionMinPrintingWidthPercentage,50
;   singleExtrusionMaxPrintingWidthPercentage,200
;   singleExtrusionEndpointExtension,0.2
;   horizontalSizeCompensation,0
G90
M82
M106 S0
M140 S60
M190 S60
M104 S215 T0
M109 S215 T0
M291 P"Homing all axis" R"Printing.." S1 T2
G21		; metric values
G28		; home all
M98 P"/macros/load_meshbed"	; load mesh bed corresponding to the temp
M98 P"/macros/set_baby_step"	; set baby step
M98 P"/macros/purge_and_prime"; purge and do the prime line
G92 E0 F100		; reset extruder
G1 Z10 F3000 		; move z up little to prevent scratching of surface
G92 E0 		; reset extruder
M291 P"Printing started !" R"Printing.." S1 T3
; process Process1
; layer 1, Z = 0.300
T0
G92 E0.0000
G1 E-1.5000 F5100
; feature skirt
; tool H0.300 W0.480
G1 Z0.300 F1002
G1 X155.216 Y209.520 F7200
G1 E0.0000 F5100
G92 E0.0000
G1 X151.280 Y205.584 E0.3333 F2400
G1 X151.280 Y173.780 E2.2373
G1 X145.440 Y170.408 E2.6410
G1 X143.640 Y167.289 E2.8566
G1 X143.640 Y160.940 E3.2368
G1 X144.098 Y159.231 E3.3427
G1 X148.826 Y151.041 E3.9089
G1 X150.132 Y149.758 E4.0185
G1 X153.917 Y147.662 E4.2775
G1 X156.076 Y145.503 E4.4603
G1 X158.546 Y144.480 E4.6203
G1 X199.572 Y144.480 E7.0765
G1 X202.100 Y145.560 E7.2411
G1 X204.148 Y147.698 E7.4183
G1 X207.868 Y149.758 E7.6729
G1 X209.174 Y151.041 E7.7825
G1 X213.902 Y159.231 E8.3487
G1 X214.360 Y160.940 E8.4546
G1 X214.360 Y167.289 E8.8347
G1 X212.560 Y170.408 E9.0503
G1 X206.720 Y173.780 E9.4540
G1 X206.720 Y184.776 E10.1124
G1 X207.440 Y185.496 E10.1734
G1 X207.440 Y194.504 E10.7126
G1 X206.720 Y195.224 E10.7735
G1 X206.720 Y205.584 E11.3938
G1 X202.784 Y209.520 E11.7271
G1 X155.216 Y209.520 E14.5748
G1 X155.415 Y209.040 F7200
G92 E0.0000
G1 X151.760 Y205.385 E0.3095 F2400
G1 X151.760 Y173.503 E2.2182
G1 X145.792 Y170.057 E2.6308
G1 X144.120 Y167.161 E2.8310
G1 X144.120 Y161.003 E3.1997
G1 X144.545 Y159.416 E3.2980
G1 X149.209 Y151.337 E3.8565
G1 X150.422 Y150.146 E3.9583
G1 X154.209 Y148.049 E4.2174
G1 X156.348 Y145.910 E4.3985
G1 X158.642 Y144.960 E4.5472
G1 X199.473 Y144.960 E6.9917
G1 X201.821 Y145.962 E7.1445
G1 X203.852 Y148.083 E7.3203
G1 X207.578 Y150.146 E7.5753
G1 X208.791 Y151.337 E7.6771
G1 X213.455 Y159.416 E8.2355
G1 X213.880 Y161.003 E8.3339
G1 X213.880 Y167.161 E8.7026
G1 X212.208 Y170.057 E8.9028
G1 X206.240 Y173.503 E9.3154
G1 X206.240 Y184.975 E10.0022
G1 X206.960 Y185.695 E10.0632
G1 X206.960 Y194.305 E10.5786
G1 X206.240 Y195.025 E10.6396
G1 X206.240 Y205.385 E11.2598
G1 X202.585 Y209.040 E11.5693
G1 X155.415 Y209.040 E14.3932
G92 E0.0000
G1 E-1.5000 F5100
; feature outer perimeter
G1 X158.240 Y202.560 F7200
G1 E0.0000 F5100
G92 E0.0000
G1 X158.240 Y169.761 E1.9636 F1584
G1 X150.600 Y165.350 E2.4918
G1 X150.600 Y161.889 E2.6990
G1 X154.363 Y155.371 E3.1496
G1 X158.146 Y153.276 E3.4085
G1 X159.982 Y151.440 E3.5639
G1 X198.095 Y151.440 E5.8457
G1 X199.852 Y153.275 E5.9978
G1 X203.637 Y155.371 E6.2568
G1 X207.400 Y161.889 E6.7074
G1 X207.400 Y165.350 E6.9146
G1 X199.760 Y169.761 E7.4428
G1 X199.760 Y202.560 E9.4064
G1 X158.440 Y202.560 E11.8802
G1 X158.240 Y202.560 F1584
G92 E0.0000
G1 X158.240 Y202.094 E-1.5000 F1584
G1 X158.240 Y198.560 F1584
; feature inner perimeter
G1 X158.720 Y202.080 F7200
G1 E0.0000 F5100
G92 E0.0000
G1 X158.720 Y169.484 E1.9514 F1992
G1 X151.080 Y165.073 E2.4796
G1 X151.080 Y162.017 E2.6626
G1 X154.712 Y155.727 E3.0975
G1 X158.437 Y153.664 E3.3524
G1 X160.181 Y151.920 E3.5000
G1 X177.538 Y151.920 E4.5392
G1 X177.602 Y152.251 E4.5594
G1 X176.882 Y152.538 E4.6058
G1 X176.184 Y152.968 E4.6548
G1 X175.584 Y153.499 E4.7028
G1 X175.083 Y154.122 E4.7507
G1 X174.701 Y154.805 E4.7975
G1 X174.428 Y155.576 E4.8465
G1 X174.294 Y156.366 E4.8945
G1 X174.295 Y157.167 E4.9424
G1 X174.432 Y157.955 E4.9903
G1 X174.699 Y158.710 E5.0382
G1 X175.090 Y159.408 E5.0861
G1 X175.581 Y160.016 E5.1329
G1 X176.194 Y160.558 E5.1819
G1 X176.877 Y160.978 E5.2299
G1 X177.620 Y161.275 E5.2778
G1 X178.403 Y161.444 E5.3257
G1 X179.203 Y161.477 E5.3737
G1 X179.996 Y161.375 E5.4216
G1 X180.762 Y161.141 E5.4695
G1 X181.476 Y160.780 E5.5174
G1 X182.105 Y160.315 E5.5642
G1 X182.673 Y159.728 E5.6132
G1 X183.122 Y159.063 E5.6612
G1 X183.452 Y158.334 E5.7091
G1 X183.654 Y157.560 E5.7570
G1 X183.723 Y156.761 E5.8050
G1 X183.649 Y155.940 E5.8544
G1 X183.454 Y155.191 E5.9007
G1 X183.126 Y154.461 E5.9486
G1 X182.679 Y153.798 E5.9965
G1 X182.126 Y153.219 E6.0444
G1 X181.483 Y152.742 E6.0923
G1 X180.768 Y152.380 E6.1403
G1 X180.400 Y152.268 E6.1634
G1 X180.452 Y151.920 E6.1844
G1 X197.890 Y151.920 E7.2284
G1 X199.556 Y153.660 E7.3726
G1 X203.288 Y155.727 E7.6280
G1 X206.920 Y162.017 E8.0629
G1 X206.920 Y165.073 E8.2459
G1 X199.280 Y169.484 E8.7741
G1 X199.280 Y202.080 E10.7255
G1 X158.920 Y202.080 E13.1418
G1 X158.720 Y202.080 F1992
G1 X159.200 Y201.600 F7200
G92 E0.0000
G1 X159.200 Y184.978 E0.9951 F1992
G1 X159.505 Y184.899 E1.0140
G1 X159.810 Y185.444 E1.0513
G1 X160.364 Y186.131 E1.1042
G1 X161.027 Y186.714 E1.1570
G1 X161.778 Y187.177 E1.2099
G1 X162.597 Y187.506 E1.2627
G1 X163.460 Y187.692 E1.3156
G1 X164.342 Y187.729 E1.3684
G1 X165.218 Y187.617 E1.4213
G1 X166.062 Y187.359 E1.4741
G1 X166.850 Y186.961 E1.5270
G1 X167.560 Y186.436 E1.5798
G1 X168.171 Y185.799 E1.6327
G1 X168.665 Y185.068 E1.6855
G1 X169.028 Y184.263 E1.7384
G1 X169.251 Y183.409 E1.7912
G1 X169.326 Y182.529 E1.8440
G1 X169.251 Y181.650 E1.8969
G1 X169.028 Y180.796 E1.9497
G1 X168.665 Y179.991 E2.0026
G1 X168.171 Y179.260 E2.0554
G1 X167.560 Y178.623 E2.1083
G1 X166.848 Y178.096 E2.1613
G1 X166.042 Y177.694 E2.2152
G1 X165.218 Y177.442 E2.2668
G1 X164.342 Y177.330 E2.3196
G1 X163.460 Y177.367 E2.3725
G1 X162.597 Y177.553 E2.4253
G1 X161.778 Y177.882 E2.4782
G1 X161.027 Y178.345 E2.5310
G1 X160.364 Y178.928 E2.5839
G1 X159.810 Y179.615 E2.6367
G1 X159.505 Y180.160 E2.6741
G1 X159.200 Y180.081 E2.6930
G1 X159.200 Y169.207 E3.3439
G1 X151.560 Y164.796 E3.8721
G1 X151.560 Y162.146 E4.0308
G1 X155.061 Y156.082 E4.4500
G1 X158.729 Y154.051 E4.7010
G1 X160.380 Y152.400 E4.8408
G1 X176.102 Y152.400 E5.7820
G1 X175.235 Y153.166 E5.8513
G1 X174.683 Y153.853 E5.9040
G1 X174.262 Y154.606 E5.9557
G1 X173.962 Y155.455 E6.0096
G1 X173.814 Y156.326 E6.0625
G1 X173.815 Y157.208 E6.1153
G1 X173.966 Y158.077 E6.1681
G1 X174.261 Y158.909 E6.2209
G1 X174.691 Y159.678 E6.2737
G1 X175.233 Y160.349 E6.3254
G1 X175.908 Y160.945 E6.3792
G1 X176.661 Y161.408 E6.4322
G1 X177.479 Y161.736 E6.4850
G1 X178.342 Y161.922 E6.5378
G1 X179.223 Y161.958 E6.5906
G1 X180.098 Y161.846 E6.6434
G1 X180.941 Y161.588 E6.6962
G1 X181.729 Y161.190 E6.7490
G1 X182.422 Y160.678 E6.8006
G1 X183.047 Y160.031 E6.8545
G1 X183.543 Y159.298 E6.9074
G1 X183.906 Y158.495 E6.9602
G1 X184.129 Y157.641 E7.0131
G1 X184.205 Y156.761 E7.0660
G1 X184.124 Y155.857 E7.1203
G1 X183.909 Y155.031 E7.1714
G1 X183.547 Y154.227 E7.2242
G1 X183.054 Y153.496 E7.2770
G1 X182.445 Y152.858 E7.3298
G1 X182.205 Y152.680 E7.3477
G1 X182.297 Y152.400 E7.3653
G1 X197.685 Y152.400 E8.2865
G1 X199.259 Y154.044 E8.4228
G1 X202.939 Y156.082 E8.6747
G1 X206.440 Y162.146 E9.0939
G1 X206.440 Y164.796 E9.2525
G1 X198.800 Y169.207 E9.7807
G1 X198.800 Y180.036 E10.4290
G1 X198.511 Y180.124 E10.4470
G1 X197.930 Y179.262 E10.5093
G1 X197.320 Y178.625 E10.5621
G1 X196.611 Y178.100 E10.6149
G1 X195.821 Y177.701 E10.6679
G1 X194.952 Y177.439 E10.7222
G1 X194.105 Y177.330 E10.7733
G1 X193.225 Y177.367 E10.8261
G1 X192.362 Y177.551 E10.8789
G1 X191.543 Y177.879 E10.9317
G1 X190.791 Y178.340 E10.9845
G1 X190.127 Y178.923 E11.0374
G1 X189.561 Y179.625 E11.0914
G1 X189.139 Y180.379 E11.1432
G1 X188.845 Y181.209 E11.1959
G1 X188.694 Y182.079 E11.2488
G1 X188.694 Y182.980 E11.3027
G1 X188.845 Y183.849 E11.3555
G1 X189.140 Y184.681 E11.4083
G1 X189.572 Y185.451 E11.4612
G1 X190.109 Y186.116 E11.5124
G1 X190.789 Y186.718 E11.5667
G1 X191.543 Y187.180 E11.6197
G1 X192.362 Y187.508 E11.6725
G1 X193.225 Y187.692 E11.7253
G1 X194.106 Y187.729 E11.7781
G1 X194.980 Y187.616 E11.8309
G1 X195.797 Y187.366 E11.8820
G1 X196.608 Y186.961 E11.9363
G1 X197.320 Y186.434 E11.9893
G1 X197.929 Y185.797 E12.0421
G1 X198.511 Y184.935 E12.1044
G1 X198.800 Y185.023 E12.1224
G1 X198.800 Y201.600 E13.1149
G1 X159.400 Y201.600 E15.4737
G1 X159.200 Y201.600 F1992
G1 X159.680 Y201.120 F7200
G92 E0.0000
G1 X159.680 Y186.168 E0.8952 F1992
G1 X160.740 Y187.101 E0.9797
G1 X161.561 Y187.607 E1.0375
G1 X162.456 Y187.966 E1.0952
G1 X163.399 Y188.169 E1.1529
G1 X164.363 Y188.210 E1.2107
G1 X165.319 Y188.088 E1.2684
G1 X166.241 Y187.806 E1.3261
G1 X167.103 Y187.371 E1.3839
G1 X167.878 Y186.798 E1.4416
G1 X168.545 Y186.102 E1.4994
G1 X169.085 Y185.303 E1.5571
G1 X169.483 Y184.424 E1.6148
G1 X169.726 Y183.490 E1.6726
G1 X169.807 Y182.529 E1.7303
G1 X169.726 Y181.569 E1.7881
G1 X169.483 Y180.635 E1.8458
G1 X169.085 Y179.756 E1.9035
G1 X168.545 Y178.957 E1.9613
G1 X167.878 Y178.261 E2.0190
G1 X167.100 Y177.685 E2.0770
G1 X166.221 Y177.247 E2.1358
G1 X165.319 Y176.971 E2.1922
G1 X164.363 Y176.849 E2.2499
G1 X163.399 Y176.889 E2.3077
G1 X162.456 Y177.093 E2.3654
G1 X161.561 Y177.452 E2.4232
G1 X160.740 Y177.958 E2.4809
G1 X159.680 Y178.891 E2.5655
G1 X159.680 Y168.930 E3.1618
G1 X152.040 Y164.519 E3.6900
G1 X152.040 Y162.275 E3.8243
G1 X155.410 Y156.437 E4.2279
G1 X159.021 Y154.438 E4.4750
G1 X160.579 Y152.880 E4.6069
G1 X174.849 Y152.880 E5.4613
G1 X174.284 Y153.583 E5.5153
G1 X173.823 Y154.408 E5.5718
