; G-Code generated by Simplify3D(R) Version 4.1.2
; Apr 17, 2021 at 5:35:35 PM
; Settings Summary
;   processName,Process1
;   applyToModels,ballplate v2
;   profileName,BLV mgn Cube-  Simplify3D Profile (modified)
;   profileVersion,2021-04-02 01:52:57
;   baseProfile,Anet A8
;   printMaterial,PLA
;   printQuality,Medium
;   printExtruders,
;   extruderName,Primary Extruder
;   extruderToolheadNumber,0
;   extruderDiameter,0.4
;   extruderAutoWidth,1
;   extruderWidth,0.48
;   extrusionMultiplier,1
;   extruderUseRetract,1
;   extruderRetractionDistance,1.5
;   extruderExtraRestartDistance,0
;   extruderRetractionZLift,0
;   extruderRetractionSpeed,5100
;   extruderUseCoasting,1
;   extruderCoastingDistance,0.2
;   extruderUseWipe,1
;   extruderWipeDistance,4
;   primaryExtruder,0
;   layerHeight,0.2
;   topSolidLayers,3
;   bottomSolidLayers,3
;   perimeterOutlines,3
;   printPerimetersInsideOut,0
;   startPointOption,3
;   startPointOriginX,0
;   startPointOriginY,500
;   sequentialIslands,0
;   spiralVaseMode,0
;   firstLayerHeightPercentage,150
;   firstLayerWidthPercentage,100
;   firstLayerUnderspeed,0.4
;   useRaft,0
;   raftExtruder,0
;   raftTopLayers,3
;   raftBaseLayers,2
;   raftOffset,3
;   raftSeparationDistance,0.14
;   raftTopInfill,100
;   aboveRaftSpeedMultiplier,0.3
;   useSkirt,1
;   skirtExtruder,0
;   skirtLayers,1
;   skirtOutlines,2
;   skirtOffset,6
;   usePrimePillar,0
;   primePillarExtruder,999
;   primePillarWidth,12
;   primePillarLocation,7
;   primePillarSpeedMultiplier,1
;   useOozeShield,0
;   oozeShieldExtruder,999
;   oozeShieldOffset,2
;   oozeShieldOutlines,1
;   oozeShieldSidewallShape,1
;   oozeShieldSidewallAngle,30
;   oozeShieldSpeedMultiplier,1
;   infillExtruder,0
;   internalInfillPattern,Rectilinear
;   externalInfillPattern,Rectilinear
;   infillPercentage,15
;   outlineOverlapPercentage,15
;   infillExtrusionWidthPercentage,100
;   minInfillLength,5
;   infillLayerInterval,1
;   internalInfillAngles,45,-45
;   overlapInternalInfillAngles,0
;   externalInfillAngles,45,-45
;   generateSupport,1
;   supportExtruder,0
;   supportInfillPercentage,30
;   supportExtraInflation,0
;   supportBaseLayers,0
;   denseSupportExtruder,0
;   denseSupportLayers,0
;   denseSupportInfillPercentage,70
;   supportLayerInterval,1
;   supportHorizontalPartOffset,0.4
;   supportUpperSeparationLayers,1
;   supportLowerSeparationLayers,1
;   supportType,0
;   supportGridSpacing,1
;   maxOverhangAngle,45
;   supportAngles,45,-45
;   temperatureName,Primary Extruder,Heated Bed
;   temperatureNumber,0,0
;   temperatureSetpointCount,2,1
;   temperatureSetpointLayers,1,2,1
;   temperatureSetpointTemperatures,215,210,60
;   temperatureStabilizeAtStartup,1,1
;   temperatureHeatedBed,0,1
;   fanLayers,1,2
;   fanSpeeds,0,100
;   blipFanToFullPower,1
;   adjustSpeedForCooling,1
;   minSpeedLayerTime,15
;   minCoolingSpeedSlowdown,20
;   increaseFanForCooling,0
;   minFanLayerTime,45
;   maxCoolingFanSpeed,100
;   increaseFanForBridging,1
;   bridgingFanSpeed,100
;   use5D,1
;   relativeEdistances,0
;   allowEaxisZeroing,1
;   independentExtruderAxes,0
;   includeM10123,0
;   stickySupport,1
;   applyToolheadOffsets,0
;   gcodeXoffset,24
;   gcodeYoffset,22
;   gcodeZoffset,0
;   overrideMachineDefinition,1
;   machineTypeOverride,0
;   strokeXoverride,310
;   strokeYoverride,310
;   strokeZoverride,334
;   originOffsetXoverride,0
;   originOffsetYoverride,0
;   originOffsetZoverride,0
;   homeXdirOverride,-1
;   homeYdirOverride,-1
;   homeZdirOverride,-1
;   flipXoverride,1
;   flipYoverride,-1
;   flipZoverride,1
;   toolheadOffsets,0,0|0,0|0,0|0,0|0,0|0,0
;   overrideFirmwareConfiguration,1
;   firmwareTypeOverride,RepRap (Marlin/Repetier/Sprinter)
;   GPXconfigOverride,r2
;   baudRateOverride,115200
;   overridePrinterModels,1
;   printerModelsOverride,Blvfull.stl
;   startingGcode,M291 P"Homing all axis" R"Printing.." S1 T2,G21		; metric values,G28		; home all,M98 P"/macros/load_meshbed"	; load mesh bed corresponding to the temp,M98 P"/macros/set_baby_step"	; set baby step,M98 P"/macros/purge_and_prime"; purge and do the prime line,,G92 E0 F100		; reset extruder,G1 Z10 F3000 		; move z up little to prevent scratching of surface,G92 E0 		; reset extruder,M291 P"Printing started !" R"Printing.." S1 T3
;   layerChangeGcode,
;   retractionGcode,
;   toolChangeGcode,
;   endingGcode,M104 S0 ; turn off extruder,M140 S0 ; turn off bed,M98 P"/macros/remove_baby_step"	; unset baby step,M98 P"/macros/rise30mm",G1 X0 Y300 F1000 ; prepare for part removal,M84 ; disable motors,M106 S0 ;turn off part cooling fan,;M81 ; shutdown,; play song,M300 S294 P200 ;D4: 294,M300 S588 P200 ;D5: 588,M300 S440 P200 ;A4: 440,M300 S392 P200 ;G4: 392,M300 S784 P200 ;G5: 784,M300 S440 P200 ;A4: 440,M300 S740 P200 ;F#5: 740,M300 S440 P200 ;A4: 440,M291 P"Printing finished !" R"Printing.." S1 T0,
;   exportFileFormat,gcode
;   celebration,0
;   celebrationSong,Star Wars
;   postProcessing,
;   defaultSpeed,6000
;   outlineUnderspeed,0.66
;   solidInfillUnderspeed,0.8
;   supportUnderspeed,0.8
;   rapidXYspeed,7200
;   rapidZspeed,1002
;   minBridgingArea,50
;   bridgingExtraInflation,0
;   bridgingExtrusionMultiplier,1
;   bridgingSpeedMultiplier,1
;   useFixedBridgingAngle,0
;   fixedBridgingAngle,0
;   applyBridgingToPerimeters,1
;   filamentDiameters,1.75|1.75|1.75|1.75|1.75|1.75
;   filamentPricesPerKg,30|110|110|110|110|110
;   filamentDensities,1.25|1.25|1.25|1.25|1.25|1.25
;   useMinPrintHeight,0
;   minPrintHeight,0
;   useMaxPrintHeight,0
;   maxPrintHeight,0
;   useDiaphragm,0
;   diaphragmLayerInterval,20
;   robustSlicing,1
;   mergeAllIntoSolid,0
;   onlyRetractWhenCrossingOutline,0
;   retractBetweenLayers,1
;   useRetractionMinTravel,1
;   retractionMinTravel,3
;   retractWhileWiping,1
;   onlyWipeOutlines,1
;   avoidCrossingOutline,1
;   maxMovementDetourFactor,3
;   toolChangeRetractionDistance,12
;   toolChangeExtraRestartDistance,-0.5
;   toolChangeRetractionSpeed,600
;   externalThinWallType,1
;   internalThinWallType,1
;   thinWallAllowedOverlapPercentage,15
;   singleExtrusionMinLength,1
;   singleExtrusionMinPrintingWidthPercentage,50
;   singleExtrusionMaxPrintingWidthPercentage,200
;   singleExtrusionEndpointExtension,0.2
;   horizontalSizeCompensation,0
G90
M82
M106 S0
M140 S60
M190 S60
M104 S215 T0
M109 S215 T0
M291 P"Homing all axis" R"Printing.." S1 T2
G21		; metric values
G28		; home all
M98 P"/macros/load_meshbed"	; load mesh bed corresponding to the temp
M98 P"/macros/set_baby_step"	; set baby step
M98 P"/macros/purge_and_prime"; purge and do the prime line
G92 E0 F100		; reset extruder
G1 Z10 F3000 		; move z up little to prevent scratching of surface
G92 E0 		; reset extruder
M291 P"Printing started !" R"Printing.." S1 T3
; process Process1
; layer 1, Z = 0.300
T0
G92 E0.0000
G1 E-1.5000 F5100
; feature skirt
; tool H0.300 W0.480
G1 Z0.300 F1002
G1 X155.216 Y209.520 F7200
G1 E0.0000 F5100
G92 E0.0000
G1 X151.280 Y205.584 E0.3333 F2400
G1 X151.280 Y173.780 E2.2373
G1 X145.440 Y170.408 E2.6410
G1 X143.640 Y167.289 E2.8566
G1 X143.640 Y160.940 E3.2368
G1 X144.098 Y159.231 E3.3427
G1 X148.826 Y151.041 E3.9089
G1 X150.132 Y149.758 E4.0185
G1 X153.852 Y147.698 E4.2730
G1 X155.900 Y145.560 E4.4503
G1 X158.428 Y144.480 E4.6149
G1 X199.454 Y144.480 E7.0710
G1 X201.924 Y145.503 E7.2311
G1 X204.083 Y147.662 E7.4139
G1 X207.868 Y149.758 E7.6729
G1 X209.174 Y151.041 E7.7825
G1 X213.902 Y159.231 E8.3487
G1 X214.360 Y160.940 E8.4546
G1 X214.360 Y167.289 E8.8347
G1 X212.560 Y170.408 E9.0503
G1 X206.720 Y173.780 E9.4540
G1 X206.720 Y205.584 E11.3581
G1 X202.784 Y209.520 E11.6914
G1 X155.216 Y209.520 E14.5391
G1 X155.415 Y209.040 F7200
G92 E0.0000
G1 X151.760 Y205.385 E0.3095 F2400
G1 X151.760 Y173.503 E2.2182
G1 X145.792 Y170.057 E2.6308
G1 X144.120 Y167.161 E2.8310
G1 X144.120 Y161.003 E3.1997
G1 X144.545 Y159.416 E3.2980
G1 X149.209 Y151.337 E3.8565
G1 X150.422 Y150.146 E3.9583
G1 X154.148 Y148.083 E4.2133
G1 X156.179 Y145.962 E4.3890
G1 X158.526 Y144.960 E4.5419
G1 X199.358 Y144.960 E6.9864
G1 X201.652 Y145.910 E7.1350
G1 X203.791 Y148.049 E7.3162
G1 X207.578 Y150.146 E7.5753
G1 X208.791 Y151.337 E7.6771
G1 X213.455 Y159.416 E8.2355
G1 X213.880 Y161.003 E8.3339
G1 X213.880 Y167.161 E8.7026
G1 X212.208 Y170.057 E8.9028
G1 X206.240 Y173.503 E9.3154
G1 X206.240 Y205.385 E11.2241
G1 X202.585 Y209.040 E11.5336
G1 X155.415 Y209.040 E14.3575
G92 E0.0000
G1 E-1.5000 F5100
; feature outer perimeter
G1 X158.240 Y202.560 F7200
G1 E0.0000 F5100
G92 E0.0000
G1 X158.240 Y169.761 E1.9636 F1584
G1 X150.600 Y165.350 E2.4918
G1 X150.600 Y161.889 E2.6990
G1 X154.363 Y155.371 E3.1496
G1 X158.148 Y153.275 E3.4086
G1 X159.905 Y151.440 E3.5607
G1 X198.018 Y151.440 E5.8425
G1 X199.854 Y153.276 E5.9979
G1 X203.637 Y155.371 E6.2568
G1 X207.400 Y161.889 E6.7074
G1 X207.400 Y165.350 E6.9146
G1 X199.760 Y169.761 E7.4428
G1 X199.760 Y202.560 E9.4064
G1 X158.440 Y202.560 E11.8802
G1 X158.240 Y202.560 F1584
G92 E0.0000
G1 X158.240 Y202.094 E-1.5000 F1584
G1 X158.240 Y198.560 F1584
; feature inner perimeter
G1 X158.720 Y202.080 F7200
G1 E0.0000 F5100
G92 E0.0000
G1 X158.720 Y169.484 E1.9514 F1992
G1 X151.080 Y165.073 E2.4796
G1 X151.080 Y162.017 E2.6626
G1 X154.712 Y155.727 E3.0975
G1 X158.444 Y153.660 E3.3529
G1 X160.110 Y151.920 E3.4971
G1 X177.496 Y151.920 E4.5379
G1 X177.565 Y152.243 E4.5577
G1 X176.744 Y152.611 E4.6115
G1 X176.137 Y153.004 E4.6548
G1 X175.598 Y153.484 E4.6981
G1 X175.138 Y154.042 E4.7414
G1 X174.767 Y154.665 E4.7848
G1 X174.492 Y155.359 E4.8294
G1 X174.333 Y156.038 E4.8712
G1 X174.278 Y156.759 E4.9145
G1 X174.333 Y157.480 E4.9578
G1 X174.498 Y158.184 E5.0010
G1 X174.768 Y158.854 E5.0443
G1 X175.138 Y159.476 E5.0876
G1 X175.598 Y160.033 E5.1309
G1 X176.137 Y160.514 E5.1742
G1 X176.744 Y160.907 E5.2175
G1 X177.404 Y161.203 E5.2607
G1 X178.101 Y161.395 E5.3040
G1 X178.819 Y161.478 E5.3473
G1 X179.542 Y161.450 E5.3906
G1 X180.251 Y161.312 E5.4339
G1 X180.932 Y161.068 E5.4771
G1 X181.567 Y160.723 E5.5204
G1 X182.142 Y160.284 E5.5637
G1 X182.643 Y159.763 E5.6070
G1 X183.059 Y159.172 E5.6503
G1 X183.380 Y158.524 E5.6936
G1 X183.598 Y157.835 E5.7368
G1 X183.708 Y157.120 E5.7801
G1 X183.708 Y156.398 E5.8234
G1 X183.598 Y155.683 E5.8667
G1 X183.380 Y154.994 E5.9100
G1 X183.059 Y154.346 E5.9532
G1 X182.643 Y153.755 E5.9965
G1 X182.142 Y153.234 E6.0398
G1 X181.567 Y152.795 E6.0831
G1 X180.932 Y152.450 E6.1264
G1 X180.397 Y152.258 E6.1604
G1 X180.456 Y151.920 E6.1809
G1 X197.819 Y151.920 E7.2204
G1 X199.563 Y153.664 E7.3680
G1 X203.288 Y155.727 E7.6230
G1 X206.920 Y162.017 E8.0579
G1 X206.920 Y165.073 E8.2408
G1 X199.280 Y169.484 E8.7690
G1 X199.280 Y202.080 E10.7205
G1 X158.920 Y202.080 E13.1367
G1 X158.720 Y202.080 F1992
G1 X159.200 Y201.600 F7200
G92 E0.0000
G1 X159.200 Y184.991 E0.9944 F1992
G1 X159.500 Y184.909 E1.0130
G1 X159.865 Y185.523 E1.0558
G1 X160.372 Y186.138 E1.1035
G1 X160.967 Y186.668 E1.1512
G1 X161.636 Y187.101 E1.1989
G1 X162.362 Y187.427 E1.2466
G1 X163.131 Y187.638 E1.2942
G1 X163.922 Y187.729 E1.3419
G1 X164.718 Y187.699 E1.3896
G1 X165.500 Y187.547 E1.4373
G1 X166.250 Y187.278 E1.4850
G1 X166.950 Y186.897 E1.5327
G1 X167.583 Y186.414 E1.5804
G1 X168.136 Y185.840 E1.6281
G1 X168.594 Y185.189 E1.6758
G1 X168.948 Y184.475 E1.7235
G1 X169.188 Y183.715 E1.7712
G1 X169.310 Y182.928 E1.8189
G1 X169.310 Y182.131 E1.8666
G1 X169.188 Y181.344 E1.9143
G1 X168.948 Y180.584 E1.9620
G1 X168.594 Y179.870 E2.0097
G1 X168.136 Y179.219 E2.0574
G1 X167.583 Y178.645 E2.1050
G1 X166.950 Y178.162 E2.1527
G1 X166.250 Y177.781 E2.2004
G1 X165.500 Y177.512 E2.2481
G1 X164.718 Y177.360 E2.2958
G1 X163.922 Y177.330 E2.3435
G1 X163.131 Y177.421 E2.3912
G1 X162.362 Y177.632 E2.4389
G1 X161.636 Y177.958 E2.4866
G1 X160.967 Y178.391 E2.5343
G1 X160.372 Y178.921 E2.5820
G1 X159.865 Y179.536 E2.6297
G1 X159.500 Y180.150 E2.6725
G1 X159.200 Y180.068 E2.6911
G1 X159.200 Y169.207 E3.3413
G1 X151.560 Y164.796 E3.8695
G1 X151.560 Y162.146 E4.0281
G1 X155.061 Y156.082 E4.4474
G1 X158.741 Y154.044 E4.6992
G1 X160.315 Y152.400 E4.8355
G1 X176.093 Y152.400 E5.7801
G1 X175.251 Y153.151 E5.8476
G1 X174.744 Y153.765 E5.8953
G1 X174.335 Y154.453 E5.9432
G1 X174.033 Y155.215 E5.9923
G1 X173.857 Y155.965 E6.0384
G1 X173.796 Y156.759 E6.0861
G1 X173.857 Y157.553 E6.1338
G1 X174.039 Y158.329 E6.1815
G1 X174.337 Y159.068 E6.2292
G1 X174.744 Y159.753 E6.2769
G1 X175.251 Y160.367 E6.3246
G1 X175.845 Y160.897 E6.3722
G1 X176.514 Y161.330 E6.4199
G1 X177.241 Y161.656 E6.4676
G1 X178.009 Y161.867 E6.5153
G1 X178.801 Y161.959 E6.5630
G1 X179.597 Y161.928 E6.6107
G1 X180.379 Y161.776 E6.6584
G1 X181.129 Y161.507 E6.7061
G1 X181.828 Y161.127 E6.7538
G1 X182.462 Y160.644 E6.8015
G1 X183.014 Y160.070 E6.8492
G1 X183.473 Y159.418 E6.8969
G1 X183.826 Y158.704 E6.9446
G1 X184.067 Y157.945 E6.9923
G1 X184.188 Y157.157 E7.0400
G1 X184.188 Y156.361 E7.0877
G1 X184.067 Y155.573 E7.1354
G1 X183.826 Y154.814 E7.1830
G1 X183.473 Y154.100 E7.2307
G1 X183.014 Y153.448 E7.2784
G1 X182.462 Y152.874 E7.3261
G1 X182.204 Y152.677 E7.3456
G1 X182.298 Y152.400 E7.3631
G1 X197.620 Y152.400 E8.2804
G1 X199.271 Y154.051 E8.4202
G1 X202.939 Y156.082 E8.6712
G1 X206.440 Y162.146 E9.0904
G1 X206.440 Y164.796 E9.2491
G1 X198.800 Y169.207 E9.7773
G1 X198.800 Y180.066 E10.4274
G1 X198.485 Y180.140 E10.4468
G1 X198.351 Y179.870 E10.4648
G1 X197.893 Y179.219 E10.5125
G1 X197.341 Y178.645 E10.5602
G1 X196.707 Y178.162 E10.6079
G1 X196.007 Y177.781 E10.6556
G1 X195.257 Y177.512 E10.7033
G1 X194.475 Y177.360 E10.7510
G1 X193.679 Y177.330 E10.7987
G1 X192.888 Y177.421 E10.8463
G1 X192.120 Y177.632 E10.8940
G1 X191.393 Y177.958 E10.9417
G1 X190.724 Y178.391 E10.9894
G1 X190.129 Y178.921 E11.0371
G1 X189.622 Y179.536 E11.0848
G1 X189.214 Y180.223 E11.1327
G1 X188.912 Y180.985 E11.1818
G1 X188.736 Y181.735 E11.2279
G1 X188.675 Y182.529 E11.2756
G1 X188.736 Y183.324 E11.3233
G1 X188.918 Y184.100 E11.3710
G1 X189.215 Y184.838 E11.4187
G1 X189.622 Y185.523 E11.4664
G1 X190.129 Y186.138 E11.5140
G1 X190.724 Y186.668 E11.5617
G1 X191.393 Y187.101 E11.6094
G1 X192.120 Y187.427 E11.6571
G1 X192.888 Y187.638 E11.7048
G1 X193.679 Y187.729 E11.7525
G1 X194.475 Y187.699 E11.8002
G1 X195.257 Y187.547 E11.8479
G1 X196.007 Y187.278 E11.8956
G1 X196.707 Y186.897 E11.9433
G1 X197.341 Y186.414 E11.9910
G1 X197.893 Y185.840 E12.0387
G1 X198.351 Y185.189 E12.0864
G1 X198.485 Y184.919 E12.1044
G1 X198.800 Y184.993 E12.1238
G1 X198.800 Y201.600 E13.1180
G1 X190.374 Y201.600 E13.6225
G1 X190.297 Y201.290 E13.6416
G1 X190.429 Y201.221 E13.6505
G1 X190.926 Y200.780 E13.6903
G1 X191.304 Y200.232 E13.7302
G1 X191.540 Y199.610 E13.7700
G1 X191.611 Y199.023 E13.8054
G1 X191.611 Y190.878 E14.2930
G1 X191.539 Y190.279 E14.3292
G1 X191.280 Y189.633 E14.3708
G1 X190.926 Y189.121 E14.4081
G1 X190.429 Y188.680 E14.4479
G1 X189.840 Y188.371 E14.4877
G1 X189.194 Y188.212 E14.5275
G1 X188.529 Y188.212 E14.5673
G1 X187.883 Y188.371 E14.6072
G1 X187.294 Y188.680 E14.6470
G1 X186.796 Y189.121 E14.6868
G1 X186.419 Y189.668 E14.7266
G1 X186.183 Y190.290 E14.7664
G1 X186.111 Y190.878 E14.8019
G1 X186.111 Y199.023 E15.2895
G1 X186.183 Y199.610 E15.3249
G1 X186.419 Y200.232 E15.3648
G1 X186.796 Y200.780 E15.4046
G1 X187.294 Y201.221 E15.4444
G1 X187.426 Y201.290 E15.4533
G1 X187.349 Y201.600 E15.4724
G1 X170.374 Y201.600 E16.4887
G1 X170.297 Y201.290 E16.5078
G1 X170.429 Y201.221 E16.5167
G1 X170.926 Y200.780 E16.5565
G1 X171.304 Y200.232 E16.5964
G1 X171.540 Y199.610 E16.6362
G1 X171.611 Y199.023 E16.6716
