; G-Code generated by Simplify3D(R) Version 4.1.2
; Apr 18, 2021 at 1:33:43 AM
; Settings Summary
;   processName,Process1
;   applyToModels,cale_LGX_ballplate upper
;   profileName,BLV mgn Cube-  Simplify3D Profile (modified)
;   profileVersion,2021-04-02 01:52:57
;   baseProfile,Anet A8
;   printMaterial,PLA
;   printQuality,Medium
;   printExtruders,
;   extruderName,Primary Extruder
;   extruderToolheadNumber,0
;   extruderDiameter,0.4
;   extruderAutoWidth,1
;   extruderWidth,0.48
;   extrusionMultiplier,1
;   extruderUseRetract,1
;   extruderRetractionDistance,1.5
;   extruderExtraRestartDistance,0
;   extruderRetractionZLift,0
;   extruderRetractionSpeed,5100
;   extruderUseCoasting,1
;   extruderCoastingDistance,0.2
;   extruderUseWipe,1
;   extruderWipeDistance,4
;   primaryExtruder,0
;   layerHeight,0.2
;   topSolidLayers,4
;   bottomSolidLayers,4
;   perimeterOutlines,5
;   printPerimetersInsideOut,0
;   startPointOption,3
;   startPointOriginX,0
;   startPointOriginY,500
;   sequentialIslands,0
;   spiralVaseMode,0
;   firstLayerHeightPercentage,150
;   firstLayerWidthPercentage,100
;   firstLayerUnderspeed,0.4
;   useRaft,0
;   raftExtruder,0
;   raftTopLayers,3
;   raftBaseLayers,2
;   raftOffset,3
;   raftSeparationDistance,0.14
;   raftTopInfill,100
;   aboveRaftSpeedMultiplier,0.3
;   useSkirt,1
;   skirtExtruder,0
;   skirtLayers,1
;   skirtOutlines,2
;   skirtOffset,6
;   usePrimePillar,0
;   primePillarExtruder,999
;   primePillarWidth,12
;   primePillarLocation,7
;   primePillarSpeedMultiplier,1
;   useOozeShield,0
;   oozeShieldExtruder,999
;   oozeShieldOffset,2
;   oozeShieldOutlines,1
;   oozeShieldSidewallShape,1
;   oozeShieldSidewallAngle,30
;   oozeShieldSpeedMultiplier,1
;   infillExtruder,0
;   internalInfillPattern,Rectilinear
;   externalInfillPattern,Rectilinear
;   infillPercentage,15
;   outlineOverlapPercentage,15
;   infillExtrusionWidthPercentage,100
;   minInfillLength,5
;   infillLayerInterval,1
;   internalInfillAngles,45,-45
;   overlapInternalInfillAngles,0
;   externalInfillAngles,45,-45
;   generateSupport,1
;   supportExtruder,0
;   supportInfillPercentage,30
;   supportExtraInflation,0
;   supportBaseLayers,0
;   denseSupportExtruder,0
;   denseSupportLayers,0
;   denseSupportInfillPercentage,70
;   supportLayerInterval,1
;   supportHorizontalPartOffset,0.4
;   supportUpperSeparationLayers,1
;   supportLowerSeparationLayers,1
;   supportType,0
;   supportGridSpacing,1
;   maxOverhangAngle,45
;   supportAngles,45,-45
;   temperatureName,Primary Extruder,Heated Bed
;   temperatureNumber,0,0
;   temperatureSetpointCount,2,1
;   temperatureSetpointLayers,1,2,1
;   temperatureSetpointTemperatures,215,210,60
;   temperatureStabilizeAtStartup,1,1
;   temperatureHeatedBed,0,1
;   fanLayers,1,2
;   fanSpeeds,0,100
;   blipFanToFullPower,1
;   adjustSpeedForCooling,1
;   minSpeedLayerTime,15
;   minCoolingSpeedSlowdown,20
;   increaseFanForCooling,0
;   minFanLayerTime,45
;   maxCoolingFanSpeed,100
;   increaseFanForBridging,1
;   bridgingFanSpeed,100
;   use5D,1
;   relativeEdistances,0
;   allowEaxisZeroing,1
;   independentExtruderAxes,0
;   includeM10123,0
;   stickySupport,1
;   applyToolheadOffsets,0
;   gcodeXoffset,24
;   gcodeYoffset,22
;   gcodeZoffset,0
;   overrideMachineDefinition,1
;   machineTypeOverride,0
;   strokeXoverride,310
;   strokeYoverride,310
;   strokeZoverride,334
;   originOffsetXoverride,0
;   originOffsetYoverride,0
;   originOffsetZoverride,0
;   homeXdirOverride,-1
;   homeYdirOverride,-1
;   homeZdirOverride,-1
;   flipXoverride,1
;   flipYoverride,-1
;   flipZoverride,1
;   toolheadOffsets,0,0|0,0|0,0|0,0|0,0|0,0
;   overrideFirmwareConfiguration,1
;   firmwareTypeOverride,RepRap (Marlin/Repetier/Sprinter)
;   GPXconfigOverride,r2
;   baudRateOverride,115200
;   overridePrinterModels,1
;   printerModelsOverride,Blvfull.stl
;   startingGcode,M291 P"Homing all axis" R"Printing.." S1 T2,G21		; metric values,G28		; home all,M98 P"/macros/load_meshbed"	; load mesh bed corresponding to the temp,M98 P"/macros/set_baby_step"	; set baby step,M98 P"/macros/purge_and_prime"; purge and do the prime line,,G92 E0 F100		; reset extruder,G1 Z10 F3000 		; move z up little to prevent scratching of surface,G92 E0 		; reset extruder,M291 P"Printing started !" R"Printing.." S1 T3
;   layerChangeGcode,
;   retractionGcode,
;   toolChangeGcode,
;   endingGcode,M104 S0 ; turn off extruder,M140 S0 ; turn off bed,M98 P"/macros/remove_baby_step"	; unset baby step,M98 P"/macros/rise30mm",G1 X0 Y300 F1000 ; prepare for part removal,M84 ; disable motors,M106 S0 ;turn off part cooling fan,;M81 ; shutdown,; play song,M300 S294 P200 ;D4: 294,M300 S588 P200 ;D5: 588,M300 S440 P200 ;A4: 440,M300 S392 P200 ;G4: 392,M300 S784 P200 ;G5: 784,M300 S440 P200 ;A4: 440,M300 S740 P200 ;F#5: 740,M300 S440 P200 ;A4: 440,M291 P"Printing finished !" R"Printing.." S1 T0,
;   exportFileFormat,gcode
;   celebration,0
;   celebrationSong,Star Wars
;   postProcessing,
;   defaultSpeed,6000
;   outlineUnderspeed,0.66
;   solidInfillUnderspeed,0.8
;   supportUnderspeed,0.8
;   rapidXYspeed,7200
;   rapidZspeed,1002
;   minBridgingArea,50
;   bridgingExtraInflation,0
;   bridgingExtrusionMultiplier,1
;   bridgingSpeedMultiplier,1
;   useFixedBridgingAngle,0
;   fixedBridgingAngle,0
;   applyBridgingToPerimeters,1
;   filamentDiameters,1.75|1.75|1.75|1.75|1.75|1.75
;   filamentPricesPerKg,30|110|110|110|110|110
;   filamentDensities,1.25|1.25|1.25|1.25|1.25|1.25
;   useMinPrintHeight,0
;   minPrintHeight,0
;   useMaxPrintHeight,0
;   maxPrintHeight,0
;   useDiaphragm,0
;   diaphragmLayerInterval,20
;   robustSlicing,1
;   mergeAllIntoSolid,0
;   onlyRetractWhenCrossingOutline,0
;   retractBetweenLayers,1
;   useRetractionMinTravel,1
;   retractionMinTravel,3
;   retractWhileWiping,1
;   onlyWipeOutlines,1
;   avoidCrossingOutline,1
;   maxMovementDetourFactor,3
;   toolChangeRetractionDistance,12
;   toolChangeExtraRestartDistance,-0.5
;   toolChangeRetractionSpeed,600
;   externalThinWallType,1
;   internalThinWallType,1
;   thinWallAllowedOverlapPercentage,15
;   singleExtrusionMinLength,1
;   singleExtrusionMinPrintingWidthPercentage,50
;   singleExtrusionMaxPrintingWidthPercentage,200
;   singleExtrusionEndpointExtension,0.2
;   horizontalSizeCompensation,0
G90
M82
M106 S0
M140 S60
M190 S60
M104 S215 T0
M109 S215 T0
M291 P"Homing all axis" R"Printing.." S1 T2
G21		; metric values
G28		; home all
M98 P"/macros/load_meshbed"	; load mesh bed corresponding to the temp
M98 P"/macros/set_baby_step"	; set baby step
M98 P"/macros/purge_and_prime"; purge and do the prime line
G92 E0 F100		; reset extruder
G1 Z10 F3000 		; move z up little to prevent scratching of surface
G92 E0 		; reset extruder
M291 P"Printing started !" R"Printing.." S1 T3
; process Process1
; layer 1, Z = 0.300
T0
G92 E0.0000
G1 E-1.5000 F5100
; feature skirt
; tool H0.300 W0.480
G1 Z0.300 F1002
G1 X160.633 Y204.365 F7200
G1 E0.0000 F5100
G92 E0.0000
G1 X157.059 Y201.702 E0.2668 F2400
G1 X150.921 Y181.129 E1.5522
G1 X150.780 Y180.163 E1.6106
G1 X150.780 Y167.390 E2.3753
G1 X153.565 Y163.768 E2.6488
G1 X156.351 Y163.027 E2.8214
G1 X158.172 Y152.774 E3.4449
G1 X161.918 Y149.635 E3.7375
G1 X168.364 Y149.635 E4.1234
G1 X171.715 Y151.827 E4.3631
G1 X174.256 Y157.635 E4.7427
G1 X183.466 Y157.635 E5.2940
G1 X186.007 Y151.827 E5.6736
G1 X189.359 Y149.635 E5.9133
G1 X195.805 Y149.635 E6.2992
G1 X199.551 Y152.774 E6.5918
G1 X201.372 Y163.027 E7.2153
G1 X204.435 Y163.841 E7.4050
G1 X207.220 Y167.464 E7.6786
G1 X207.220 Y180.263 E8.4448
G1 X207.064 Y181.278 E8.5063
G1 X200.610 Y201.763 E9.7922
G1 X197.061 Y204.365 E10.0556
G1 X160.633 Y204.365 E12.2365
G1 X160.792 Y203.885 F7200
G92 E0.0000
G1 X157.474 Y201.412 E0.2478 F2400
G1 X151.391 Y181.025 E1.5215
G1 X151.260 Y180.128 E1.5757
G1 X151.260 Y167.554 E2.3286
G1 X153.846 Y164.190 E2.5826
G1 X156.770 Y163.412 E2.7637
G1 X158.614 Y153.030 E3.3951
G1 X162.092 Y150.115 E3.6667
G1 X168.221 Y150.115 E4.0336
G1 X171.333 Y152.150 E4.2563
G1 X173.942 Y158.115 E4.6460
G1 X183.780 Y158.115 E5.2350
G1 X186.390 Y152.150 E5.6248
G1 X189.502 Y150.115 E5.8474
G1 X195.630 Y150.115 E6.2143
G1 X199.109 Y153.030 E6.4860
G1 X200.952 Y163.412 E7.1173
G1 X204.154 Y164.263 E7.3156
G1 X206.740 Y167.627 E7.5696
G1 X206.740 Y180.226 E8.3239
G1 X206.595 Y181.169 E8.3810
G1 X200.199 Y201.469 E9.6552
G1 X196.904 Y203.885 E9.8998
G1 X160.792 Y203.885 E12.0618
G92 E0.0000
G1 E-1.5000 F5100
; feature outer perimeter
G1 X163.040 Y197.405 F7200
G1 E0.0000 F5100
G92 E0.0000
G1 X157.740 Y179.640 E1.1099 F1584
G1 X157.740 Y169.860 E1.6954
G1 X162.428 Y168.613 E1.9858
G1 X164.563 Y156.595 E2.7166
G1 X166.204 Y156.595 E2.8149
G1 X169.704 Y164.595 E3.3377
G1 X188.018 Y164.595 E4.4341
G1 X191.518 Y156.595 E4.9569
G1 X193.160 Y156.595 E5.0552
G1 X195.295 Y168.613 E5.7860
G1 X200.260 Y169.933 E6.0936
G1 X200.260 Y179.712 E6.6790
G1 X194.685 Y197.405 E7.7896
G1 X163.240 Y197.405 E9.6722
G1 X163.040 Y197.405 F1584
G92 E0.0000
G1 X162.907 Y196.959 E-1.5000 F1584
G1 X161.897 Y193.572 F1584
; feature inner perimeter
G1 X163.398 Y196.925 F7200
G1 E0.0000 F5100
G92 E0.0000
G1 X158.220 Y179.570 E1.0843 F1992
G1 X158.220 Y170.229 E1.6435
G1 X162.847 Y168.999 E1.9302
G1 X164.965 Y157.075 E2.6552
G1 X165.891 Y157.075 E2.7106
G1 X169.391 Y165.075 E3.2334
G1 X188.332 Y165.075 E4.3674
G1 X191.832 Y157.075 E4.8902
G1 X192.758 Y157.075 E4.9456
G1 X194.876 Y168.999 E5.6706
G1 X199.780 Y170.302 E5.9744
G1 X199.780 Y179.638 E6.5333
G1 X194.333 Y196.925 E7.6184
G1 X163.598 Y196.925 E9.4585
G1 X163.398 Y196.925 F1992
G1 X163.756 Y196.445 F7200
G92 E0.0000
G1 X159.352 Y181.685 E0.9222 F1992
G1 X159.679 Y181.539 E0.9436
G1 X160.099 Y182.224 E0.9918
G1 X160.528 Y182.726 E1.0313
G1 X161.029 Y183.154 E1.0708
G1 X161.592 Y183.499 E1.1102
G1 X162.201 Y183.752 E1.1497
G1 X162.842 Y183.906 E1.1892
G1 X163.500 Y183.957 E1.2287
G1 X164.158 Y183.906 E1.2682
G1 X164.799 Y183.752 E1.3077
G1 X165.408 Y183.499 E1.3472
G1 X165.971 Y183.154 E1.3867
G1 X166.472 Y182.726 E1.4262
G1 X166.901 Y182.225 E1.4657
G1 X167.246 Y181.662 E1.5052
G1 X167.498 Y181.053 E1.5447
G1 X167.652 Y180.411 E1.5841
G1 X167.704 Y179.754 E1.6236
G1 X167.652 Y179.096 E1.6631
G1 X167.498 Y178.455 E1.7026
G1 X167.246 Y177.845 E1.7421
G1 X166.901 Y177.283 E1.7816
G1 X166.472 Y176.781 E1.8211
G1 X165.971 Y176.353 E1.8606
G1 X165.408 Y176.008 E1.9001
G1 X164.799 Y175.756 E1.9396
G1 X164.152 Y175.600 E1.9794
G1 X163.467 Y175.553 E2.0205
G1 X162.842 Y175.602 E2.0580
G1 X162.201 Y175.756 E2.0975
G1 X161.592 Y176.008 E2.1370
G1 X161.029 Y176.353 E2.1765
G1 X160.528 Y176.781 E2.2160
G1 X160.099 Y177.283 E2.2555
G1 X159.754 Y177.845 E2.2950
G1 X159.502 Y178.455 E2.3345
G1 X159.348 Y179.096 E2.3740
G1 X159.296 Y179.754 E2.4134
G1 X159.346 Y180.390 E2.4517
G1 X158.986 Y180.457 E2.4736
G1 X158.700 Y179.500 E2.5334
G1 X158.700 Y170.598 E3.0664
G1 X163.266 Y169.384 E3.3493
G1 X165.336 Y157.728 E4.0580
G1 X165.637 Y157.693 E4.0761
G1 X169.077 Y165.555 E4.5899
G1 X177.706 Y165.555 E5.1065
G1 X177.791 Y165.850 E5.1249
G1 X177.173 Y166.238 E5.1685
G1 X176.745 Y166.667 E5.2048
G1 X176.422 Y167.180 E5.2411
G1 X176.222 Y167.752 E5.2774
G1 X176.154 Y168.355 E5.3137
G1 X176.222 Y168.957 E5.3500
G1 X176.422 Y169.530 E5.3863
G1 X176.745 Y170.043 E5.4226
G1 X177.173 Y170.472 E5.4589
G1 X177.687 Y170.794 E5.4952
G1 X178.259 Y170.995 E5.5315
G1 X178.861 Y171.062 E5.5678
G1 X179.464 Y170.995 E5.6041
G1 X180.036 Y170.794 E5.6404
G1 X180.550 Y170.472 E5.6767
G1 X180.978 Y170.043 E5.7130
G1 X181.301 Y169.530 E5.7493
G1 X181.501 Y168.957 E5.7856
G1 X181.569 Y168.355 E5.8219
G1 X181.501 Y167.752 E5.8582
G1 X181.301 Y167.180 E5.8945
G1 X180.978 Y166.667 E5.9308
G1 X180.541 Y166.229 E5.9678
G1 X179.916 Y165.854 E6.0115
G1 X179.999 Y165.555 E6.0301
G1 X188.646 Y165.555 E6.5478
G1 X192.086 Y157.693 E7.0616
G1 X192.387 Y157.728 E7.0797
G1 X194.456 Y169.384 E7.7884
G1 X199.300 Y170.671 E8.0884
G1 X199.300 Y179.564 E8.6208
G1 X199.009 Y180.488 E8.6788
G1 X198.651 Y180.419 E8.7006
G1 X198.704 Y179.754 E8.7406
G1 X198.652 Y179.096 E8.7801
G1 X198.498 Y178.455 E8.8196
G1 X198.246 Y177.845 E8.8591
G1 X197.901 Y177.283 E8.8986
G1 X197.472 Y176.781 E8.9380
G1 X196.967 Y176.349 E8.9779
G1 X196.377 Y175.995 E9.0190
G1 X195.799 Y175.756 E9.0565
G1 X195.158 Y175.602 E9.0960
G1 X194.500 Y175.550 E9.1355
G1 X193.842 Y175.602 E9.1750
G1 X193.201 Y175.756 E9.2145
G1 X192.592 Y176.008 E9.2540
G1 X192.029 Y176.353 E9.2935
G1 X191.528 Y176.781 E9.3329
G1 X191.099 Y177.283 E9.3724
G1 X190.754 Y177.845 E9.4119
G1 X190.502 Y178.455 E9.4514
G1 X190.348 Y179.096 E9.4909
G1 X190.296 Y179.754 E9.5304
G1 X190.348 Y180.411 E9.5699
G1 X190.502 Y181.053 E9.6094
G1 X190.754 Y181.662 E9.6489
G1 X191.099 Y182.224 E9.6884
G1 X191.528 Y182.726 E9.7279
G1 X192.029 Y183.154 E9.7673
G1 X192.592 Y183.499 E9.8068
G1 X193.201 Y183.752 E9.8463
G1 X193.842 Y183.906 E9.8858
G1 X194.500 Y183.957 E9.9253
G1 X195.158 Y183.906 E9.9648
G1 X195.799 Y183.752 E10.0043
G1 X196.408 Y183.499 E10.0438
G1 X196.971 Y183.154 E10.0833
G1 X197.472 Y182.726 E10.1228
G1 X197.901 Y182.225 E10.1623
G1 X198.282 Y181.602 E10.2060
G1 X198.611 Y181.752 E10.2276
G1 X193.981 Y196.445 E11.1499
G1 X163.956 Y196.445 E12.9475
G1 X163.756 Y196.445 F1992
G1 X164.113 Y195.965 F7200
G92 E0.0000
G1 X160.332 Y183.290 E0.7919 F1992
G1 X161.373 Y183.928 E0.8650
G1 X162.052 Y184.209 E0.9090
G1 X162.767 Y184.381 E0.9530
G1 X163.500 Y184.439 E0.9970
G1 X164.233 Y184.381 E1.0411
G1 X164.948 Y184.209 E1.0851
G1 X165.627 Y183.928 E1.1291
G1 X166.254 Y183.544 E1.1731
G1 X166.813 Y183.067 E1.2171
G1 X167.290 Y182.508 E1.2611
G1 X167.675 Y181.881 E1.3052
G1 X167.956 Y181.201 E1.3492
G1 X168.128 Y180.487 E1.3932
G1 X168.185 Y179.754 E1.4372
G1 X168.128 Y179.021 E1.4812
G1 X167.956 Y178.306 E1.5252
G1 X167.675 Y177.627 E1.5692
G1 X167.290 Y177.000 E1.6133
G1 X166.813 Y176.441 E1.6573
G1 X166.254 Y175.963 E1.7013
G1 X165.627 Y175.579 E1.7453
G1 X164.948 Y175.298 E1.7893
G1 X164.226 Y175.124 E1.8338
G1 X163.464 Y175.071 E1.8795
G1 X162.767 Y175.126 E1.9213
G1 X162.052 Y175.298 E1.9654
G1 X161.373 Y175.579 E2.0094
G1 X160.746 Y175.963 E2.0534
G1 X160.187 Y176.441 E2.0974
G1 X159.710 Y177.000 E2.1414
G1 X159.477 Y177.379 E2.1680
G1 X159.180 Y177.295 E2.1865
G1 X159.180 Y170.967 E2.5654
G1 X163.685 Y169.769 E2.8445
G1 X165.532 Y159.373 E3.4766
G1 X165.832 Y159.337 E3.4948
G1 X168.763 Y166.035 E3.9324
G1 X176.575 Y166.035 E4.4001
G1 X175.987 Y166.970 E4.4663
G1 X175.751 Y167.645 E4.5091
G1 X175.671 Y168.355 E4.5518
G1 X175.751 Y169.065 E4.5946
G1 X175.987 Y169.739 E4.6374
G1 X176.367 Y170.344 E4.6802
G1 X176.872 Y170.849 E4.7229
G1 X177.477 Y171.230 E4.7657
G1 X178.151 Y171.465 E4.8085
G1 X178.861 Y171.545 E4.8513
G1 X179.571 Y171.465 E4.8940
G1 X180.246 Y171.230 E4.9368
G1 X180.851 Y170.849 E4.9796
G1 X181.356 Y170.344 E5.0224
G1 X181.736 Y169.739 E5.0651
G1 X181.972 Y169.065 E5.1079
G1 X182.052 Y168.355 E5.1507
G1 X181.972 Y167.645 E5.1935
G1 X181.736 Y166.970 E5.2362
G1 X181.148 Y166.035 E5.3024
G1 X188.960 Y166.035 E5.7701
G1 X191.890 Y159.337 E6.2078
G1 X192.191 Y159.373 E6.2259
G1 X194.037 Y169.769 E6.8580
G1 X198.820 Y171.041 E7.1543
G1 X198.820 Y177.295 E7.5287
G1 X198.523 Y177.379 E7.5472
G1 X198.290 Y177.000 E7.5739
G1 X197.813 Y176.441 E7.6179
G1 X197.248 Y175.958 E7.6623
G1 X196.594 Y175.565 E7.7080
G1 X195.948 Y175.298 E7.7499
G1 X195.233 Y175.126 E7.7939
G1 X194.500 Y175.068 E7.8379
G1 X193.767 Y175.126 E7.8819
G1 X193.052 Y175.298 E7.9260
G1 X192.373 Y175.579 E7.9700
