; G-Code generated by Simplify3D(R) Version 4.1.2
; Apr 23, 2021 at 12:28:17 AM
; Settings Summary
;   processName,Process1
;   applyToModels,central bltouch holder,support dragchain x carriage
;   profileName,BLV mgn Cube-  Simplify3D Profile (modified)
;   profileVersion,2021-04-21 18:40:17
;   baseProfile,Anet A8
;   printMaterial,PLA
;   printQuality,Medium
;   printExtruders,
;   extruderName,Primary Extruder
;   extruderToolheadNumber,0
;   extruderDiameter,0.4
;   extruderAutoWidth,1
;   extruderWidth,0.48
;   extrusionMultiplier,1
;   extruderUseRetract,1
;   extruderRetractionDistance,1.5
;   extruderExtraRestartDistance,0
;   extruderRetractionZLift,0
;   extruderRetractionSpeed,5100
;   extruderUseCoasting,1
;   extruderCoastingDistance,0.2
;   extruderUseWipe,1
;   extruderWipeDistance,4
;   primaryExtruder,0
;   layerHeight,0.2
;   topSolidLayers,6
;   bottomSolidLayers,6
;   perimeterOutlines,6
;   printPerimetersInsideOut,0
;   startPointOption,3
;   startPointOriginX,0
;   startPointOriginY,500
;   sequentialIslands,0
;   spiralVaseMode,0
;   firstLayerHeightPercentage,150
;   firstLayerWidthPercentage,100
;   firstLayerUnderspeed,0.4
;   useRaft,0
;   raftExtruder,0
;   raftTopLayers,2
;   raftBaseLayers,0
;   raftOffset,3
;   raftSeparationDistance,0.14
;   raftTopInfill,100
;   aboveRaftSpeedMultiplier,0.3
;   useSkirt,1
;   skirtExtruder,0
;   skirtLayers,1
;   skirtOutlines,2
;   skirtOffset,6
;   usePrimePillar,0
;   primePillarExtruder,999
;   primePillarWidth,12
;   primePillarLocation,7
;   primePillarSpeedMultiplier,1
;   useOozeShield,0
;   oozeShieldExtruder,999
;   oozeShieldOffset,2
;   oozeShieldOutlines,1
;   oozeShieldSidewallShape,1
;   oozeShieldSidewallAngle,30
;   oozeShieldSpeedMultiplier,1
;   infillExtruder,0
;   internalInfillPattern,Rectilinear
;   externalInfillPattern,Rectilinear
;   infillPercentage,15
;   outlineOverlapPercentage,15
;   infillExtrusionWidthPercentage,100
;   minInfillLength,5
;   infillLayerInterval,1
;   internalInfillAngles,45,-45
;   overlapInternalInfillAngles,0
;   externalInfillAngles,45,-45
;   generateSupport,1
;   supportExtruder,0
;   supportInfillPercentage,30
;   supportExtraInflation,0
;   supportBaseLayers,1
;   denseSupportExtruder,0
;   denseSupportLayers,3
;   denseSupportInfillPercentage,70
;   supportLayerInterval,1
;   supportHorizontalPartOffset,0.4
;   supportUpperSeparationLayers,1
;   supportLowerSeparationLayers,1
;   supportType,0
;   supportGridSpacing,1
;   maxOverhangAngle,45
;   supportAngles,0
;   temperatureName,Primary Extruder,Heated Bed
;   temperatureNumber,0,0
;   temperatureSetpointCount,2,1
;   temperatureSetpointLayers,1,2,1
;   temperatureSetpointTemperatures,215,210,60
;   temperatureStabilizeAtStartup,1,1
;   temperatureHeatedBed,0,1
;   fanLayers,1,2
;   fanSpeeds,0,100
;   blipFanToFullPower,1
;   adjustSpeedForCooling,1
;   minSpeedLayerTime,15
;   minCoolingSpeedSlowdown,20
;   increaseFanForCooling,0
;   minFanLayerTime,45
;   maxCoolingFanSpeed,100
;   increaseFanForBridging,1
;   bridgingFanSpeed,100
;   use5D,1
;   relativeEdistances,0
;   allowEaxisZeroing,1
;   independentExtruderAxes,0
;   includeM10123,0
;   stickySupport,1
;   applyToolheadOffsets,0
;   gcodeXoffset,24
;   gcodeYoffset,22
;   gcodeZoffset,0
;   overrideMachineDefinition,1
;   machineTypeOverride,0
;   strokeXoverride,310
;   strokeYoverride,310
;   strokeZoverride,334
;   originOffsetXoverride,0
;   originOffsetYoverride,0
;   originOffsetZoverride,0
;   homeXdirOverride,-1
;   homeYdirOverride,-1
;   homeZdirOverride,-1
;   flipXoverride,1
;   flipYoverride,-1
;   flipZoverride,1
;   toolheadOffsets,0,0|0,0|0,0|0,0|0,0|0,0
;   overrideFirmwareConfiguration,1
;   firmwareTypeOverride,RepRap (Marlin/Repetier/Sprinter)
;   GPXconfigOverride,r2
;   baudRateOverride,115200
;   overridePrinterModels,1
;   printerModelsOverride,Blvfull.stl
;   startingGcode,M291 P"Homing all axis" R"Printing.." S1 T2,G21		; metric values,G28		; home all,M98 P"/macros/load_meshbed"	; load mesh bed corresponding to the temp,M98 P"/macros/set_baby_step"	; set baby step,M98 P"/macros/purge_and_prime"; purge and do the prime line,,G92 E0 F100		; reset extruder,G1 Z10 F3000 		; move z up little to prevent scratching of surface,G92 E0 		; reset extruder,M291 P"Printing started !" R"Printing.." S1 T3
;   layerChangeGcode,
;   retractionGcode,
;   toolChangeGcode,
;   endingGcode,M104 S0 ; turn off extruder,M140 S0 ; turn off bed,M98 P"/macros/remove_baby_step"	; unset baby step,M98 P"/macros/rise30mm",G1 X0 Y300 F1000 ; prepare for part removal,M84 ; disable motors,M106 S0 ;turn off part cooling fan,;M81 ; shutdown,; play song,M300 S294 P200 ;D4: 294,M300 S588 P200 ;D5: 588,M300 S440 P200 ;A4: 440,M300 S392 P200 ;G4: 392,M300 S784 P200 ;G5: 784,M300 S440 P200 ;A4: 440,M300 S740 P200 ;F#5: 740,M300 S440 P200 ;A4: 440,M291 P"Printing finished !" R"Printing.." S1 T0,
;   exportFileFormat,gcode
;   celebration,0
;   celebrationSong,Star Wars
;   postProcessing,
;   defaultSpeed,6000
;   outlineUnderspeed,0.66
;   solidInfillUnderspeed,0.8
;   supportUnderspeed,0.8
;   rapidXYspeed,7200
;   rapidZspeed,1002
;   minBridgingArea,50
;   bridgingExtraInflation,0
;   bridgingExtrusionMultiplier,1
;   bridgingSpeedMultiplier,1
;   useFixedBridgingAngle,0
;   fixedBridgingAngle,0
;   applyBridgingToPerimeters,1
;   filamentDiameters,1.75|1.75|1.75|1.75|1.75|1.75
;   filamentPricesPerKg,30|110|110|110|110|110
;   filamentDensities,1.25|1.25|1.25|1.25|1.25|1.25
;   useMinPrintHeight,0
;   minPrintHeight,0
;   useMaxPrintHeight,0
;   maxPrintHeight,0
;   useDiaphragm,0
;   diaphragmLayerInterval,20
;   robustSlicing,1
;   mergeAllIntoSolid,0
;   onlyRetractWhenCrossingOutline,0
;   retractBetweenLayers,1
;   useRetractionMinTravel,1
;   retractionMinTravel,3
;   retractWhileWiping,1
;   onlyWipeOutlines,1
;   avoidCrossingOutline,1
;   maxMovementDetourFactor,3
;   toolChangeRetractionDistance,12
;   toolChangeExtraRestartDistance,-0.5
;   toolChangeRetractionSpeed,600
;   externalThinWallType,1
;   internalThinWallType,1
;   thinWallAllowedOverlapPercentage,15
;   singleExtrusionMinLength,1
;   singleExtrusionMinPrintingWidthPercentage,50
;   singleExtrusionMaxPrintingWidthPercentage,200
;   singleExtrusionEndpointExtension,0.2
;   horizontalSizeCompensation,0
G90
M82
M106 S0
M140 S60
M190 S60
M104 S215 T0
M109 S215 T0
M291 P"Homing all axis" R"Printing.." S1 T2
G21		; metric values
G28		; home all
M98 P"/macros/load_meshbed"	; load mesh bed corresponding to the temp
M98 P"/macros/set_baby_step"	; set baby step
M98 P"/macros/purge_and_prime"; purge and do the prime line
G92 E0 F100		; reset extruder
G1 Z10 F3000 		; move z up little to prevent scratching of surface
G92 E0 		; reset extruder
M291 P"Printing started !" R"Printing.." S1 T3
; process Process1
; layer 1, Z = 0.300
T0
G92 E0.0000
G1 E-1.5000 F5100
; feature skirt
; tool H0.300 W0.480
G1 Z0.300 F1002
G1 X156.672 Y219.988 F7200
G1 E0.0000 F5100
G92 E0.0000
G1 X153.571 Y216.255 E0.2906 F2400
G1 X153.571 Y214.254 E0.4103
G1 X151.071 Y211.754 E0.6220
G1 X151.071 Y201.330 E1.2461
G1 X155.007 Y197.393 E1.5794
G1 X176.300 Y197.393 E2.8541
G1 X177.182 Y197.511 E2.9074
G1 X185.327 Y199.716 E3.4125
G1 X185.929 Y199.943 E3.4511
G1 X187.206 Y200.569 E3.5362
G1 X187.761 Y200.911 E3.5753
G1 X188.622 Y201.566 E3.6400
G1 X188.060 Y201.004 E3.6876
G1 X188.060 Y181.257 E4.8698
G1 X155.007 Y181.257 E6.8486
G1 X151.071 Y177.320 E7.1819
G1 X151.071 Y167.003 E7.7996
G1 X155.007 Y163.066 E8.1329
G1 X188.060 Y163.066 E10.1117
G1 X188.060 Y145.996 E11.1336
G1 X191.997 Y142.060 E11.4669
G1 X201.004 Y142.060 E12.0062
G1 X204.940 Y145.996 E12.3394
G1 X204.940 Y165.014 E13.4780
G1 X206.929 Y167.003 E13.6464
G1 X206.929 Y172.985 E14.0045
G1 X206.940 Y172.996 E14.0055
G1 X206.940 Y201.004 E15.6822
G1 X203.004 Y204.940 E16.0155
G1 X191.997 Y204.940 E16.6745
G1 X190.196 Y203.139 E16.8269
G1 X190.324 Y203.283 E16.8385
G1 X190.708 Y203.810 E16.8775
G1 X191.391 Y204.968 E16.9580
G1 X191.609 Y205.406 E16.9873
G1 X191.940 Y206.217 E17.0398
G1 X192.092 Y206.682 E17.0690
G1 X192.395 Y207.908 E17.1447
G1 X192.477 Y208.390 E17.1739
G1 X192.562 Y209.262 E17.2264
G1 X192.574 Y209.751 E17.2557
G1 X192.509 Y211.094 E17.3362
G1 X192.414 Y211.740 E17.3752
G1 X192.092 Y213.045 E17.4557
G1 X191.940 Y213.510 E17.4850
G1 X191.609 Y214.321 E17.5375
G1 X191.391 Y214.759 E17.5667
G1 X190.749 Y215.847 E17.6424
G1 X190.471 Y216.249 E17.6716
G1 X189.921 Y216.931 E17.7241
G1 X189.587 Y217.288 E17.7534
G1 X188.660 Y218.146 E17.8290
G1 X188.278 Y218.451 E17.8583
G1 X187.555 Y218.947 E17.9107
G1 X187.133 Y219.194 E17.9400
G1 X185.929 Y219.784 E18.0203
G1 X185.327 Y220.011 E18.0588
G1 X177.182 Y222.216 E18.5640
G1 X176.300 Y222.333 E18.6173
G1 X169.544 Y222.333 E19.0217
G1 X168.926 Y222.276 E19.0588
G1 X156.672 Y219.988 E19.8052
G92 E0.0000
G1 E-1.5000 F5100
G1 X160.531 Y213.629 F7200
G1 X168.022 Y215.027
G1 X180.020 Y209.782
G1 X180.036 Y209.583
G1 X180.095 Y209.327
G1 X180.205 Y209.048
G1 X180.349 Y208.805
G1 X180.529 Y208.587
G1 X180.739 Y208.400
G1 X180.975 Y208.246
G1 X181.233 Y208.131
G1 X181.504 Y208.056
G1 X181.784 Y208.024
G1 X182.066 Y208.035
G1 X182.343 Y208.089
G1 X182.608 Y208.184
G1 X182.855 Y208.318
G1 X183.042 Y208.461
G1 X184.895 Y207.651
G1 X185.093 Y207.952
G1 X185.262 Y208.275
G1 X192.195 Y204.460
G1 E0.0000 F5100
G92 E0.0000
G1 X188.540 Y200.805 E0.3095 F2400
G1 X188.540 Y180.777 E1.5085
G1 X155.206 Y180.777 E3.5042
G1 X151.551 Y177.121 E3.8136
G1 X151.551 Y167.202 E4.4075
G1 X155.206 Y163.546 E4.7170
G1 X188.540 Y163.546 E6.7126
G1 X188.540 Y146.195 E7.7514
G1 X192.195 Y142.540 E8.0609
G1 X200.805 Y142.540 E8.5763
G1 X204.460 Y146.195 E8.8858
G1 X204.460 Y165.213 E10.0243
G1 X206.449 Y167.202 E10.1927
G1 X206.449 Y173.184 E10.5509
G1 X206.460 Y173.195 E10.5518
G1 X206.460 Y200.805 E12.2048
G1 X202.805 Y204.460 E12.5142
G1 X192.195 Y204.460 E13.1494
G92 E0.0000
G1 E-1.5000 F5100
G1 X185.262 Y208.275 F7200
G1 X185.093 Y207.952
G1 X184.892 Y207.648
G1 X184.854 Y207.601
G1 X182.971 Y208.407
G1 X182.855 Y208.318
G1 X182.608 Y208.184
G1 X182.343 Y208.089
G1 X182.066 Y208.035
G1 X181.784 Y208.024
G1 X181.504 Y208.056
G1 X181.233 Y208.131
G1 X180.975 Y208.246
G1 X180.739 Y208.400
G1 X180.529 Y208.587
G1 X180.349 Y208.805
G1 X180.205 Y209.048
G1 X180.095 Y209.327
G1 X180.036 Y209.583
G1 X180.029 Y209.665
G1 X167.657 Y214.959
G1 X160.531 Y213.629
G1 X156.931 Y219.548
G1 E0.0000 F5100
G92 E0.0000
G1 X154.051 Y216.081 E0.2698 F2400
G1 X154.051 Y214.055 E0.3911
G1 X151.551 Y211.555 E0.6028
G1 X151.551 Y201.529 E1.2030
G1 X155.206 Y197.873 E1.5125
G1 X176.268 Y197.873 E2.7734
G1 X177.087 Y197.982 E2.8229
G1 X185.179 Y200.173 E3.3248
G1 X185.738 Y200.384 E3.3606
G1 X186.974 Y200.990 E3.4430
G1 X187.489 Y201.308 E3.4792
G1 X188.588 Y202.142 E3.5618
G1 X189.032 Y202.554 E3.5981
G1 X189.950 Y203.585 E3.6807
G1 X190.306 Y204.074 E3.7169
G1 X190.969 Y205.197 E3.7950
G1 X191.171 Y205.603 E3.8222
G1 X191.489 Y206.382 E3.8726
G1 X191.630 Y206.814 E3.8998
G1 X191.925 Y208.006 E3.9733
G1 X192.001 Y208.454 E4.0005
G1 X192.083 Y209.292 E4.0509
G1 X192.094 Y209.745 E4.0780
G1 X192.031 Y211.048 E4.1561
G1 X191.943 Y211.647 E4.1923
G1 X191.630 Y212.913 E4.2704
G1 X191.489 Y213.344 E4.2976
G1 X191.171 Y214.124 E4.3480
G1 X190.969 Y214.530 E4.3752
G1 X190.345 Y215.588 E4.4487
G1 X190.086 Y215.961 E4.4759
G1 X189.558 Y216.616 E4.5263
G1 X189.248 Y216.948 E4.5534
G1 X188.347 Y217.782 E4.6270
G1 X187.992 Y218.066 E4.6541
G1 X187.298 Y218.542 E4.7045
G1 X186.906 Y218.771 E4.7317
G1 X185.738 Y219.343 E4.8096
G1 X185.179 Y219.554 E4.8453
G1 X177.087 Y221.745 E5.3472
G1 X176.268 Y221.853 E5.3967
G1 X169.567 Y221.853 E5.7979
G1 X168.993 Y221.800 E5.8324
G1 X156.931 Y219.548 E6.5670
G92 E0.0000
G1 E-1.5000 F5100
; feature outer perimeter
G1 X158.031 Y174.297 F7200
G1 E0.0000 F5100
G92 E0.0000
G1 X158.031 Y170.026 E0.2556 F1584
G1 X199.969 Y170.026 E2.7664
G1 X199.969 Y174.604 E3.0404
G1 X195.449 Y174.604 E3.3110
G1 X195.449 Y174.297 E3.3294
G1 X158.231 Y174.297 E5.5576
G1 X158.031 Y174.297 F1584
G1 X158.031 Y170.297 F1584
; feature inner perimeter
G1 X158.511 Y170.506 F7200
G92 E0.0000
G1 X199.489 Y170.506 E2.4533 F1992
G1 X199.489 Y174.124 E2.6698
G1 X195.929 Y174.124 E2.8830
G1 X195.929 Y173.817 E2.9014
G1 X158.511 Y173.817 E5.1415
G1 X158.511 Y170.706 E5.3277
G1 X158.511 Y170.506 F1992
G1 X158.991 Y170.986 F7200
G92 E0.0000
G1 X199.009 Y170.986 E2.3958 F1992
G1 X199.009 Y173.644 E2.5549
G1 X196.409 Y173.644 E2.7105
G1 X196.409 Y173.337 E2.7289
G1 X158.991 Y173.337 E4.9691
G1 X158.991 Y171.186 E5.0978
G1 X158.991 Y170.986 F1992
G1 X159.471 Y171.466 F7200
G92 E0.0000
G1 X198.529 Y171.466 E2.3383 F1992
G1 X198.529 Y173.164 E2.4399
G1 X196.889 Y173.164 E2.5381
G1 X196.889 Y172.857 E2.5565
G1 X159.471 Y172.857 E4.7967
G1 X159.471 Y171.666 E4.8679
G1 X159.471 Y171.466 F1992
G1 X159.951 Y171.946 F7200
G92 E0.0000
G1 X198.049 Y171.946 E2.2809 F1992
G1 X198.049 Y172.684 E2.3250
G1 X197.369 Y172.684 E2.3657
G1 X197.369 Y172.377 E2.3841
G1 X159.951 Y172.377 E4.6242
G1 X159.951 Y172.146 E4.6380
G1 X159.951 Y171.946 F1992
G92 E0.0000
G1 E-1.5000 F5100
; feature outer perimeter
G1 X160.463 Y208.731 F7200
G1 X160.531 Y208.731
G1 X160.531 Y213.629
G1 E0.0000 F5100
G92 E0.0000
G1 X160.531 Y208.731 E0.2932 F1584
G1 X158.031 Y208.731 E0.4429
G1 X158.031 Y204.353 E0.7049
G1 X175.823 Y204.353 E1.7701
G1 X182.823 Y206.230 E2.2040
G1 X183.175 Y206.343 E2.2262
G1 X183.510 Y206.488 E2.2480
G1 X183.829 Y206.664 E2.2698
G1 X184.129 Y206.870 E2.2916
G1 X184.409 Y207.104 E2.3134
G1 X184.664 Y207.364 E2.3352
G1 X184.892 Y207.648 E2.3570
G1 X185.093 Y207.952 E2.3789
G1 X185.262 Y208.275 E2.4007
G1 X185.400 Y208.612 E2.4225
G1 X185.505 Y208.961 E2.4443
G1 X185.575 Y209.319 E2.4661
G1 X185.610 Y209.681 E2.4879
G1 X185.610 Y210.046 E2.5097
G1 X185.575 Y210.408 E2.5316
G1 X185.505 Y210.766 E2.5534
G1 X185.400 Y211.115 E2.5752
G1 X185.262 Y211.452 E2.5970
G1 X185.093 Y211.775 E2.6188
G1 X184.892 Y212.079 E2.6406
G1 X184.664 Y212.363 E2.6624
G1 X184.409 Y212.623 E2.6843
G1 X184.129 Y212.857 E2.7061
G1 X183.829 Y213.063 E2.7279
G1 X183.510 Y213.239 E2.7497
G1 X183.175 Y213.384 E2.7715
G1 X182.823 Y213.497 E2.7937
G1 X175.823 Y215.373 E3.2275
G1 X169.877 Y215.373 E3.5835
G1 X160.728 Y213.665 E4.1407
G1 X160.531 Y213.629 F1584
G1 X160.531 Y209.629 F1584
; feature inner perimeter
G1 X161.011 Y208.251 F7200
G92 E0.0000
G1 X158.511 Y208.251 E0.1497 F1992
G1 X158.511 Y204.833 E0.3543
G1 X175.760 Y204.833 E1.3869
G1 X182.687 Y206.691 E1.8163
G1 X183.007 Y206.793 E1.8364
G1 X183.298 Y206.919 E1.8554
G1 X183.577 Y207.073 E1.8744
G1 X183.839 Y207.253 E1.8934
G1 X184.082 Y207.457 E1.9125
G1 X184.305 Y207.684 E1.9315
G1 X184.504 Y207.931 E1.9505
G1 X184.679 Y208.197 E1.9695
G1 X184.827 Y208.478 E1.9886
G1 X184.947 Y208.772 E2.0076
G1 X185.038 Y209.076 E2.0266
G1 X185.099 Y209.388 E2.0456
G1 X185.130 Y209.705 E2.0647
G1 X185.130 Y210.022 E2.0837
G1 X185.099 Y210.339 E2.1027
G1 X185.038 Y210.651 E2.1218
G1 X184.947 Y210.955 E2.1408
G1 X184.827 Y211.249 E2.1598
G1 X184.679 Y211.530 E2.1788
G1 X184.504 Y211.796 E2.1979
G1 X184.305 Y212.043 E2.2169
G1 X184.082 Y212.270 E2.2359
G1 X183.839 Y212.474 E2.2549
G1 X183.577 Y212.654 E2.2740
G1 X183.298 Y212.808 E2.2930
G1 X183.007 Y212.934 E2.3120
G1 X182.687 Y213.036 E2.3321
G1 X175.760 Y214.893 E2.7615
G1 X169.921 Y214.893 E3.1110
G1 X161.011 Y213.230 E3.6537
G1 X161.011 Y208.451 E3.9398
G1 X161.011 Y208.251 F1992
G1 X161.491 Y208.226 F7200
G92 E0.0000
