; G-Code generated by Simplify3D(R) Version 4.1.2
; Apr 15, 2021 at 11:20:29 PM
; Settings Summary
;   processName,Process1
;   applyToModels,pinplate v2
;   profileName,BLV mgn Cube-  Simplify3D Profile (modified)
;   profileVersion,2021-04-02 01:52:57
;   baseProfile,Anet A8
;   printMaterial,PLA
;   printQuality,Medium
;   printExtruders,
;   extruderName,Primary Extruder
;   extruderToolheadNumber,0
;   extruderDiameter,0.4
;   extruderAutoWidth,1
;   extruderWidth,0.48
;   extrusionMultiplier,1
;   extruderUseRetract,1
;   extruderRetractionDistance,1.5
;   extruderExtraRestartDistance,0
;   extruderRetractionZLift,0
;   extruderRetractionSpeed,5100
;   extruderUseCoasting,1
;   extruderCoastingDistance,0.2
;   extruderUseWipe,1
;   extruderWipeDistance,4
;   primaryExtruder,0
;   layerHeight,0.2
;   topSolidLayers,3
;   bottomSolidLayers,3
;   perimeterOutlines,3
;   printPerimetersInsideOut,0
;   startPointOption,3
;   startPointOriginX,0
;   startPointOriginY,500
;   sequentialIslands,0
;   spiralVaseMode,0
;   firstLayerHeightPercentage,150
;   firstLayerWidthPercentage,100
;   firstLayerUnderspeed,0.4
;   useRaft,0
;   raftExtruder,0
;   raftTopLayers,3
;   raftBaseLayers,2
;   raftOffset,3
;   raftSeparationDistance,0.14
;   raftTopInfill,100
;   aboveRaftSpeedMultiplier,0.3
;   useSkirt,1
;   skirtExtruder,0
;   skirtLayers,1
;   skirtOutlines,2
;   skirtOffset,6
;   usePrimePillar,0
;   primePillarExtruder,999
;   primePillarWidth,12
;   primePillarLocation,7
;   primePillarSpeedMultiplier,1
;   useOozeShield,0
;   oozeShieldExtruder,999
;   oozeShieldOffset,2
;   oozeShieldOutlines,1
;   oozeShieldSidewallShape,1
;   oozeShieldSidewallAngle,30
;   oozeShieldSpeedMultiplier,1
;   infillExtruder,0
;   internalInfillPattern,Rectilinear
;   externalInfillPattern,Rectilinear
;   infillPercentage,15
;   outlineOverlapPercentage,15
;   infillExtrusionWidthPercentage,100
;   minInfillLength,5
;   infillLayerInterval,1
;   internalInfillAngles,45,-45
;   overlapInternalInfillAngles,0
;   externalInfillAngles,45,-45
;   generateSupport,1
;   supportExtruder,0
;   supportInfillPercentage,30
;   supportExtraInflation,0
;   supportBaseLayers,0
;   denseSupportExtruder,0
;   denseSupportLayers,0
;   denseSupportInfillPercentage,70
;   supportLayerInterval,1
;   supportHorizontalPartOffset,0.4
;   supportUpperSeparationLayers,1
;   supportLowerSeparationLayers,1
;   supportType,0
;   supportGridSpacing,1
;   maxOverhangAngle,45
;   supportAngles,45,-45
;   temperatureName,Primary Extruder,Heated Bed
;   temperatureNumber,0,0
;   temperatureSetpointCount,2,1
;   temperatureSetpointLayers,1,2,1
;   temperatureSetpointTemperatures,215,210,60
;   temperatureStabilizeAtStartup,1,1
;   temperatureHeatedBed,0,1
;   fanLayers,1,2
;   fanSpeeds,0,100
;   blipFanToFullPower,1
;   adjustSpeedForCooling,1
;   minSpeedLayerTime,15
;   minCoolingSpeedSlowdown,20
;   increaseFanForCooling,0
;   minFanLayerTime,45
;   maxCoolingFanSpeed,100
;   increaseFanForBridging,1
;   bridgingFanSpeed,100
;   use5D,1
;   relativeEdistances,0
;   allowEaxisZeroing,1
;   independentExtruderAxes,0
;   includeM10123,0
;   stickySupport,1
;   applyToolheadOffsets,0
;   gcodeXoffset,24
;   gcodeYoffset,22
;   gcodeZoffset,0
;   overrideMachineDefinition,1
;   machineTypeOverride,0
;   strokeXoverride,310
;   strokeYoverride,310
;   strokeZoverride,334
;   originOffsetXoverride,0
;   originOffsetYoverride,0
;   originOffsetZoverride,0
;   homeXdirOverride,-1
;   homeYdirOverride,-1
;   homeZdirOverride,-1
;   flipXoverride,1
;   flipYoverride,-1
;   flipZoverride,1
;   toolheadOffsets,0,0|0,0|0,0|0,0|0,0|0,0
;   overrideFirmwareConfiguration,1
;   firmwareTypeOverride,RepRap (Marlin/Repetier/Sprinter)
;   GPXconfigOverride,r2
;   baudRateOverride,115200
;   overridePrinterModels,1
;   printerModelsOverride,Blvfull.stl
;   startingGcode,M291 P"Homing all axis" R"Printing.." S1 T2,G21		; metric values,G28		; home all,M98 P"/macros/load_meshbed"	; load mesh bed corresponding to the temp,M98 P"/macros/set_baby_step"	; set baby step,M98 P"/macros/purge_and_prime"; purge and do the prime line,,G92 E0 F100		; reset extruder,G1 Z10 F3000 		; move z up little to prevent scratching of surface,G92 E0 		; reset extruder,M291 P"Printing started !" R"Printing.." S1 T3
;   layerChangeGcode,
;   retractionGcode,
;   toolChangeGcode,
;   endingGcode,M104 S0 ; turn off extruder,M140 S0 ; turn off bed,M98 P"/macros/remove_baby_step"	; unset baby step,M98 P"/macros/rise30mm",G1 X0 Y300 F1000 ; prepare for part removal,M84 ; disable motors,M106 S0 ;turn off part cooling fan,;M81 ; shutdown,; play song,M300 S294 P200 ;D4: 294,M300 S588 P200 ;D5: 588,M300 S440 P200 ;A4: 440,M300 S392 P200 ;G4: 392,M300 S784 P200 ;G5: 784,M300 S440 P200 ;A4: 440,M300 S740 P200 ;F#5: 740,M300 S440 P200 ;A4: 440,M291 P"Printing finished !" R"Printing.." S1 T0,
;   exportFileFormat,gcode
;   celebration,0
;   celebrationSong,Star Wars
;   postProcessing,
;   defaultSpeed,6000
;   outlineUnderspeed,0.66
;   solidInfillUnderspeed,0.8
;   supportUnderspeed,0.8
;   rapidXYspeed,7200
;   rapidZspeed,1002
;   minBridgingArea,50
;   bridgingExtraInflation,0
;   bridgingExtrusionMultiplier,1
;   bridgingSpeedMultiplier,1
;   useFixedBridgingAngle,0
;   fixedBridgingAngle,0
;   applyBridgingToPerimeters,1
;   filamentDiameters,1.75|1.75|1.75|1.75|1.75|1.75
;   filamentPricesPerKg,30|110|110|110|110|110
;   filamentDensities,1.25|1.25|1.25|1.25|1.25|1.25
;   useMinPrintHeight,0
;   minPrintHeight,0
;   useMaxPrintHeight,0
;   maxPrintHeight,0
;   useDiaphragm,0
;   diaphragmLayerInterval,20
;   robustSlicing,1
;   mergeAllIntoSolid,0
;   onlyRetractWhenCrossingOutline,0
;   retractBetweenLayers,1
;   useRetractionMinTravel,1
;   retractionMinTravel,3
;   retractWhileWiping,1
;   onlyWipeOutlines,1
;   avoidCrossingOutline,1
;   maxMovementDetourFactor,3
;   toolChangeRetractionDistance,12
;   toolChangeExtraRestartDistance,-0.5
;   toolChangeRetractionSpeed,600
;   externalThinWallType,1
;   internalThinWallType,1
;   thinWallAllowedOverlapPercentage,15
;   singleExtrusionMinLength,1
;   singleExtrusionMinPrintingWidthPercentage,50
;   singleExtrusionMaxPrintingWidthPercentage,200
;   singleExtrusionEndpointExtension,0.2
;   horizontalSizeCompensation,0
G90
M82
M106 S0
M140 S60
M190 S60
M104 S215 T0
M109 S215 T0
M291 P"Homing all axis" R"Printing.." S1 T2
G21		; metric values
G28		; home all
M98 P"/macros/load_meshbed"	; load mesh bed corresponding to the temp
M98 P"/macros/set_baby_step"	; set baby step
M98 P"/macros/purge_and_prime"; purge and do the prime line
G92 E0 F100		; reset extruder
G1 Z10 F3000 		; move z up little to prevent scratching of surface
G92 E0 		; reset extruder
M291 P"Printing started !" R"Printing.." S1 T3
; process Process1
; layer 1, Z = 0.300
T0
G92 E0.0000
G1 E-1.5000 F5100
; feature skirt
; tool H0.300 W0.480
G1 Z0.300 F1002
G1 X155.076 Y205.497 F7200
G1 E0.0000 F5100
G92 E0.0000
G1 X152.303 Y202.724 E0.2348 F2400
G1 X151.280 Y200.254 E0.3948
G1 X151.280 Y199.084 E0.4649
G1 X151.091 Y198.387 E0.5081
G1 X151.002 Y197.950 E0.5348
G1 X150.869 Y196.950 E0.5952
G1 X150.839 Y196.505 E0.6219
G1 X150.839 Y195.495 E0.6824
G1 X150.869 Y195.050 E0.7091
G1 X151.002 Y194.050 E0.7695
G1 X151.091 Y193.613 E0.7962
G1 X151.280 Y192.916 E0.8394
G1 X151.280 Y175.223 E1.8986
G1 X150.497 Y174.440 E1.9650
G1 X149.497 Y174.440 E2.0248
G1 X143.560 Y168.504 E2.5275
G1 X143.560 Y157.496 E3.1864
G1 X144.560 Y156.496 E3.2711
G1 X144.560 Y155.496 E3.3310
G1 X146.560 Y153.496 E3.5003
G1 X146.560 Y152.496 E3.5602
G1 X151.497 Y147.560 E3.9781
G1 X152.497 Y147.560 E4.0380
G1 X153.497 Y146.560 E4.1227
G1 X154.940 Y146.560 E4.2091
G1 X155.812 Y145.613 E4.2862
G1 X158.393 Y144.480 E4.4549
G1 X199.454 Y144.480 E6.9131
G1 X201.924 Y145.503 E7.0732
G1 X202.981 Y146.560 E7.1627
G1 X204.504 Y146.560 E7.2539
G1 X205.504 Y147.560 E7.3385
G1 X206.504 Y147.560 E7.3984
G1 X211.440 Y152.496 E7.8163
G1 X211.440 Y153.496 E7.8762
G1 X213.440 Y155.496 E8.0455
G1 X213.440 Y156.496 E8.1054
G1 X214.440 Y157.496 E8.1901
G1 X214.440 Y168.504 E8.8491
G1 X208.504 Y174.440 E9.3517
G1 X207.504 Y174.440 E9.4115
G1 X206.549 Y175.395 E9.4924
G1 X206.720 Y175.566 E9.5069
G1 X206.720 Y192.916 E10.5456
G1 X206.909 Y193.613 E10.5888
G1 X206.998 Y194.050 E10.6155
G1 X207.131 Y195.050 E10.6760
G1 X207.161 Y195.495 E10.7027
G1 X207.161 Y196.505 E10.7631
G1 X207.131 Y196.950 E10.7898
G1 X206.998 Y197.950 E10.8502
G1 X206.909 Y198.387 E10.8769
G1 X206.720 Y199.084 E10.9201
G1 X206.720 Y200.254 E10.9902
G1 X205.697 Y202.724 E11.1502
G1 X202.924 Y205.497 E11.3850
G1 X200.454 Y206.520 E11.5451
G1 X199.284 Y206.520 E11.6151
G1 X198.587 Y206.709 E11.6583
G1 X198.150 Y206.798 E11.6850
G1 X197.150 Y206.931 E11.7455
G1 X196.705 Y206.961 E11.7722
G1 X195.695 Y206.961 E11.8326
G1 X195.250 Y206.931 E11.8593
G1 X194.250 Y206.798 E11.9197
G1 X193.813 Y206.709 E11.9464
G1 X193.116 Y206.520 E11.9896
G1 X189.612 Y206.520 E12.1994
G1 X187.635 Y208.497 E12.3668
G1 X185.165 Y209.520 E12.5268
G1 X172.835 Y209.520 E13.2650
G1 X170.365 Y208.497 E13.4251
G1 X168.388 Y206.520 E13.5925
G1 X164.884 Y206.520 E13.8022
G1 X164.187 Y206.709 E13.8455
G1 X163.750 Y206.798 E13.8722
G1 X162.750 Y206.931 E13.9326
G1 X162.305 Y206.961 E13.9593
G1 X161.295 Y206.961 E14.0197
G1 X160.850 Y206.931 E14.0464
G1 X159.850 Y206.798 E14.1069
G1 X159.413 Y206.709 E14.1335
G1 X158.716 Y206.520 E14.1768
G1 X157.546 Y206.520 E14.2468
G1 X155.076 Y205.497 E14.4069
G1 X155.348 Y205.090 F7200
G92 E0.0000
G1 X152.710 Y202.452 E0.2234 F2400
G1 X151.760 Y200.158 E0.3720
G1 X151.760 Y199.020 E0.4401
G1 X151.558 Y198.277 E0.4862
G1 X151.476 Y197.871 E0.5110
G1 X151.347 Y196.902 E0.5696
G1 X151.319 Y196.489 E0.5944
G1 X151.319 Y195.511 E0.6529
G1 X151.347 Y195.098 E0.6777
G1 X151.476 Y194.129 E0.7362
G1 X151.558 Y193.723 E0.7610
G1 X151.760 Y192.980 E0.8071
G1 X151.760 Y174.960 E1.8859
G1 X151.695 Y174.960 E1.8898
G1 X150.695 Y173.960 E1.9744
G1 X149.695 Y173.960 E2.0343
G1 X144.040 Y168.305 E2.5131
G1 X144.040 Y157.695 E3.1483
G1 X145.040 Y156.695 E3.2330
G1 X145.040 Y155.695 E3.2928
G1 X147.040 Y153.695 E3.4622
G1 X147.040 Y152.695 E3.5220
G1 X151.695 Y148.040 E3.9162
G1 X152.695 Y148.040 E3.9760
G1 X153.695 Y147.040 E4.0607
G1 X155.151 Y147.040 E4.1479
G1 X156.097 Y146.012 E4.2315
G1 X158.494 Y144.960 E4.3882
G1 X199.358 Y144.960 E6.8347
G1 X201.652 Y145.910 E6.9833
G1 X202.782 Y147.040 E7.0790
G1 X204.305 Y147.040 E7.1702
G1 X205.305 Y148.040 E7.2548
G1 X206.305 Y148.040 E7.3147
G1 X210.960 Y152.695 E7.7088
G1 X210.960 Y153.695 E7.7687
G1 X212.960 Y155.695 E7.9380
G1 X212.960 Y156.695 E7.9979
G1 X213.960 Y157.695 E8.0826
G1 X213.960 Y168.305 E8.7177
G1 X208.305 Y173.960 E9.1966
G1 X207.305 Y173.960 E9.2564
G1 X206.305 Y174.960 E9.3411
G1 X205.960 Y174.960 E9.3617
G1 X205.960 Y175.485 E9.3932
G1 X206.240 Y175.765 E9.4169
G1 X206.240 Y192.980 E10.4475
G1 X206.442 Y193.723 E10.4936
G1 X206.524 Y194.129 E10.5184
G1 X206.653 Y195.098 E10.5769
G1 X206.681 Y195.511 E10.6017
G1 X206.681 Y196.489 E10.6602
G1 X206.653 Y196.902 E10.6850
G1 X206.524 Y197.871 E10.7435
G1 X206.442 Y198.277 E10.7683
G1 X206.240 Y199.020 E10.8145
G1 X206.240 Y200.158 E10.8826
G1 X205.290 Y202.452 E11.0312
G1 X202.652 Y205.090 E11.2546
G1 X200.358 Y206.040 E11.4032
G1 X199.220 Y206.040 E11.4713
G1 X198.477 Y206.242 E11.5175
G1 X198.071 Y206.324 E11.5423
G1 X197.102 Y206.453 E11.6008
G1 X196.689 Y206.481 E11.6256
G1 X195.711 Y206.481 E11.6841
G1 X195.298 Y206.453 E11.7089
G1 X194.329 Y206.324 E11.7674
G1 X193.923 Y206.242 E11.7922
G1 X193.180 Y206.040 E11.8383
G1 X189.413 Y206.040 E12.0638
G1 X187.363 Y208.090 E12.2374
G1 X185.070 Y209.040 E12.3860
G1 X172.930 Y209.040 E13.1128
G1 X170.637 Y208.090 E13.2614
G1 X168.587 Y206.040 E13.4350
G1 X164.820 Y206.040 E13.6605
G1 X164.077 Y206.242 E13.7066
G1 X163.671 Y206.324 E13.7314
G1 X162.702 Y206.453 E13.7899
G1 X162.289 Y206.481 E13.8147
G1 X161.311 Y206.481 E13.8732
G1 X160.898 Y206.453 E13.8980
G1 X159.929 Y206.324 E13.9565
G1 X159.523 Y206.242 E13.9813
G1 X158.780 Y206.040 E14.0274
G1 X157.642 Y206.040 E14.0956
G1 X155.348 Y205.090 E14.2442
G92 E0.0000
G1 E-1.5000 F5100
; feature outer perimeter
G1 X158.982 Y199.560 F7200
G1 X158.240 Y198.818
G1 X158.240 Y197.855
G1 X158.009 Y197.306
G1 X157.870 Y196.793
G1 X157.799 Y196.266
G1 X157.799 Y195.734
G1 X157.870 Y195.207
G1 X158.009 Y194.694
G1 X158.240 Y194.145
G1 X158.240 Y168.390
G1 X166.809 Y168.390
G1 X167.469 Y168.341
G1 X168.123 Y168.191
G1 X168.748 Y167.946
G1 X169.329 Y167.610
G1 X169.854 Y167.192
G1 X170.311 Y166.700
G1 X170.689 Y166.145
G1 X170.980 Y165.541
G1 X171.178 Y164.899
G1 X171.278 Y164.236
G1 X171.278 Y163.564
G1 X171.178 Y162.901
G1 X170.980 Y162.259
G1 X170.689 Y161.655
G1 X170.311 Y161.100
G1 X169.854 Y160.608
G1 X169.329 Y160.190
G1 X168.748 Y159.854
G1 X168.123 Y159.609
G1 X167.469 Y159.459
G1 X166.809 Y159.410
G1 X158.240 Y159.410
G1 X158.240 Y154.459
G1 E0.0000 F5100
G92 E0.0000
G1 X158.240 Y153.182 E0.0764 F1584
G1 X159.056 Y152.366 E0.1455
G1 X159.908 Y151.440 E0.2209
G1 X161.197 Y151.440 E0.2980
G1 X161.252 Y151.784 E0.3189
G1 X160.526 Y152.020 E0.3646
G1 X160.015 Y152.295 E0.3994
G1 X159.560 Y152.657 E0.4341
G1 X159.178 Y153.095 E0.4689
G1 X158.880 Y153.594 E0.5037
G1 X158.676 Y154.138 E0.5385
G1 X158.611 Y154.493 E0.5601
G1 X158.439 Y154.477 E0.5704
G1 X158.240 Y154.459 F1584
G1 X158.240 Y153.182 F1584
G1 X159.056 Y152.366
G1 X159.908 Y151.440
G1 X160.219 Y151.440
G1 X162.210 Y151.787 F7200
G1 X162.235 Y151.788
G1 X162.296 Y151.802
G92 E0.0000
G1 X162.337 Y151.440 E0.0218 F1584
G1 X195.597 Y151.440 E2.0130
G1 X195.652 Y151.784 E2.0339
G1 X194.926 Y152.020 E2.0796
G1 X194.415 Y152.295 E2.1144
G1 X193.960 Y152.657 E2.1491
G1 X193.578 Y153.095 E2.1839
G1 X193.280 Y153.594 E2.2187
G1 X193.076 Y154.138 E2.2535
G1 X192.972 Y154.709 E2.2883
G1 X192.972 Y155.291 E2.3231
G1 X193.076 Y155.862 E2.3579
G1 X193.280 Y156.406 E2.3926
G1 X193.578 Y156.905 E2.4274
G1 X193.960 Y157.343 E2.4622
G1 X194.415 Y157.705 E2.4970
G1 X194.926 Y157.980 E2.5318
G1 X195.479 Y158.160 E2.5666
G1 X196.055 Y158.238 E2.6014
G1 X196.635 Y158.212 E2.6361
G1 X197.202 Y158.082 E2.6709
G1 X197.736 Y157.854 E2.7057
G1 X198.221 Y157.534 E2.7405
G1 X198.641 Y157.132 E2.7753
G1 X198.982 Y156.662 E2.8101
G1 X199.234 Y156.139 E2.8449
G1 X199.407 Y155.514 E2.8837
G1 X199.760 Y155.562 E2.9050
G1 X199.760 Y169.660 E3.7490
G1 X191.859 Y169.660 E4.2220
G1 X191.217 Y169.609 E4.2606
G1 X190.547 Y169.657 E4.3009
G1 X189.891 Y169.804 E4.3411
G1 X189.265 Y170.048 E4.3813
G1 X188.682 Y170.382 E4.4216
G1 X188.155 Y170.799 E4.4618
G1 X187.697 Y171.291 E4.5020
G1 X187.317 Y171.845 E4.5422
G1 X187.024 Y172.450 E4.5825
G1 X186.824 Y173.091 E4.6227
G1 X186.723 Y173.756 E4.6629
G1 X186.721 Y174.428 E4.7032
G1 X186.820 Y175.092 E4.7434
G1 X187.017 Y175.735 E4.7836
G1 X187.308 Y176.340 E4.8238
G1 X187.686 Y176.896 E4.8641
G1 X188.143 Y177.389 E4.9043
G1 X188.668 Y177.809 E4.9445
G1 X189.249 Y178.145 E4.9848
G1 X189.875 Y178.391 E5.0250
G1 X190.530 Y178.540 E5.0652
G1 X191.191 Y178.590 E5.1049
G1 X199.760 Y178.590 E5.6179
G1 X199.760 Y194.145 E6.5492
G1 X199.991 Y194.694 E6.5849
G1 X200.130 Y195.207 E6.6167
G1 X200.201 Y195.734 E6.6485
G1 X200.201 Y196.266 E6.6803
G1 X200.130 Y196.793 E6.7122
G1 X199.991 Y197.306 E6.7440
G1 X199.760 Y197.855 E6.7797
G1 X199.760 Y198.818 E6.8373
G1 X199.018 Y199.560 E6.9001
G1 X198.055 Y199.560 E6.9578
G1 X197.506 Y199.791 E6.9935
G1 X196.993 Y199.930 E7.0253
G1 X196.466 Y200.001 E7.0571
