; G-Code generated by Simplify3D(R) Version 4.1.2
; Apr 19, 2021 at 12:02:08 AM
; Settings Summary
;   processName,Process1
;   applyToModels,plate V2 biqu
;   profileName,BLV mgn Cube-  Simplify3D Profile (modified)
;   profileVersion,2021-04-02 01:52:57
;   baseProfile,Anet A8
;   printMaterial,PLA
;   printQuality,Medium
;   printExtruders,
;   extruderName,Primary Extruder
;   extruderToolheadNumber,0
;   extruderDiameter,0.4
;   extruderAutoWidth,1
;   extruderWidth,0.48
;   extrusionMultiplier,1
;   extruderUseRetract,1
;   extruderRetractionDistance,1.5
;   extruderExtraRestartDistance,0
;   extruderRetractionZLift,0
;   extruderRetractionSpeed,5100
;   extruderUseCoasting,1
;   extruderCoastingDistance,0.2
;   extruderUseWipe,1
;   extruderWipeDistance,4
;   primaryExtruder,0
;   layerHeight,0.2
;   topSolidLayers,6
;   bottomSolidLayers,6
;   perimeterOutlines,6
;   printPerimetersInsideOut,0
;   startPointOption,3
;   startPointOriginX,0
;   startPointOriginY,500
;   sequentialIslands,0
;   spiralVaseMode,0
;   firstLayerHeightPercentage,150
;   firstLayerWidthPercentage,100
;   firstLayerUnderspeed,0.4
;   useRaft,0
;   raftExtruder,0
;   raftTopLayers,3
;   raftBaseLayers,2
;   raftOffset,3
;   raftSeparationDistance,0.14
;   raftTopInfill,100
;   aboveRaftSpeedMultiplier,0.3
;   useSkirt,1
;   skirtExtruder,0
;   skirtLayers,1
;   skirtOutlines,2
;   skirtOffset,6
;   usePrimePillar,0
;   primePillarExtruder,999
;   primePillarWidth,12
;   primePillarLocation,7
;   primePillarSpeedMultiplier,1
;   useOozeShield,0
;   oozeShieldExtruder,999
;   oozeShieldOffset,2
;   oozeShieldOutlines,1
;   oozeShieldSidewallShape,1
;   oozeShieldSidewallAngle,30
;   oozeShieldSpeedMultiplier,1
;   infillExtruder,0
;   internalInfillPattern,Rectilinear
;   externalInfillPattern,Rectilinear
;   infillPercentage,15
;   outlineOverlapPercentage,15
;   infillExtrusionWidthPercentage,100
;   minInfillLength,5
;   infillLayerInterval,1
;   internalInfillAngles,45,-45
;   overlapInternalInfillAngles,0
;   externalInfillAngles,45,-45
;   generateSupport,1
;   supportExtruder,0
;   supportInfillPercentage,30
;   supportExtraInflation,0
;   supportBaseLayers,0
;   denseSupportExtruder,0
;   denseSupportLayers,0
;   denseSupportInfillPercentage,70
;   supportLayerInterval,1
;   supportHorizontalPartOffset,0.4
;   supportUpperSeparationLayers,1
;   supportLowerSeparationLayers,1
;   supportType,0
;   supportGridSpacing,1
;   maxOverhangAngle,45
;   supportAngles,45,-45
;   temperatureName,Primary Extruder,Heated Bed
;   temperatureNumber,0,0
;   temperatureSetpointCount,2,1
;   temperatureSetpointLayers,1,2,1
;   temperatureSetpointTemperatures,215,210,60
;   temperatureStabilizeAtStartup,1,1
;   temperatureHeatedBed,0,1
;   fanLayers,1,2
;   fanSpeeds,0,100
;   blipFanToFullPower,1
;   adjustSpeedForCooling,1
;   minSpeedLayerTime,15
;   minCoolingSpeedSlowdown,20
;   increaseFanForCooling,0
;   minFanLayerTime,45
;   maxCoolingFanSpeed,100
;   increaseFanForBridging,1
;   bridgingFanSpeed,100
;   use5D,1
;   relativeEdistances,0
;   allowEaxisZeroing,1
;   independentExtruderAxes,0
;   includeM10123,0
;   stickySupport,1
;   applyToolheadOffsets,0
;   gcodeXoffset,24
;   gcodeYoffset,22
;   gcodeZoffset,0
;   overrideMachineDefinition,1
;   machineTypeOverride,0
;   strokeXoverride,310
;   strokeYoverride,310
;   strokeZoverride,334
;   originOffsetXoverride,0
;   originOffsetYoverride,0
;   originOffsetZoverride,0
;   homeXdirOverride,-1
;   homeYdirOverride,-1
;   homeZdirOverride,-1
;   flipXoverride,1
;   flipYoverride,-1
;   flipZoverride,1
;   toolheadOffsets,0,0|0,0|0,0|0,0|0,0|0,0
;   overrideFirmwareConfiguration,1
;   firmwareTypeOverride,RepRap (Marlin/Repetier/Sprinter)
;   GPXconfigOverride,r2
;   baudRateOverride,115200
;   overridePrinterModels,1
;   printerModelsOverride,Blvfull.stl
;   startingGcode,M291 P"Homing all axis" R"Printing.." S1 T2,G21		; metric values,G28		; home all,M98 P"/macros/load_meshbed"	; load mesh bed corresponding to the temp,M98 P"/macros/set_baby_step"	; set baby step,M98 P"/macros/purge_and_prime"; purge and do the prime line,,G92 E0 F100		; reset extruder,G1 Z10 F3000 		; move z up little to prevent scratching of surface,G92 E0 		; reset extruder,M291 P"Printing started !" R"Printing.." S1 T3
;   layerChangeGcode,
;   retractionGcode,
;   toolChangeGcode,
;   endingGcode,M104 S0 ; turn off extruder,M140 S0 ; turn off bed,M98 P"/macros/remove_baby_step"	; unset baby step,M98 P"/macros/rise30mm",G1 X0 Y300 F1000 ; prepare for part removal,M84 ; disable motors,M106 S0 ;turn off part cooling fan,;M81 ; shutdown,; play song,M300 S294 P200 ;D4: 294,M300 S588 P200 ;D5: 588,M300 S440 P200 ;A4: 440,M300 S392 P200 ;G4: 392,M300 S784 P200 ;G5: 784,M300 S440 P200 ;A4: 440,M300 S740 P200 ;F#5: 740,M300 S440 P200 ;A4: 440,M291 P"Printing finished !" R"Printing.." S1 T0,
;   exportFileFormat,gcode
;   celebration,0
;   celebrationSong,Star Wars
;   postProcessing,
;   defaultSpeed,6000
;   outlineUnderspeed,0.66
;   solidInfillUnderspeed,0.8
;   supportUnderspeed,0.8
;   rapidXYspeed,7200
;   rapidZspeed,1002
;   minBridgingArea,50
;   bridgingExtraInflation,0
;   bridgingExtrusionMultiplier,1
;   bridgingSpeedMultiplier,1
;   useFixedBridgingAngle,0
;   fixedBridgingAngle,0
;   applyBridgingToPerimeters,1
;   filamentDiameters,1.75|1.75|1.75|1.75|1.75|1.75
;   filamentPricesPerKg,30|110|110|110|110|110
;   filamentDensities,1.25|1.25|1.25|1.25|1.25|1.25
;   useMinPrintHeight,0
;   minPrintHeight,0
;   useMaxPrintHeight,0
;   maxPrintHeight,0
;   useDiaphragm,0
;   diaphragmLayerInterval,20
;   robustSlicing,1
;   mergeAllIntoSolid,0
;   onlyRetractWhenCrossingOutline,0
;   retractBetweenLayers,1
;   useRetractionMinTravel,1
;   retractionMinTravel,3
;   retractWhileWiping,1
;   onlyWipeOutlines,1
;   avoidCrossingOutline,1
;   maxMovementDetourFactor,3
;   toolChangeRetractionDistance,12
;   toolChangeExtraRestartDistance,-0.5
;   toolChangeRetractionSpeed,600
;   externalThinWallType,1
;   internalThinWallType,1
;   thinWallAllowedOverlapPercentage,15
;   singleExtrusionMinLength,1
;   singleExtrusionMinPrintingWidthPercentage,50
;   singleExtrusionMaxPrintingWidthPercentage,200
;   singleExtrusionEndpointExtension,0.2
;   horizontalSizeCompensation,0
G90
M82
M106 S0
M140 S60
M190 S60
M104 S215 T0
M109 S215 T0
M291 P"Homing all axis" R"Printing.." S1 T2
G21		; metric values
G28		; home all
M98 P"/macros/load_meshbed"	; load mesh bed corresponding to the temp
M98 P"/macros/set_baby_step"	; set baby step
M98 P"/macros/purge_and_prime"; purge and do the prime line
G92 E0 F100		; reset extruder
G1 Z10 F3000 		; move z up little to prevent scratching of surface
G92 E0 		; reset extruder
M291 P"Printing started !" R"Printing.." S1 T3
; process Process1
; layer 1, Z = 0.300
T0
G92 E0.0000
G1 E-1.5000 F5100
; feature skirt
; tool H0.300 W0.480
G1 Z0.300 F1002
G1 X155.443 Y208.497 F7200
G1 E0.0000 F5100
G92 E0.0000
G1 X149.553 Y202.607 E0.4987 F2400
G1 X148.530 Y200.137 E0.6588
G1 X148.530 Y185.441 E1.5386
G1 X149.013 Y183.689 E1.6474
G1 X171.347 Y146.234 E4.2582
G1 X174.435 Y144.480 E4.4707
G1 X205.534 Y144.480 E6.3326
G1 X209.470 Y148.416 E6.6658
G1 X209.470 Y186.933 E8.9717
G1 X205.534 Y190.869 E9.3050
G1 X203.970 Y190.869 E9.3986
G1 X203.970 Y205.584 E10.2796
G1 X200.034 Y209.520 E10.6129
G1 X157.913 Y209.520 E13.1345
G1 X155.443 Y208.497 E13.2946
G1 X155.715 Y208.090 F7200
G92 E0.0000
G1 X149.960 Y202.335 E0.4873 F2400
G1 X149.010 Y200.041 E0.6359
G1 X149.010 Y185.506 E1.5061
G1 X149.458 Y183.879 E1.6071
G1 X171.695 Y146.588 E4.2065
G1 X174.562 Y144.960 E4.4038
G1 X205.335 Y144.960 E6.2462
G1 X208.990 Y148.615 E6.5556
G1 X208.990 Y186.734 E8.8377
G1 X205.335 Y190.389 E9.1472
G1 X203.490 Y190.389 E9.2577
G1 X203.490 Y205.385 E10.1554
G1 X199.835 Y209.040 E10.4649
G1 X158.009 Y209.040 E12.9689
G1 X155.715 Y208.090 E13.1176
G92 E0.0000
G1 E-1.5000 F5100
; feature outer perimeter
G1 X159.349 Y202.560 F7200
G1 E0.0000 F5100
G92 E0.0000
G1 X155.490 Y198.701 E0.3268 F1584
G1 X155.490 Y186.416 E1.0622
G1 X176.346 Y151.440 E3.5002
G1 X202.510 Y151.440 E5.0666
G1 X202.510 Y183.909 E7.0104
G1 X197.010 Y183.909 E7.3397
G1 X197.010 Y202.560 E8.4563
G1 X159.549 Y202.560 E10.6990
G1 X159.349 Y202.560 F1584
G1 X156.521 Y199.732 F1584
; feature inner perimeter
G1 X155.970 Y198.502 F7200
G92 E0.0000
G1 X155.970 Y186.548 E0.7156 F1992
G1 X176.619 Y151.920 E3.1294
G1 X198.037 Y151.920 E4.4116
G1 X198.092 Y152.264 E4.4325
G1 X197.287 Y152.526 E4.4832
G1 X196.699 Y152.842 E4.5231
G1 X196.177 Y153.258 E4.5631
G1 X195.738 Y153.761 E4.6030
G1 X195.396 Y154.334 E4.6430
G1 X195.161 Y154.959 E4.6830
G1 X195.042 Y155.615 E4.7229
G1 X195.042 Y156.283 E4.7629
G1 X195.161 Y156.939 E4.8028
G1 X195.396 Y157.564 E4.8428
G1 X195.738 Y158.137 E4.8827
G1 X196.177 Y158.640 E4.9227
G1 X196.699 Y159.056 E4.9627
G1 X197.287 Y159.372 E5.0026
G1 X197.922 Y159.579 E5.0426
G1 X198.583 Y159.668 E5.0825
G1 X199.250 Y159.638 E5.1225
G1 X199.900 Y159.490 E5.1625
G1 X200.514 Y159.227 E5.2024
G1 X201.071 Y158.860 E5.2424
G1 X201.554 Y158.398 E5.2823
G1 X201.748 Y158.131 E5.3021
G1 X202.030 Y158.222 E5.3199
G1 X202.030 Y168.676 E5.9457
G1 X201.748 Y168.767 E5.9634
G1 X201.554 Y168.500 E5.9832
G1 X201.071 Y168.038 E6.0232
G1 X200.514 Y167.671 E6.0632
G1 X199.900 Y167.408 E6.1031
G1 X199.250 Y167.260 E6.1431
G1 X198.583 Y167.230 E6.1830
G1 X197.922 Y167.319 E6.2230
G1 X197.287 Y167.526 E6.2630
G1 X196.699 Y167.842 E6.3029
G1 X196.177 Y168.258 E6.3429
G1 X195.738 Y168.761 E6.3828
G1 X195.396 Y169.334 E6.4228
G1 X195.161 Y169.959 E6.4628
G1 X195.042 Y170.615 E6.5027
G1 X195.042 Y171.283 E6.5427
G1 X195.161 Y171.939 E6.5826
G1 X195.396 Y172.564 E6.6226
G1 X195.738 Y173.137 E6.6625
G1 X196.177 Y173.640 E6.7025
G1 X196.699 Y174.056 E6.7425
G1 X197.287 Y174.372 E6.7824
G1 X197.922 Y174.579 E6.8224
G1 X198.583 Y174.668 E6.8623
G1 X199.250 Y174.638 E6.9023
G1 X199.900 Y174.490 E6.9423
G1 X200.514 Y174.227 E6.9822
G1 X201.071 Y173.860 E7.0222
G1 X201.554 Y173.398 E7.0621
G1 X201.748 Y173.131 E7.0819
G1 X202.030 Y173.222 E7.0997
G1 X202.030 Y183.429 E7.7107
G1 X196.530 Y183.429 E8.0400
G1 X196.530 Y202.080 E9.1566
G1 X159.548 Y202.080 E11.3706
G1 X156.111 Y198.643 E11.6616
G1 X155.970 Y198.502 F1992
G92 E0.0000
G1 E-1.5000 F5100
G1 X195.540 Y156.340 F7200
G1 X195.522 Y156.240
G1 X195.522 Y155.658
G1 X195.626 Y155.087
G1 X195.830 Y154.543
G1 X196.128 Y154.044
G1 X196.510 Y153.606
G1 X196.965 Y153.244
G1 X197.476 Y152.969
G1 X198.029 Y152.789
G1 X198.605 Y152.711
G1 X198.932 Y152.726
G1 X199.348 Y152.282
G1 E0.0000 F5100
G92 E0.0000
G1 X199.389 Y151.920 E0.0218 F1992
G1 X202.030 Y151.920 E0.1799
G1 X202.030 Y153.676 E0.2850
G1 X201.748 Y153.767 E0.3028
G1 X201.554 Y153.500 E0.3226
G1 X201.071 Y153.038 E0.3625
G1 X200.514 Y152.671 E0.4025
G1 X199.900 Y152.408 E0.4425
G1 X199.543 Y152.327 E0.4644
G1 X199.348 Y152.282 F1992
G92 E0.0000
G1 E-1.5000 F5100
G1 X196.141 Y152.673 F7200
G1 E0.0000 F5100
G92 E0.0000
G1 X195.844 Y152.910 E0.0227 F1992
G1 X195.348 Y153.477 E0.0678
G1 X194.962 Y154.125 E0.1130
G1 X194.697 Y154.830 E0.1581
G1 X194.562 Y155.572 E0.2032
G1 X194.562 Y156.326 E0.2484
G1 X194.697 Y157.068 E0.2935
G1 X194.962 Y157.773 E0.3386
G1 X195.348 Y158.421 E0.3838
G1 X195.844 Y158.988 E0.4289
G1 X196.434 Y159.458 E0.4740
G1 X197.097 Y159.815 E0.5192
G1 X197.814 Y160.048 E0.5643
G1 X198.561 Y160.150 E0.6094
G1 X199.314 Y160.116 E0.6545
G1 X200.049 Y159.948 E0.6997
G1 X200.743 Y159.652 E0.7448
G1 X201.550 Y159.119 E0.8027
G1 X201.550 Y167.779 E1.3212
G1 X200.743 Y167.246 E1.3791
G1 X200.049 Y166.950 E1.4243
G1 X199.314 Y166.782 E1.4694
G1 X198.561 Y166.748 E1.5145
G1 X197.814 Y166.850 E1.5597
G1 X197.097 Y167.083 E1.6048
G1 X196.434 Y167.440 E1.6499
G1 X195.844 Y167.910 E1.6951
G1 X195.348 Y168.477 E1.7402
G1 X194.962 Y169.125 E1.7853
G1 X194.697 Y169.830 E1.8304
G1 X194.562 Y170.572 E1.8756
G1 X194.562 Y171.326 E1.9207
G1 X194.697 Y172.068 E1.9658
G1 X194.962 Y172.773 E2.0110
G1 X195.348 Y173.421 E2.0561
G1 X195.844 Y173.988 E2.1012
G1 X196.434 Y174.458 E2.1464
G1 X197.097 Y174.815 E2.1915
G1 X197.814 Y175.048 E2.2366
G1 X198.561 Y175.150 E2.2818
G1 X199.314 Y175.116 E2.3269
G1 X200.049 Y174.948 E2.3720
G1 X200.743 Y174.652 E2.4172
G1 X201.550 Y174.119 E2.4751
G1 X201.550 Y182.949 E3.0037
G1 X196.050 Y182.949 E3.3330
G1 X196.050 Y201.600 E4.4496
G1 X159.747 Y201.600 E6.6230
G1 X156.450 Y198.303 E6.9021
G1 X156.450 Y186.681 E7.5979
G1 X176.892 Y152.400 E9.9875
G1 X196.045 Y152.400 E11.1341
G1 X196.075 Y152.484 E11.1395
G1 X196.141 Y152.673 F1992
G1 X195.146 Y152.880 F7200
G92 E0.0000
G1 X194.527 Y153.915 E0.0722 F1992
G1 X194.232 Y154.702 E0.1225
G1 X194.082 Y155.529 E0.1728
G1 X194.082 Y156.369 E0.2231
G1 X194.232 Y157.196 E0.2734
G1 X194.527 Y157.982 E0.3237
G1 X194.958 Y158.704 E0.3740
G1 X195.511 Y159.337 E0.4243
G1 X196.168 Y159.861 E0.4746
G1 X196.908 Y160.259 E0.5249
G1 X197.707 Y160.518 E0.5752
G1 X198.540 Y160.631 E0.6256
G1 X199.379 Y160.593 E0.6759
G1 X200.198 Y160.406 E0.7262
G1 X201.070 Y160.034 E0.7829
G1 X201.070 Y166.864 E1.1918
G1 X200.198 Y166.492 E1.2486
G1 X199.379 Y166.305 E1.2989
G1 X198.540 Y166.267 E1.3492
G1 X197.707 Y166.380 E1.3995
G1 X196.908 Y166.639 E1.4498
G1 X196.168 Y167.038 E1.5001
G1 X195.511 Y167.561 E1.5504
G1 X194.958 Y168.194 E1.6007
G1 X194.527 Y168.915 E1.6510
G1 X194.232 Y169.702 E1.7013
G1 X194.082 Y170.529 E1.7516
G1 X194.082 Y171.369 E1.8019
G1 X194.232 Y172.196 E1.8522
G1 X194.527 Y172.982 E1.9025
G1 X194.958 Y173.704 E1.9529
G1 X195.511 Y174.337 E2.0031
G1 X196.168 Y174.861 E2.0535
G1 X196.908 Y175.259 E2.1038
G1 X197.707 Y175.518 E2.1541
G1 X198.540 Y175.631 E2.2044
G1 X199.379 Y175.593 E2.2547
G1 X200.198 Y175.406 E2.3050
G1 X201.070 Y175.034 E2.3617
G1 X201.070 Y182.469 E2.8069
G1 X195.570 Y182.469 E3.1361
G1 X195.570 Y201.120 E4.2527
G1 X159.946 Y201.120 E6.3855
G1 X156.930 Y198.104 E6.6408
G1 X156.930 Y186.813 E7.3168
G1 X177.164 Y152.880 E9.6821
G1 X194.946 Y152.880 E10.7466
G1 X195.146 Y152.880 F1992
G1 X194.300 Y153.360 F7200
G92 E0.0000
G1 X194.093 Y153.706 E0.0242 F1992
G1 X193.768 Y154.574 E0.0796
G1 X193.602 Y155.486 E0.1351
G1 X193.602 Y156.412 E0.1906
G1 X193.768 Y157.324 E0.2461
G1 X194.093 Y158.192 E0.3015
G1 X194.568 Y158.987 E0.3570
G1 X195.178 Y159.685 E0.4125
G1 X195.903 Y160.263 E0.4680
G1 X196.719 Y160.702 E0.5234
G1 X197.600 Y160.988 E0.5789
G1 X198.518 Y161.113 E0.6344
G1 X199.444 Y161.071 E0.6899
G1 X200.590 Y160.809 E0.7603
G1 X200.590 Y166.089 E1.0763
G1 X199.444 Y165.827 E1.1467
G1 X198.518 Y165.785 E1.2022
G1 X197.600 Y165.910 E1.2577
G1 X196.719 Y166.196 E1.3131
G1 X195.903 Y166.635 E1.3686
G1 X195.178 Y167.213 E1.4241
G1 X194.568 Y167.911 E1.4796
G1 X194.093 Y168.706 E1.5350
G1 X193.768 Y169.574 E1.5905
G1 X193.602 Y170.486 E1.6460
G1 X193.602 Y171.412 E1.7015
G1 X193.768 Y172.324 E1.7570
G1 X194.093 Y173.192 E1.8124
G1 X194.568 Y173.987 E1.8679
G1 X195.178 Y174.685 E1.9234
G1 X195.903 Y175.263 E1.9789
G1 X196.719 Y175.702 E2.0343
G1 X197.600 Y175.988 E2.0898
G1 X198.518 Y176.113 E2.1453
G1 X199.444 Y176.071 E2.2008
G1 X200.590 Y175.809 E2.2711
G1 X200.590 Y181.989 E2.6411
G1 X195.090 Y181.989 E2.9704
G1 X195.090 Y200.640 E4.0870
G1 X160.145 Y200.640 E6.1791
G1 X157.410 Y197.905 E6.4106
G1 X157.410 Y186.945 E7.0668
G1 X177.437 Y153.360 E9.4078
G1 X194.100 Y153.360 E10.4054
G1 X194.300 Y153.360 F1992
G1 X193.530 Y153.840 F7200
G92 E0.0000
G1 X193.303 Y154.446 E0.0387 F1992
G1 X193.122 Y155.442 E0.0994
G1 X193.122 Y156.456 E0.1600
