; G-Code generated by Simplify3D(R) Version 4.1.2
; Apr 22, 2021 at 10:03:52 AM
; Settings Summary
;   processName,Process1
;   applyToModels,plate nf crazy plus
;   profileName,BLV mgn Cube-  Simplify3D Profile
;   profileVersion,2021-04-21 18:40:17
;   baseProfile,Anet A8
;   printMaterial,PLA
;   printQuality,Medium
;   printExtruders,
;   extruderName,Primary Extruder
;   extruderToolheadNumber,0
;   extruderDiameter,0.4
;   extruderAutoWidth,1
;   extruderWidth,0.48
;   extrusionMultiplier,1
;   extruderUseRetract,1
;   extruderRetractionDistance,1.5
;   extruderExtraRestartDistance,0
;   extruderRetractionZLift,0
;   extruderRetractionSpeed,5100
;   extruderUseCoasting,1
;   extruderCoastingDistance,0.2
;   extruderUseWipe,1
;   extruderWipeDistance,4
;   primaryExtruder,0
;   layerHeight,0.2
;   topSolidLayers,6
;   bottomSolidLayers,6
;   perimeterOutlines,6
;   printPerimetersInsideOut,0
;   startPointOption,3
;   startPointOriginX,0
;   startPointOriginY,500
;   sequentialIslands,0
;   spiralVaseMode,0
;   firstLayerHeightPercentage,150
;   firstLayerWidthPercentage,100
;   firstLayerUnderspeed,0.4
;   useRaft,0
;   raftExtruder,0
;   raftTopLayers,3
;   raftBaseLayers,2
;   raftOffset,3
;   raftSeparationDistance,0.14
;   raftTopInfill,100
;   aboveRaftSpeedMultiplier,0.3
;   useSkirt,1
;   skirtExtruder,0
;   skirtLayers,1
;   skirtOutlines,2
;   skirtOffset,6
;   usePrimePillar,0
;   primePillarExtruder,999
;   primePillarWidth,12
;   primePillarLocation,7
;   primePillarSpeedMultiplier,1
;   useOozeShield,0
;   oozeShieldExtruder,999
;   oozeShieldOffset,2
;   oozeShieldOutlines,1
;   oozeShieldSidewallShape,1
;   oozeShieldSidewallAngle,30
;   oozeShieldSpeedMultiplier,1
;   infillExtruder,0
;   internalInfillPattern,Rectilinear
;   externalInfillPattern,Rectilinear
;   infillPercentage,15
;   outlineOverlapPercentage,15
;   infillExtrusionWidthPercentage,100
;   minInfillLength,5
;   infillLayerInterval,1
;   internalInfillAngles,45,-45
;   overlapInternalInfillAngles,0
;   externalInfillAngles,45,-45
;   generateSupport,1
;   supportExtruder,0
;   supportInfillPercentage,30
;   supportExtraInflation,0
;   supportBaseLayers,0
;   denseSupportExtruder,0
;   denseSupportLayers,0
;   denseSupportInfillPercentage,70
;   supportLayerInterval,1
;   supportHorizontalPartOffset,0.4
;   supportUpperSeparationLayers,1
;   supportLowerSeparationLayers,1
;   supportType,0
;   supportGridSpacing,1
;   maxOverhangAngle,45
;   supportAngles,0
;   temperatureName,Primary Extruder,Heated Bed
;   temperatureNumber,0,0
;   temperatureSetpointCount,2,1
;   temperatureSetpointLayers,1,2,1
;   temperatureSetpointTemperatures,215,210,60
;   temperatureStabilizeAtStartup,1,1
;   temperatureHeatedBed,0,1
;   fanLayers,1,2
;   fanSpeeds,0,100
;   blipFanToFullPower,1
;   adjustSpeedForCooling,1
;   minSpeedLayerTime,15
;   minCoolingSpeedSlowdown,20
;   increaseFanForCooling,0
;   minFanLayerTime,45
;   maxCoolingFanSpeed,100
;   increaseFanForBridging,1
;   bridgingFanSpeed,100
;   use5D,1
;   relativeEdistances,0
;   allowEaxisZeroing,1
;   independentExtruderAxes,0
;   includeM10123,0
;   stickySupport,1
;   applyToolheadOffsets,0
;   gcodeXoffset,24
;   gcodeYoffset,22
;   gcodeZoffset,0
;   overrideMachineDefinition,1
;   machineTypeOverride,0
;   strokeXoverride,310
;   strokeYoverride,310
;   strokeZoverride,334
;   originOffsetXoverride,0
;   originOffsetYoverride,0
;   originOffsetZoverride,0
;   homeXdirOverride,-1
;   homeYdirOverride,-1
;   homeZdirOverride,-1
;   flipXoverride,1
;   flipYoverride,-1
;   flipZoverride,1
;   toolheadOffsets,0,0|0,0|0,0|0,0|0,0|0,0
;   overrideFirmwareConfiguration,1
;   firmwareTypeOverride,RepRap (Marlin/Repetier/Sprinter)
;   GPXconfigOverride,r2
;   baudRateOverride,115200
;   overridePrinterModels,1
;   printerModelsOverride,Blvfull.stl
;   startingGcode,M291 P"Homing all axis" R"Printing.." S1 T2,G21		; metric values,G28		; home all,M98 P"/macros/load_meshbed"	; load mesh bed corresponding to the temp,M98 P"/macros/set_baby_step"	; set baby step,M98 P"/macros/purge_and_prime"; purge and do the prime line,,G92 E0 F100		; reset extruder,G1 Z10 F3000 		; move z up little to prevent scratching of surface,G92 E0 		; reset extruder,M291 P"Printing started !" R"Printing.." S1 T3
;   layerChangeGcode,
;   retractionGcode,
;   toolChangeGcode,
;   endingGcode,M104 S0 ; turn off extruder,M140 S0 ; turn off bed,M98 P"/macros/remove_baby_step"	; unset baby step,M98 P"/macros/rise30mm",G1 X0 Y300 F1000 ; prepare for part removal,M84 ; disable motors,M106 S0 ;turn off part cooling fan,;M81 ; shutdown,; play song,M300 S294 P200 ;D4: 294,M300 S588 P200 ;D5: 588,M300 S440 P200 ;A4: 440,M300 S392 P200 ;G4: 392,M300 S784 P200 ;G5: 784,M300 S440 P200 ;A4: 440,M300 S740 P200 ;F#5: 740,M300 S440 P200 ;A4: 440,M291 P"Printing finished !" R"Printing.." S1 T0,
;   exportFileFormat,gcode
;   celebration,0
;   celebrationSong,Star Wars
;   postProcessing,
;   defaultSpeed,6000
;   outlineUnderspeed,0.66
;   solidInfillUnderspeed,0.8
;   supportUnderspeed,0.8
;   rapidXYspeed,7200
;   rapidZspeed,1002
;   minBridgingArea,50
;   bridgingExtraInflation,0
;   bridgingExtrusionMultiplier,1
;   bridgingSpeedMultiplier,1
;   useFixedBridgingAngle,0
;   fixedBridgingAngle,0
;   applyBridgingToPerimeters,1
;   filamentDiameters,1.75|1.75|1.75|1.75|1.75|1.75
;   filamentPricesPerKg,30|110|110|110|110|110
;   filamentDensities,1.25|1.25|1.25|1.25|1.25|1.25
;   useMinPrintHeight,0
;   minPrintHeight,0
;   useMaxPrintHeight,0
;   maxPrintHeight,0
;   useDiaphragm,0
;   diaphragmLayerInterval,20
;   robustSlicing,1
;   mergeAllIntoSolid,0
;   onlyRetractWhenCrossingOutline,0
;   retractBetweenLayers,1
;   useRetractionMinTravel,1
;   retractionMinTravel,3
;   retractWhileWiping,1
;   onlyWipeOutlines,1
;   avoidCrossingOutline,1
;   maxMovementDetourFactor,3
;   toolChangeRetractionDistance,12
;   toolChangeExtraRestartDistance,-0.5
;   toolChangeRetractionSpeed,600
;   externalThinWallType,1
;   internalThinWallType,1
;   thinWallAllowedOverlapPercentage,15
;   singleExtrusionMinLength,1
;   singleExtrusionMinPrintingWidthPercentage,50
;   singleExtrusionMaxPrintingWidthPercentage,200
;   singleExtrusionEndpointExtension,0.2
;   horizontalSizeCompensation,0
G90
M82
M106 S0
M140 S60
M190 S60
M104 S215 T0
M109 S215 T0
M291 P"Homing all axis" R"Printing.." S1 T2
G21		; metric values
G28		; home all
M98 P"/macros/load_meshbed"	; load mesh bed corresponding to the temp
M98 P"/macros/set_baby_step"	; set baby step
M98 P"/macros/purge_and_prime"; purge and do the prime line
G92 E0 F100		; reset extruder
G1 Z10 F3000 		; move z up little to prevent scratching of surface
G92 E0 		; reset extruder
M291 P"Printing started !" R"Printing.." S1 T3
; process Process1
; layer 1, Z = 0.300
T0
G92 E0.0000
G1 E-1.5000 F5100
; feature skirt
; tool H0.300 W0.480
G1 Z0.300 F1002
G1 X119.862 Y177.270 F7200
G1 E0.0000 F5100
G92 E0.0000
G1 X115.925 Y173.333 E0.3333 F2400
G1 X115.925 Y122.766 E3.3606
G1 X116.060 Y122.632 E3.3720
G1 X116.060 Y119.496 E3.5597
G1 X125.060 Y110.496 E4.3217
G1 X125.060 Y86.496 E5.7586
G1 X129.997 Y81.560 E6.1765
G1 X130.997 Y81.560 E6.2364
G1 X131.997 Y80.560 E6.3211
G1 X132.997 Y80.560 E6.3809
G1 X133.997 Y79.560 E6.4656
G1 X134.997 Y79.560 E6.5255
G1 X135.997 Y78.560 E6.6101
G1 X137.997 Y78.560 E6.7299
G1 X138.997 Y77.560 E6.8145
G1 X142.997 Y77.560 E7.0540
G1 X143.997 Y76.560 E7.1387
G1 X163.004 Y76.560 E8.2766
G1 X164.004 Y77.560 E8.3613
G1 X167.004 Y77.560 E8.5409
G1 X168.004 Y78.560 E8.6255
G1 X170.004 Y78.560 E8.7453
G1 X171.004 Y79.560 E8.8299
G1 X173.004 Y79.560 E8.9497
G1 X174.004 Y80.560 E9.0343
G1 X175.004 Y80.560 E9.0942
G1 X176.004 Y81.560 E9.1789
G1 X177.004 Y81.560 E9.2387
G1 X181.940 Y86.496 E9.6567
G1 X181.940 Y122.632 E11.8201
G1 X182.074 Y122.766 E11.8315
G1 X182.074 Y173.333 E14.8588
G1 X178.138 Y177.270 E15.1921
G1 X119.862 Y177.270 E18.6810
G1 X120.061 Y176.790 F7200
G92 E0.0000
G1 X116.406 Y173.135 E0.3095 F2400
G1 X116.406 Y122.965 E3.3130
G1 X116.540 Y122.831 E3.3244
G1 X116.540 Y119.695 E3.5121
G1 X125.540 Y110.695 E4.2741
G1 X125.540 Y86.695 E5.7110
G1 X130.195 Y82.040 E6.1051
G1 X131.195 Y82.040 E6.1650
G1 X132.195 Y81.040 E6.2497
G1 X133.195 Y81.040 E6.3095
G1 X134.195 Y80.040 E6.3942
G1 X135.195 Y80.040 E6.4541
G1 X136.195 Y79.040 E6.5387
G1 X138.195 Y79.040 E6.6585
G1 X139.195 Y78.040 E6.7431
G1 X143.195 Y78.040 E6.9826
G1 X144.195 Y77.040 E7.0673
G1 X162.805 Y77.040 E8.1814
G1 X163.805 Y78.040 E8.2660
G1 X166.805 Y78.040 E8.4456
G1 X167.805 Y79.040 E8.5303
G1 X169.805 Y79.040 E8.6501
G1 X170.805 Y80.040 E8.7347
G1 X172.805 Y80.040 E8.8545
G1 X173.805 Y81.040 E8.9391
G1 X174.805 Y81.040 E8.9990
G1 X175.805 Y82.040 E9.0837
G1 X176.805 Y82.040 E9.1435
G1 X181.460 Y86.695 E9.5377
G1 X181.460 Y122.831 E11.7010
G1 X181.594 Y122.965 E11.7124
G1 X181.594 Y173.135 E14.7160
G1 X177.939 Y176.790 E15.0255
G1 X120.061 Y176.790 E18.4905
G92 E0.0000
G1 E-1.5000 F5100
; feature outer perimeter
G1 X122.885 Y170.310 F7200
G1 E0.0000 F5100
G92 E0.0000
G1 X122.885 Y125.790 E2.6653 F1584
G1 X175.114 Y125.790 E5.7922
G1 X175.114 Y170.310 E8.4575
G1 X123.085 Y170.310 E11.5724
G1 X122.885 Y170.310 F1584
G92 E0.0000
G1 X122.885 Y169.844 E-1.5000 F1584
G1 X122.885 Y166.310 F1584
; feature inner perimeter
G1 X123.365 Y169.830 F7200
G1 E0.0000 F5100
G92 E0.0000
G1 X123.365 Y126.270 E2.6079 F1992
G1 X174.634 Y126.270 E5.6772
G1 X174.634 Y169.830 E8.2851
G1 X123.565 Y169.830 E11.3425
G1 X123.365 Y169.830 F1992
G1 X123.846 Y169.350 F7200
G92 E0.0000
G1 X123.846 Y126.750 E2.5504 F1992
G1 X174.154 Y126.750 E5.5623
G1 X174.154 Y169.350 E8.1127
G1 X124.046 Y169.350 E11.1126
G1 X123.846 Y169.350 F1992
G1 X124.326 Y168.870 F7200
G92 E0.0000
G1 X124.326 Y127.230 E2.4929 F1992
G1 X173.674 Y127.230 E5.4474
G1 X173.674 Y168.870 E7.9403
G1 X124.525 Y168.870 E10.8827
G1 X124.326 Y168.870 F1992
G1 X124.805 Y168.390 F7200
G92 E0.0000
G1 X124.805 Y127.710 E2.4354 F1992
G1 X173.194 Y127.710 E5.3324
G1 X173.194 Y168.390 E7.7678
G1 X167.714 Y168.390 E8.0960
G1 X167.649 Y168.061 E8.1160
G1 X168.194 Y167.836 E8.1513
G1 X168.956 Y167.251 E8.2088
G1 X169.540 Y166.489 E8.2663
G1 X169.908 Y165.602 E8.3238
G1 X170.033 Y164.650 E8.3813
G1 X169.908 Y163.698 E8.4388
G1 X169.540 Y162.811 E8.4963
G1 X168.956 Y162.049 E8.5538
G1 X168.194 Y161.464 E8.6113
G1 X167.307 Y161.097 E8.6688
G1 X166.496 Y160.990 E8.7177
G1 X162.213 Y160.990 E8.9741
G1 X161.402 Y161.097 E9.0231
G1 X160.515 Y161.464 E9.0806
G1 X159.753 Y162.049 E9.1381
G1 X159.169 Y162.811 E9.1955
G1 X158.801 Y163.698 E9.2530
G1 X158.676 Y164.650 E9.3105
G1 X158.801 Y165.602 E9.3680
G1 X159.169 Y166.489 E9.4255
G1 X159.753 Y167.251 E9.4830
G1 X160.515 Y167.836 E9.5405
G1 X161.060 Y168.061 E9.5758
G1 X160.995 Y168.390 E9.5959
G1 X136.714 Y168.390 E11.0495
G1 X136.649 Y168.061 E11.0696
G1 X137.194 Y167.836 E11.1049
G1 X137.956 Y167.251 E11.1624
G1 X138.540 Y166.489 E11.2199
G1 X138.908 Y165.602 E11.2774
G1 X139.033 Y164.650 E11.3349
G1 X138.908 Y163.698 E11.3924
G1 X138.540 Y162.811 E11.4499
G1 X137.956 Y162.049 E11.5074
G1 X137.194 Y161.464 E11.5648
G1 X136.307 Y161.097 E11.6223
G1 X135.496 Y160.990 E11.6713
G1 X131.201 Y160.991 E11.9284
G1 X130.402 Y161.097 E11.9766
G1 X129.515 Y161.464 E12.0341
G1 X128.753 Y162.049 E12.0916
G1 X128.169 Y162.811 E12.1491
G1 X127.801 Y163.698 E12.2066
G1 X127.676 Y164.650 E12.2641
G1 X127.801 Y165.602 E12.3216
G1 X128.169 Y166.489 E12.3791
G1 X128.753 Y167.251 E12.4366
G1 X129.515 Y167.836 E12.4941
G1 X130.060 Y168.061 E12.5294
G1 X129.995 Y168.390 E12.5494
G1 X125.006 Y168.390 E12.8482
G1 X124.805 Y168.390 F1992
G1 X125.285 Y167.910 F7200
G92 E0.0000
G1 X125.285 Y128.190 E2.3780 F1992
G1 X172.714 Y128.190 E5.2175
G1 X172.714 Y167.910 E7.5954
G1 X169.055 Y167.910 E7.8145
G1 X169.960 Y166.731 E7.9034
G1 X170.375 Y165.727 E7.9685
G1 X170.517 Y164.650 E8.0336
G1 X170.375 Y163.572 E8.0986
G1 X169.959 Y162.568 E8.1637
G1 X169.298 Y161.706 E8.2287
G1 X168.436 Y161.045 E8.2938
G1 X167.432 Y160.629 E8.3589
G1 X166.528 Y160.510 E8.4135
G1 X162.181 Y160.510 E8.6737
G1 X161.277 Y160.629 E8.7283
G1 X160.273 Y161.045 E8.7933
G1 X159.411 Y161.706 E8.8584
G1 X158.749 Y162.569 E8.9234
G1 X158.334 Y163.572 E8.9885
G1 X158.192 Y164.650 E9.0536
G1 X158.334 Y165.727 E9.1186
G1 X158.749 Y166.731 E9.1837
G1 X159.654 Y167.910 E9.2726
G1 X138.055 Y167.910 E10.5657
G1 X138.960 Y166.731 E10.6546
G1 X139.375 Y165.727 E10.7197
G1 X139.517 Y164.650 E10.7847
G1 X139.375 Y163.572 E10.8498
G1 X138.960 Y162.568 E10.9149
G1 X138.298 Y161.706 E10.9799
G1 X137.436 Y161.045 E11.0450
G1 X136.432 Y160.629 E11.1100
G1 X135.527 Y160.510 E11.1647
G1 X131.169 Y160.511 E11.4256
G1 X130.277 Y160.629 E11.4795
G1 X129.273 Y161.045 E11.5445
G1 X128.411 Y161.706 E11.6096
G1 X127.749 Y162.569 E11.6746
G1 X127.334 Y163.572 E11.7397
G1 X127.192 Y164.650 E11.8047
G1 X127.334 Y165.727 E11.8698
G1 X127.749 Y166.731 E11.9349
G1 X128.654 Y167.910 E12.0238
G1 X125.486 Y167.910 E12.2135
G1 X125.285 Y167.910 F1992
G92 E0.0000
G1 E-1.5000 F5100
; feature outer perimeter
G1 X129.846 Y165.521 F7200
G1 E0.0000 F5100
G92 E0.0000
G1 X130.123 Y165.882 E0.0272 F1584
G1 X130.483 Y166.159 E0.0545
G1 X130.904 Y166.333 E0.0817
G1 X131.339 Y166.390 E0.1080
G1 X135.370 Y166.390 E0.3493
G1 X135.805 Y166.333 E0.3756
G1 X136.226 Y166.159 E0.4028
G1 X136.586 Y165.882 E0.4300
G1 X136.863 Y165.521 E0.4573
G1 X137.037 Y165.101 E0.4845
G1 X137.097 Y164.650 E0.5117
G1 X137.037 Y164.199 E0.5389
G1 X136.863 Y163.779 E0.5662
G1 X136.586 Y163.418 E0.5934
G1 X136.226 Y163.141 E0.6206
G1 X135.805 Y162.967 E0.6479
G1 X135.370 Y162.910 E0.6741
G1 X131.327 Y162.911 E0.9162
G1 X130.904 Y162.967 E0.9418
G1 X130.483 Y163.141 E0.9690
G1 X130.123 Y163.418 E0.9962
G1 X129.846 Y163.779 E1.0234
G1 X129.672 Y164.199 E1.0507
G1 X129.612 Y164.650 E1.0779
G1 X129.672 Y165.101 E1.1051
G1 X129.769 Y165.336 E1.1204
G1 X129.846 Y165.521 F1584
G1 X130.123 Y165.882 F1584
G1 X130.483 Y166.159
G1 X130.904 Y166.333
G1 X131.339 Y166.390
G1 X133.536 Y166.390
; feature inner perimeter
G1 X135.402 Y166.870 F7200
G92 E0.0000
G1 X135.931 Y166.800 E0.0319 F1992
G1 X136.468 Y166.578 E0.0667
G1 X136.929 Y166.224 E0.1015
G1 X137.282 Y165.763 E0.1363
G1 X137.505 Y165.226 E0.1711
G1 X137.581 Y164.650 E0.2059
G1 X137.505 Y164.074 E0.2407
G1 X137.282 Y163.537 E0.2755
G1 X136.929 Y163.076 E0.3103
G1 X136.468 Y162.722 E0.3451
G1 X135.931 Y162.500 E0.3799
G1 X135.402 Y162.430 E0.4118
G1 X131.295 Y162.431 E0.6576
G1 X130.778 Y162.500 E0.6889
G1 X130.241 Y162.722 E0.7237
G1 X129.780 Y163.076 E0.7585
G1 X129.427 Y163.537 E0.7933
G1 X129.204 Y164.074 E0.8281
G1 X129.128 Y164.650 E0.8628
G1 X129.204 Y165.226 E0.8976
G1 X129.427 Y165.763 E0.9324
G1 X129.780 Y166.224 E0.9672
G1 X130.241 Y166.578 E1.0020
G1 X130.778 Y166.800 E1.0368
G1 X131.307 Y166.870 E1.0688
G1 X135.202 Y166.870 E1.3019
G1 X135.402 Y166.870 F1992
G1 X135.433 Y167.350 F7200
G92 E0.0000
G1 X136.056 Y167.268 E0.0376 F1992
G1 X136.710 Y166.997 E0.0800
G1 X137.271 Y166.566 E0.1223
G1 X137.702 Y166.005 E0.1647
G1 X137.972 Y165.351 E0.2071
G1 X138.065 Y164.650 E0.2494
G1 X137.972 Y163.948 E0.2918
G1 X137.702 Y163.295 E0.3341
G1 X137.271 Y162.733 E0.3765
G1 X136.710 Y162.303 E0.4188
G1 X136.056 Y162.032 E0.4612
G1 X135.433 Y161.950 E0.4988
G1 X131.264 Y161.951 E0.7484
G1 X130.653 Y162.032 E0.7853
G1 X129.999 Y162.303 E0.8277
G1 X129.438 Y162.733 E0.8700
G1 X129.007 Y163.295 E0.9124
G1 X128.736 Y163.948 E0.9548
G1 X128.644 Y164.650 E0.9971
G1 X128.736 Y165.351 E1.0395
