; G-Code generated by Simplify3D(R) Version 4.1.2
; Apr 18, 2021 at 9:46:12 PM
; Settings Summary
;   processName,Process1
;   applyToModels,support dragchain x carriage
;   profileName,BLV mgn Cube-  Simplify3D Profile (modified)
;   profileVersion,2021-04-02 01:52:57
;   baseProfile,Anet A8
;   printMaterial,PLA
;   printQuality,Medium
;   printExtruders,
;   extruderName,Primary Extruder
;   extruderToolheadNumber,0
;   extruderDiameter,0.4
;   extruderAutoWidth,1
;   extruderWidth,0.48
;   extrusionMultiplier,1
;   extruderUseRetract,1
;   extruderRetractionDistance,1.5
;   extruderExtraRestartDistance,0
;   extruderRetractionZLift,0
;   extruderRetractionSpeed,5100
;   extruderUseCoasting,1
;   extruderCoastingDistance,0.2
;   extruderUseWipe,1
;   extruderWipeDistance,4
;   primaryExtruder,0
;   layerHeight,0.2
;   topSolidLayers,6
;   bottomSolidLayers,6
;   perimeterOutlines,6
;   printPerimetersInsideOut,0
;   startPointOption,3
;   startPointOriginX,0
;   startPointOriginY,500
;   sequentialIslands,0
;   spiralVaseMode,0
;   firstLayerHeightPercentage,150
;   firstLayerWidthPercentage,100
;   firstLayerUnderspeed,0.4
;   useRaft,0
;   raftExtruder,0
;   raftTopLayers,3
;   raftBaseLayers,2
;   raftOffset,3
;   raftSeparationDistance,0.14
;   raftTopInfill,100
;   aboveRaftSpeedMultiplier,0.3
;   useSkirt,1
;   skirtExtruder,0
;   skirtLayers,1
;   skirtOutlines,2
;   skirtOffset,6
;   usePrimePillar,0
;   primePillarExtruder,999
;   primePillarWidth,12
;   primePillarLocation,7
;   primePillarSpeedMultiplier,1
;   useOozeShield,0
;   oozeShieldExtruder,999
;   oozeShieldOffset,2
;   oozeShieldOutlines,1
;   oozeShieldSidewallShape,1
;   oozeShieldSidewallAngle,30
;   oozeShieldSpeedMultiplier,1
;   infillExtruder,0
;   internalInfillPattern,Rectilinear
;   externalInfillPattern,Rectilinear
;   infillPercentage,15
;   outlineOverlapPercentage,15
;   infillExtrusionWidthPercentage,100
;   minInfillLength,5
;   infillLayerInterval,1
;   internalInfillAngles,45,-45
;   overlapInternalInfillAngles,0
;   externalInfillAngles,45,-45
;   generateSupport,1
;   supportExtruder,0
;   supportInfillPercentage,30
;   supportExtraInflation,0
;   supportBaseLayers,0
;   denseSupportExtruder,0
;   denseSupportLayers,0
;   denseSupportInfillPercentage,70
;   supportLayerInterval,1
;   supportHorizontalPartOffset,0.4
;   supportUpperSeparationLayers,1
;   supportLowerSeparationLayers,1
;   supportType,0
;   supportGridSpacing,1
;   maxOverhangAngle,45
;   supportAngles,45,-45
;   temperatureName,Primary Extruder,Heated Bed
;   temperatureNumber,0,0
;   temperatureSetpointCount,2,1
;   temperatureSetpointLayers,1,2,1
;   temperatureSetpointTemperatures,215,210,60
;   temperatureStabilizeAtStartup,1,1
;   temperatureHeatedBed,0,1
;   fanLayers,1,2
;   fanSpeeds,0,100
;   blipFanToFullPower,1
;   adjustSpeedForCooling,1
;   minSpeedLayerTime,15
;   minCoolingSpeedSlowdown,20
;   increaseFanForCooling,0
;   minFanLayerTime,45
;   maxCoolingFanSpeed,100
;   increaseFanForBridging,1
;   bridgingFanSpeed,100
;   use5D,1
;   relativeEdistances,0
;   allowEaxisZeroing,1
;   independentExtruderAxes,0
;   includeM10123,0
;   stickySupport,1
;   applyToolheadOffsets,0
;   gcodeXoffset,24
;   gcodeYoffset,22
;   gcodeZoffset,0
;   overrideMachineDefinition,1
;   machineTypeOverride,0
;   strokeXoverride,310
;   strokeYoverride,310
;   strokeZoverride,334
;   originOffsetXoverride,0
;   originOffsetYoverride,0
;   originOffsetZoverride,0
;   homeXdirOverride,-1
;   homeYdirOverride,-1
;   homeZdirOverride,-1
;   flipXoverride,1
;   flipYoverride,-1
;   flipZoverride,1
;   toolheadOffsets,0,0|0,0|0,0|0,0|0,0|0,0
;   overrideFirmwareConfiguration,1
;   firmwareTypeOverride,RepRap (Marlin/Repetier/Sprinter)
;   GPXconfigOverride,r2
;   baudRateOverride,115200
;   overridePrinterModels,1
;   printerModelsOverride,Blvfull.stl
;   startingGcode,M291 P"Homing all axis" R"Printing.." S1 T2,G21		; metric values,G28		; home all,M98 P"/macros/load_meshbed"	; load mesh bed corresponding to the temp,M98 P"/macros/set_baby_step"	; set baby step,M98 P"/macros/purge_and_prime"; purge and do the prime line,,G92 E0 F100		; reset extruder,G1 Z10 F3000 		; move z up little to prevent scratching of surface,G92 E0 		; reset extruder,M291 P"Printing started !" R"Printing.." S1 T3
;   layerChangeGcode,
;   retractionGcode,
;   toolChangeGcode,
;   endingGcode,M104 S0 ; turn off extruder,M140 S0 ; turn off bed,M98 P"/macros/remove_baby_step"	; unset baby step,M98 P"/macros/rise30mm",G1 X0 Y300 F1000 ; prepare for part removal,M84 ; disable motors,M106 S0 ;turn off part cooling fan,;M81 ; shutdown,; play song,M300 S294 P200 ;D4: 294,M300 S588 P200 ;D5: 588,M300 S440 P200 ;A4: 440,M300 S392 P200 ;G4: 392,M300 S784 P200 ;G5: 784,M300 S440 P200 ;A4: 440,M300 S740 P200 ;F#5: 740,M300 S440 P200 ;A4: 440,M291 P"Printing finished !" R"Printing.." S1 T0,
;   exportFileFormat,gcode
;   celebration,0
;   celebrationSong,Star Wars
;   postProcessing,
;   defaultSpeed,6000
;   outlineUnderspeed,0.66
;   solidInfillUnderspeed,0.8
;   supportUnderspeed,0.8
;   rapidXYspeed,7200
;   rapidZspeed,1002
;   minBridgingArea,50
;   bridgingExtraInflation,0
;   bridgingExtrusionMultiplier,1
;   bridgingSpeedMultiplier,1
;   useFixedBridgingAngle,0
;   fixedBridgingAngle,0
;   applyBridgingToPerimeters,1
;   filamentDiameters,1.75|1.75|1.75|1.75|1.75|1.75
;   filamentPricesPerKg,30|110|110|110|110|110
;   filamentDensities,1.25|1.25|1.25|1.25|1.25|1.25
;   useMinPrintHeight,0
;   minPrintHeight,0
;   useMaxPrintHeight,0
;   maxPrintHeight,0
;   useDiaphragm,0
;   diaphragmLayerInterval,20
;   robustSlicing,1
;   mergeAllIntoSolid,0
;   onlyRetractWhenCrossingOutline,0
;   retractBetweenLayers,1
;   useRetractionMinTravel,1
;   retractionMinTravel,3
;   retractWhileWiping,1
;   onlyWipeOutlines,1
;   avoidCrossingOutline,1
;   maxMovementDetourFactor,3
;   toolChangeRetractionDistance,12
;   toolChangeExtraRestartDistance,-0.5
;   toolChangeRetractionSpeed,600
;   externalThinWallType,1
;   internalThinWallType,1
;   thinWallAllowedOverlapPercentage,15
;   singleExtrusionMinLength,1
;   singleExtrusionMinPrintingWidthPercentage,50
;   singleExtrusionMaxPrintingWidthPercentage,200
;   singleExtrusionEndpointExtension,0.2
;   horizontalSizeCompensation,0
G90
M82
M106 S0
M140 S60
M190 S60
M104 S215 T0
M109 S215 T0
M291 P"Homing all axis" R"Printing.." S1 T2
G21		; metric values
G28		; home all
M98 P"/macros/load_meshbed"	; load mesh bed corresponding to the temp
M98 P"/macros/set_baby_step"	; set baby step
M98 P"/macros/purge_and_prime"; purge and do the prime line
G92 E0 F100		; reset extruder
G1 Z10 F3000 		; move z up little to prevent scratching of surface
G92 E0 		; reset extruder
M291 P"Printing started !" R"Printing.." S1 T3
; process Process1
; layer 1, Z = 0.300
T0
G92 E0.0000
G1 E-1.5000 F5100
; feature skirt
; tool H0.300 W0.480
G1 Z0.300 F1002
G1 X155.007 Y200.387 F7200
G1 E0.0000 F5100
G92 E0.0000
G1 X151.071 Y196.451 E0.3333 F2400
G1 X151.071 Y185.885 E0.9658
G1 X155.007 Y181.949 E1.2991
G1 X188.060 Y181.949 E3.2779
G1 X188.060 Y162.377 E4.4497
G1 X191.997 Y158.440 E4.7829
G1 X203.004 Y158.440 E5.4419
G1 X206.940 Y162.377 E5.7752
G1 X206.940 Y189.383 E7.3921
G1 X206.929 Y189.395 E7.3930
G1 X206.929 Y196.452 E7.8155
G1 X202.992 Y200.389 E8.1488
G1 X155.007 Y200.387 E11.0216
G1 X155.206 Y199.907 F7200
G92 E0.0000
G1 X151.551 Y196.252 E0.3095 F2400
G1 X151.551 Y186.084 E0.9182
G1 X155.206 Y182.429 E1.2277
G1 X188.540 Y182.429 E3.2233
G1 X188.540 Y162.575 E4.4119
G1 X192.195 Y158.920 E4.7214
G1 X202.805 Y158.920 E5.3566
G1 X206.460 Y162.575 E5.6660
G1 X206.460 Y189.185 E7.2591
G1 X206.449 Y189.196 E7.2600
G1 X206.449 Y196.253 E7.6825
G1 X202.794 Y199.909 E7.9920
G1 X155.206 Y199.907 E10.8410
G92 E0.0000
G1 E-1.5000 F5100
; feature outer perimeter
G1 X158.031 Y193.427 F7200
G1 E0.0000 F5100
G92 E0.0000
G1 X158.031 Y188.909 E0.2705 F1584
G1 X195.449 Y188.909 E2.5107
G1 X195.449 Y188.082 E2.5602
G1 X199.969 Y188.082 E2.8308
G1 X199.969 Y193.429 E3.1509
G1 X158.231 Y193.427 E5.6497
G1 X158.031 Y193.427 F1584
G1 X158.031 Y189.427 F1584
; feature inner perimeter
G1 X158.511 Y189.389 F7200
G92 E0.0000
G1 X195.929 Y189.389 E2.2402 F1992
G1 X195.929 Y188.562 E2.2897
G1 X199.489 Y188.562 E2.5028
G1 X199.489 Y192.949 E2.7654
G1 X158.511 Y192.947 E5.2187
G1 X158.511 Y189.589 E5.4198
G1 X158.511 Y189.389 F1992
G1 X158.991 Y189.869 F7200
G92 E0.0000
G1 X196.409 Y189.869 E2.2402 F1992
G1 X196.409 Y189.042 E2.2897
G1 X199.009 Y189.042 E2.4453
G1 X199.009 Y192.469 E2.6505
G1 X158.991 Y192.467 E5.0463
G1 X158.991 Y190.069 E5.1899
G1 X158.991 Y189.869 F1992
G1 X159.471 Y190.349 F7200
G92 E0.0000
G1 X196.889 Y190.349 E2.2402 F1992
G1 X196.889 Y189.522 E2.2897
G1 X198.529 Y189.522 E2.3878
G1 X198.529 Y191.989 E2.5355
G1 X159.471 Y191.987 E4.8739
G1 X159.471 Y190.549 E4.9600
G1 X159.471 Y190.349 F1992
G1 X159.951 Y190.829 F7200
G92 E0.0000
G1 X197.369 Y190.829 E2.2402 F1992
G1 X197.369 Y190.002 E2.2897
G1 X198.049 Y190.002 E2.3304
G1 X198.049 Y191.509 E2.4206
G1 X159.951 Y191.507 E4.7014
G1 X159.951 Y191.029 E4.7301
G1 X159.951 Y190.829 F1992
; feature internal single extrusion
; tool H0.300 W0.240
G1 X160.183 Y191.168 F7200
G92 E0.0000
G1 X197.513 Y191.169 E1.1174 F1584
G1 X197.609 Y191.169 E1.1203
G1 X197.649 Y191.165 E1.1215
G1 X197.692 Y191.151 E1.1229
G1 X197.705 Y191.108 E1.1242
G1 X197.709 Y191.069 E1.1254
G1 X197.709 Y190.977 E1.1282
G1 X197.709 Y190.425 E1.1447
G1 X197.709 Y190.225 F1584
G92 E0.0000
G1 E-1.5000 F5100
; feature support
; tool H0.300 W0.480
G1 X196.994 Y185.823 F7200
G1 E0.0000 F5100
G92 E0.0000
G1 X195.030 Y183.859 E0.1663 F1920
G1 X195.030 Y181.596 E0.3018
G1 X199.257 Y185.823 E0.6597
G1 X199.970 Y185.823 E0.7024
G1 X199.970 Y184.274 E0.7951
G1 X195.030 Y179.334 E1.2134
G1 X195.030 Y177.071 E1.3489
G1 X199.970 Y182.011 E1.7671
G1 X199.970 Y179.748 E1.9026
G1 X195.030 Y174.808 E2.3208
G1 X195.030 Y172.545 E2.4563
G1 X199.970 Y177.485 E2.8745
G1 X199.970 Y175.223 E3.0100
G1 X195.030 Y170.283 E3.4283
G1 X195.030 Y168.020 E3.5637
G1 X199.970 Y172.960 E3.9820
G1 X199.970 Y170.697 E4.1175
G1 X195.030 Y165.757 E4.5357
G1 X195.030 Y165.410 E4.5565
G1 X196.946 Y165.410 E4.6712
G1 X199.970 Y168.434 E4.9272
G1 X199.970 Y166.172 E5.0627
G1 X199.350 Y165.552 E5.1152
G1 X199.208 Y165.410 F1920
G92 E0.0000
G1 E-1.5000 F5100
; layer 2, Z = 0.500
M106 S255
M104 S210 T0
; feature outer perimeter
; tool H0.200 W0.480
G1 Z0.500 F1002
G1 X199.969 Y188.082 F7200
G1 X195.449 Y188.082
G1 X195.449 Y188.909
G1 X164.670 Y188.909
G1 X158.031 Y193.425
G1 E0.0000 F5100
G92 E0.0000
G1 X158.031 Y188.909 E0.1803 F1937
G1 X195.449 Y188.909 E1.6737
G1 X195.449 Y186.703 E1.7617
G1 X199.969 Y186.703 E1.9421
G1 X199.969 Y193.429 E2.2105
G1 X158.231 Y193.425 E3.8764
G1 X158.031 Y193.425 F1937
G1 X158.031 Y189.425 F1937
; feature inner perimeter
G1 X158.511 Y189.389 F7200
G92 E0.0000
G1 X195.929 Y189.389 E1.4934 F2436
G1 X195.929 Y187.183 E1.5814
G1 X199.489 Y187.183 E1.7235
G1 X199.489 Y192.949 E1.9536
G1 X158.511 Y192.945 E3.5891
G1 X158.511 Y189.589 E3.7231
G1 X158.511 Y189.389 F2436
G1 X158.991 Y189.869 F7200
G92 E0.0000
G1 X196.409 Y189.869 E1.4934 F2436
G1 X196.409 Y187.663 E1.5814
G1 X199.009 Y187.663 E1.6852
G1 X199.009 Y192.468 E1.8770
G1 X158.991 Y192.465 E3.4742
G1 X158.991 Y190.069 E3.5699
G1 X158.991 Y189.869 F2436
G1 X159.471 Y190.349 F7200
G92 E0.0000
G1 X196.889 Y190.349 E1.4934 F2436
G1 X196.889 Y188.143 E1.5814
G1 X198.529 Y188.143 E1.6469
G1 X198.529 Y191.988 E1.8004
G1 X159.471 Y191.985 E3.3592
G1 X159.471 Y190.549 E3.4166
G1 X159.471 Y190.349 F2436
G1 X159.951 Y190.829 F7200
G92 E0.0000
G1 X197.369 Y190.829 E1.4934 F2436
G1 X197.369 Y188.623 E1.5814
G1 X198.049 Y188.623 E1.6086
G1 X198.049 Y191.508 E1.7237
G1 X159.951 Y191.505 E3.2443
G1 X159.951 Y191.029 E3.2633
G1 X159.951 Y190.829 F2436
; feature internal single extrusion
; tool H0.200 W0.240
G1 X160.183 Y191.167 F7200
G92 E0.0000
G1 X197.513 Y191.168 E0.7450 F1937
G1 X197.609 Y191.168 E0.7469
G1 X197.649 Y191.165 E0.7477
G1 X197.692 Y191.151 E0.7486
G1 X197.705 Y191.108 E0.7495
G1 X197.709 Y191.069 E0.7503
G1 X197.709 Y190.973 E0.7522
G1 X197.709 Y189.055 E0.7904
G1 X197.709 Y189.048 E0.7906
G1 X197.709 Y188.848 F1937
G92 E0.0000
G1 E-1.5000 F5100
; feature support
; tool H0.200 W0.480
G1 X198.622 Y186.703 F7200
G1 X199.969 Y186.703
G1 X199.970 Y183.538
G1 E0.0000 F5100
G92 E0.0000
G1 X198.787 Y184.721 E0.0668 F2348
G1 X196.524 Y184.721 E0.1571
G1 X199.970 Y181.275 E0.3516
G1 X199.970 Y179.012 E0.4419
G1 X195.030 Y183.952 E0.7208
G1 X195.030 Y181.689 E0.8111
G1 X199.970 Y176.749 E1.0899
G1 X199.970 Y174.487 E1.1802
G1 X195.030 Y179.427 E1.4591
G1 X195.030 Y177.164 E1.5494
G1 X199.970 Y172.224 E1.8282
G1 X199.970 Y169.961 E1.9185
G1 X195.030 Y174.901 E2.1973
G1 X195.030 Y172.638 E2.2877
G1 X199.970 Y167.698 E2.5665
G1 X199.970 Y165.436 E2.6568
G1 X195.030 Y170.376 E2.9356
G1 X195.030 Y168.113 E3.0259
G1 X197.733 Y165.410 E3.1785
G1 X195.470 Y165.410 E3.2688
G1 X195.171 Y165.709 E3.2857
G1 X195.030 Y165.850 F2348
G92 E0.0000
G1 E-1.5000 F5100
; layer 3, Z = 0.700
; feature outer perimeter
G1 Z0.700 F1002
G1 X195.449 Y186.703 F7200
G1 X195.449 Y188.909
G1 X164.095 Y188.909
G1 X158.035 Y193.425
G1 X158.031 Y193.429
G1 E0.0000 F5100
G92 E0.0000
G1 X158.031 Y188.909 E0.1804 F1959
G1 X195.449 Y188.909 E1.6738
G1 X195.449 Y185.601 E1.8059
G1 X199.969 Y185.601 E1.9863
G1 X199.969 Y193.429 E2.2987
G1 X158.231 Y193.429 E3.9645
G1 X158.031 Y193.429 F1959
G1 X158.031 Y189.429 F1959
; feature inner perimeter
G1 X158.511 Y189.389 F7200
G92 E0.0000
G1 X195.929 Y189.389 E1.4934 F2463
G1 X195.929 Y186.081 E1.6254
G1 X199.489 Y186.081 E1.7675
G1 X199.489 Y192.949 E2.0416
G1 X158.511 Y192.949 E3.6772
G1 X158.511 Y189.589 E3.8113
G1 X158.511 Y189.389 F2463
G1 X158.991 Y189.869 F7200
G92 E0.0000
G1 X196.409 Y189.869 E1.4934 F2463
G1 X196.409 Y186.561 E1.6254
G1 X199.009 Y186.561 E1.7292
G1 X199.009 Y192.469 E1.9650
G1 X158.991 Y192.469 E3.5622
G1 X158.991 Y190.069 E3.6580
G1 X158.991 Y189.869 F2463
G1 X159.471 Y190.349 F7200
G92 E0.0000
G1 X196.889 Y190.349 E1.4934 F2463
G1 X196.889 Y187.041 E1.6254
G1 X198.529 Y187.041 E1.6909
G1 X198.529 Y191.989 E1.8884
G1 X159.471 Y191.989 E3.4473
G1 X159.471 Y190.549 E3.5047
G1 X159.471 Y190.349 F2463
G1 X159.951 Y190.829 F7200
G92 E0.0000
G1 X197.369 Y190.829 E1.4934 F2463
G1 X197.369 Y187.521 E1.6254
G1 X198.049 Y187.521 E1.6526
G1 X198.049 Y191.509 E1.8117
G1 X159.951 Y191.509 E3.3323
G1 X159.951 Y191.029 E3.3515
G1 X159.951 Y190.829 F2463
; feature internal single extrusion
; tool H0.200 W0.240
G1 X160.183 Y191.169 F7200
G92 E0.0000
G1 X197.513 Y191.169 E0.7450 F1959
G1 X197.609 Y191.169 E0.7469
G1 X197.649 Y191.165 E0.7477
G1 X197.692 Y191.151 E0.7486
G1 X197.705 Y191.108 E0.7495
G1 X197.709 Y191.069 E0.7503
G1 X197.709 Y190.974 E0.7522
G1 X197.709 Y187.950 E0.8125
G1 X197.709 Y187.750 F1959
G92 E0.0000
G1 E-1.5000 F5100
; feature support
; tool H0.200 W0.480
G1 X196.773 Y185.601 F7200
G1 X195.449 Y185.601
G1 X195.030 Y181.596
G1 E0.0000 F5100
G92 E0.0000
G1 X197.052 Y183.618 E0.1141 F2374
G1 X199.315 Y183.618 E0.2044
G1 X195.030 Y179.334 E0.4463
G1 X195.030 Y177.071 E0.5366
G1 X199.970 Y182.011 E0.8154
G1 X199.970 Y179.748 E0.9057
G1 X195.030 Y174.808 E1.1846
G1 X195.030 Y172.545 E1.2749
G1 X199.970 Y177.485 E1.5537
G1 X199.970 Y175.223 E1.6440
G1 X195.030 Y170.283 E1.9229
G1 X195.030 Y168.020 E2.0132
G1 X199.970 Y172.960 E2.2920
G1 X199.970 Y170.697 E2.3823
