; generated by PrusaSlicer 2.3.0+win64 on 2021-03-01 at 09:24:54 UTC

; 

; external perimeters extrusion width = 0.45mm
; perimeters extrusion width = 0.45mm
; infill extrusion width = 0.45mm
; solid infill extrusion width = 0.45mm
; top infill extrusion width = 0.40mm
; first layer extrusion width = 0.42mm

M107
;TYPE:Custom
; debut start gcode
G90 ; use absolute coordinates
M83 ; extruder relative mode
M104 S170 ; set extruder temp for bed leveling
M140 S60 ; set bed temp
M109 R170 ; wait for bed leveling extruder temp
M190 S60 ; wait for bed temp
G28 ; home all without mesh bed level
M98 P"/macros/load_meshbed" ; mesh bed leveling 
M104 S215 ; set extruder temp
G90 ; use absolute coordinates
G92 E0.0
G0 X20 Y23 Z25 F4800
G1 Z3 F720
M109 S215 ; wait for extruder temp
M98 P"/macros/set_baby_step"

M98 P"/macros/purge_and_prime"

G92 E0.0

;M221 S95 ; set flow
;fin start gcode
G21 ; set units to millimeters
G90 ; use absolute coordinates
M82 ; use absolute distances for extrusion
G92 E0
M900 K0.05 ; Filament gcode LA 1.5
M900 K30 ; Filament gcode LA 1.0
;LAYER_CHANGE
;Z:0.3
;HEIGHT:0.3
G1 Z0.300 F7800.000
;AFTER_LAYER_CHANGE
;0.3
G1 E-2.00000 F2400.000
G92 E0
G1 X134.396 Y154.869 F7800.000
G1 E2.00000 F2400.000
;TYPE:Skirt
;WIDTH:0.42
G1 F1800.000
G1 X135.597 Y153.651 E2.06829
G1 X136.538 Y152.990 E2.11419
G1 X137.564 Y152.471 E2.16010
G1 X138.644 Y152.103 E2.20566
G1 X139.788 Y151.888 E2.25211
G1 X164.974 Y150.329 E3.25944
G1 X167.761 Y150.500 E3.37091
G1 X170.639 Y151.065 E3.48798
G1 X173.372 Y151.992 E3.60319
G1 X175.907 Y153.246 E3.71609
G1 X178.333 Y154.878 E3.83282
G1 X180.486 Y156.789 E3.94772
G1 X182.392 Y159.005 E4.06440
G1 X183.866 Y161.251 E4.17164
G1 X184.507 Y162.756 E4.23697
G1 X184.824 Y164.410 E4.30416
G1 X184.768 Y166.083 E4.37098
G1 X184.354 Y167.696 E4.43746
G1 X183.565 Y169.262 E4.50746
G1 X182.024 Y171.474 E4.61507
G1 X180.440 Y173.257 E4.71029
G1 X178.738 Y174.800 E4.80200
G1 X177.107 Y176.006 E4.88296
G1 X175.543 Y176.960 E4.95611
G1 X173.980 Y177.744 E5.02592
G1 X172.225 Y178.447 E5.10137
G1 X170.359 Y179.008 E5.17918
G1 X168.719 Y179.357 E5.24611
G1 X166.951 Y179.587 E5.31725
G1 X165.179 Y179.671 E5.38809
G1 X163.209 Y179.600 E5.46677
G1 X139.590 Y178.088 E6.41154
G1 X138.100 Y177.733 E6.47269
G1 X136.732 Y177.121 E6.53253
G1 X135.546 Y176.306 E6.59000
G1 X134.462 Y175.211 E6.65148
G1 X133.782 Y174.241 E6.69879
G1 X133.271 Y173.228 E6.74408
G1 X132.900 Y172.134 E6.79019
G1 X132.689 Y171.017 E6.83556
G1 X132.628 Y170.033 E6.87493
G1 X132.641 Y159.556 E7.29315
G1 X132.896 Y157.881 E7.36077
G1 X133.490 Y156.295 E7.42840
G1 X134.364 Y154.920 E7.49344
G1 E5.49344 F2400.000
G92 E0
G1 X140.062 Y158.974 F7800.000
G1 E2.00000 F2400.000
;TYPE:External perimeter
G1 F1800.000
G1 X140.205 Y158.887 E2.00671
G1 X140.482 Y158.779 E2.01857
G1 X140.790 Y158.730 E2.03102
G1 X164.181 Y157.300 E2.96652
G1 X165.057 Y157.277 E3.00147
G1 X165.841 Y157.296 E3.03279
G1 X166.628 Y157.360 E3.06433
G1 X167.375 Y157.461 E3.09439
G1 X168.023 Y157.583 E3.12074
G1 X168.701 Y157.741 E3.14853
G1 X169.614 Y158.009 E3.18651
G1 X170.199 Y158.216 E3.21128
G1 X170.862 Y158.485 E3.23984
G1 X171.681 Y158.873 E3.27603
G1 X172.357 Y159.242 E3.30675
G1 X172.950 Y159.605 E3.33451
G1 X173.579 Y160.035 E3.36493
G1 X174.204 Y160.514 E3.39637
G1 X174.779 Y161.005 E3.42654
G1 X175.252 Y161.450 E3.45246
G1 X175.819 Y162.040 E3.48515
G1 X176.574 Y162.943 E3.53212
G1 X177.232 Y163.869 E3.57748
G1 X177.690 Y164.637 E3.61318
G1 X177.750 Y164.822 E3.62091
G1 X177.768 Y165.042 E3.62972
G1 X177.748 Y165.186 E3.63554
G1 X177.683 Y165.380 E3.64369
G1 X177.390 Y165.884 E3.66699
G1 X176.469 Y167.246 E3.73261
G1 X176.033 Y168.016 E3.76795
G1 X175.559 Y168.525 E3.79572
G1 X174.848 Y168.981 E3.82942
G1 X173.685 Y169.887 E3.88826
G1 X172.863 Y170.450 E3.92805
G1 X171.921 Y171.000 E3.97159
G1 X171.440 Y171.248 E3.99320
G1 X170.746 Y171.565 E4.02365
G1 X170.152 Y171.802 E4.04920
G1 X169.582 Y172.002 E4.07331
G1 X168.949 Y172.193 E4.09970
G1 X168.300 Y172.357 E4.12640
G1 X167.219 Y172.563 E4.17033
G1 X166.520 Y172.652 E4.19846
G1 X165.926 Y172.699 E4.22226
G1 X165.140 Y172.725 E4.25364
G1 X164.317 Y172.706 E4.28651
G1 X140.785 Y171.269 E5.22765
G1 X140.580 Y171.244 E5.23590
G1 X140.398 Y171.196 E5.24341
G1 X140.130 Y171.070 E5.25523
G1 X139.876 Y170.865 E5.26825
G1 X139.699 Y170.622 E5.28024
G1 X139.623 Y170.466 E5.28719
G1 X139.564 Y170.285 E5.29476
G1 X139.518 Y169.985 E5.30690
G1 X139.508 Y167.000 E5.42605
G1 X139.417 Y165.554 E5.48388
G1 X139.405 Y165.076 E5.50296
G1 X139.414 Y164.489 E5.52640
G1 X139.511 Y162.876 E5.59094
G1 X139.516 Y160.032 E5.70444
G1 X139.564 Y159.715 E5.71725
G1 X139.624 Y159.534 E5.72485
G1 X139.717 Y159.346 E5.73321
G1 X139.806 Y159.217 E5.73948
G1 X140.015 Y159.012 E5.75117
G1 X140.216 Y159.041 F7800.000
G1 E3.75117 F2400.000
G92 E0
G1 X172.102 Y164.529 F7800.000
G1 E2.00000 F2400.000
G1 F1800.000
G1 X172.011 Y164.368 E2.00735
G1 X171.963 Y164.084 E2.01884
G1 X171.973 Y163.713 E2.03366
G1 X172.051 Y163.461 E2.04419
G1 X172.236 Y163.265 E2.05497
G1 X172.402 Y163.184 E2.06233
G1 X172.742 Y163.091 E2.07642
G1 X172.978 Y163.074 E2.08585
G1 X174.962 Y163.071 E2.16506
G1 X175.155 Y163.088 E2.17278
G1 X175.327 Y163.131 E2.17986
G1 X175.496 Y163.212 E2.18733
G1 X175.637 Y163.335 E2.19481
G1 X175.771 Y163.542 E2.20464
G1 X175.851 Y163.797 E2.21533
G1 X175.867 Y164.091 E2.22708
G1 X175.830 Y164.332 E2.23681
G1 X175.734 Y164.599 E2.24813
G1 X175.561 Y164.890 E2.26162
G1 X174.929 Y165.775 E2.30503
G1 X174.653 Y166.116 E2.32257
G1 X174.296 Y166.456 E2.34225
G1 X174.299 Y166.701 E2.35205
G1 X174.381 Y166.679 E2.35544
G1 X174.529 Y166.801 E2.36309
G1 X174.691 Y166.703 E2.37063
G1 X175.131 Y166.747 E2.38828
G1 X175.400 Y166.821 E2.39940
G1 X175.612 Y166.959 E2.40952
G1 X175.738 Y167.115 E2.41750
G1 X175.812 Y167.335 E2.42678
G1 X175.819 Y167.517 E2.43405
G1 X175.762 Y167.720 E2.44248
G1 X175.661 Y167.961 E2.45291
G1 X175.581 Y168.074 E2.45844
G1 X175.436 Y168.185 E2.46573
G1 X175.011 Y168.370 E2.48422
G1 X174.600 Y168.452 E2.50096
G1 X173.909 Y168.491 E2.52858
G1 X173.233 Y168.483 E2.55557
G1 X172.640 Y168.512 E2.57926
G1 X172.374 Y168.470 E2.59003
G1 X172.210 Y168.391 E2.59729
G1 X172.013 Y168.217 E2.60776
G1 X171.892 Y168.022 E2.61695
G1 X171.808 Y167.759 E2.62799
G1 X171.787 Y167.468 E2.63962
G1 X171.835 Y167.181 E2.65122
G1 X171.948 Y166.905 E2.66314
G1 X172.133 Y166.600 E2.67738
G1 X172.748 Y165.769 E2.71864
G1 X173.042 Y165.433 E2.73647
G1 X173.521 Y165.018 E2.76177
G1 X173.591 Y164.921 E2.76655
G1 X173.590 Y164.789 E2.77183
G1 X173.432 Y164.678 E2.77953
G1 X173.287 Y164.689 E2.78534
G1 X173.053 Y164.766 E2.79520
G1 X172.763 Y164.794 E2.80681
G1 X172.635 Y164.783 E2.81196
G1 X172.301 Y164.694 E2.82576
G1 X172.148 Y164.567 E2.83369
G1 X171.921 Y164.564 F7800.000
G1 E0.83369 F2400.000
G92 E0
G1 X167.169 Y170.768 F7800.000
G1 E2.00000 F2400.000
G1 F1800.000
G1 X167.049 Y170.616 E2.00774
G1 X166.903 Y170.279 E2.02238
G1 X166.875 Y170.086 E2.03019
G1 X166.899 Y169.807 E2.04138
G1 X167.026 Y169.563 E2.05237
G1 X167.222 Y169.396 E2.06263
G1 X167.452 Y169.299 E2.07260
G1 X167.892 Y169.168 E2.09093
G1 X167.992 Y169.105 E2.09565
G1 X168.082 Y169.018 E2.10065
G1 X168.189 Y168.839 E2.10897
G1 X168.362 Y168.372 E2.12884
G1 X168.590 Y167.888 E2.15020
G1 X168.634 Y167.721 E2.15711
G1 X168.603 Y167.565 E2.16347
G1 X168.334 Y166.951 E2.19020
G1 X167.679 Y165.187 E2.26533
G1 X167.489 Y164.725 E2.28528
G1 X167.384 Y164.385 E2.29948
G1 X167.360 Y164.244 E2.30520
G1 X167.356 Y163.792 E2.32324
G1 X167.370 Y163.626 E2.32987
G1 X167.429 Y163.446 E2.33744
G1 X167.553 Y163.287 E2.34548
G1 X167.699 Y163.182 E2.35266
G1 X167.862 Y163.115 E2.35968
G1 X168.042 Y163.079 E2.36703
G1 X168.328 Y163.097 E2.37847
G1 X168.570 Y163.180 E2.38867
G1 X168.811 Y163.334 E2.40010
G1 X168.981 Y163.547 E2.41099
G1 X169.092 Y163.797 E2.42190
G1 X169.328 Y164.913 E2.46744
G1 X169.342 Y165.091 E2.47456
G1 X169.405 Y165.309 E2.48361
G1 X169.486 Y165.513 E2.49236
G1 X169.638 Y165.506 E2.49843
G1 X169.747 Y165.134 E2.51391
G1 X169.821 Y164.453 E2.54124
G1 X169.943 Y163.970 E2.56111
G1 X170.145 Y163.558 E2.57944
G1 X170.331 Y163.327 E2.59129
G1 X170.552 Y163.158 E2.60238
G1 X170.817 Y163.091 E2.61331
G1 X171.069 Y163.128 E2.62349
G1 X171.304 Y163.259 E2.63422
G1 X171.522 Y163.543 E2.64851
G1 X171.589 Y163.813 E2.65961
G1 X171.605 Y164.129 E2.67224
G1 X171.568 Y164.460 E2.68556
G1 X171.164 Y165.726 E2.73859
G1 X170.205 Y168.400 E2.85198
G1 X169.827 Y169.376 E2.89377
G1 X169.546 Y169.993 E2.92085
G1 X169.362 Y170.291 E2.93483
G1 X169.221 Y170.460 E2.94358
G1 X168.905 Y170.711 E2.95969
G1 X168.706 Y170.820 E2.96878
G1 X168.367 Y170.945 E2.98318
G1 X168.043 Y171.018 E2.99645
G1 X167.764 Y171.032 E3.00758
G1 X167.571 Y171.002 E3.01539
G1 X167.316 Y170.891 E3.02650
G1 X167.215 Y170.807 E3.03173
G1 X166.982 Y170.820 F7800.000
G1 E1.03173 F2400.000
G92 E0
G1 X163.297 Y166.549 F7800.000
G1 E2.00000 F2400.000
;TYPE:Perimeter
G1 F1800.000
G1 X163.068 Y166.206 E2.01646
G1 X162.840 Y165.971 E2.02952
G1 X162.556 Y165.790 E2.04295
G1 X162.232 Y165.665 E2.05682
G1 X161.768 Y165.629 E2.07542
G1 X161.289 Y165.711 E2.09478
G1 X161.369 Y165.210 E2.11500
G1 X161.382 Y164.803 E2.13129
G1 X161.365 Y164.432 E2.14611
G1 X161.323 Y164.075 E2.16047
G1 X161.252 Y163.726 E2.17464
G1 X161.063 Y163.140 E2.19926
G1 X160.789 Y162.624 E2.22258
G1 X160.614 Y162.375 E2.23473
G1 X160.421 Y162.156 E2.24637
G1 X160.162 Y161.921 E2.26036
G1 X159.922 Y161.748 E2.27215
G1 X159.456 Y161.520 E2.29284
G1 X159.032 Y161.401 E2.31045
G1 X158.384 Y161.305 E2.33660
G1 X156.710 Y161.269 E2.40341
G1 X156.301 Y161.311 E2.41983
G1 X155.861 Y161.483 E2.43870
G1 X155.562 Y161.744 E2.45456
G1 X155.405 Y162.025 E2.46742
G1 X155.338 Y162.277 E2.47781
G1 X155.324 Y162.543 E2.48845
G1 X155.149 Y162.567 E2.49551
G1 X155.071 Y162.332 E2.50537
G1 X154.932 Y162.077 E2.51698
G1 X154.691 Y161.782 E2.53218
G1 X154.476 Y161.592 E2.54364
G1 X154.151 Y161.390 E2.55891
G1 X153.874 Y161.272 E2.57094
G1 X153.499 Y161.172 E2.58640
G1 X153.181 Y161.124 E2.59925
G1 X152.704 Y161.105 E2.61832
G1 X152.321 Y161.130 E2.63365
G1 X151.894 Y161.205 E2.65094
G1 X151.392 Y161.390 E2.67232
G1 X151.134 Y161.545 E2.68435
G1 X150.857 Y161.775 E2.69869
G1 X150.756 Y161.904 E2.70524
G1 X150.654 Y161.708 E2.71404
G1 X150.427 Y161.493 E2.72652
G1 X150.120 Y161.344 E2.74015
G1 X149.857 Y161.285 E2.75090
G1 X146.498 Y161.289 E2.88499
G1 X145.798 Y161.246 E2.91299
G1 X145.430 Y161.318 E2.92797
G1 X145.113 Y161.497 E2.94251
G1 X144.867 Y161.778 E2.95741
G1 X144.752 Y161.995 E2.96722
G1 X144.357 Y161.632 E2.98864
G1 X143.980 Y161.397 E3.00638
G1 X143.477 Y161.208 E3.02785
G1 X143.014 Y161.127 E3.04659
G1 X142.605 Y161.107 E3.06293
G1 X142.284 Y161.117 E3.07578
G1 X141.839 Y161.182 E3.09373
G1 X141.290 Y161.354 E3.11667
G1 X141.007 Y161.491 E3.12922
G1 X140.638 Y161.728 E3.14673
G1 X140.307 Y162.020 E3.16434
G1 X139.867 Y162.518 E3.19090
G1 X139.872 Y160.059 E3.28906
G1 X139.912 Y159.798 E3.29963
G1 X140.024 Y159.527 E3.31132
G1 X140.177 Y159.340 E3.32099
G1 X140.268 Y159.265 E3.32570
G1 X140.364 Y159.207 E3.33015
G1 X140.575 Y159.125 E3.33922
G1 X140.829 Y159.084 E3.34947
G1 X164.197 Y157.656 E4.28404
G1 X165.057 Y157.632 E4.31839
G1 X165.822 Y157.651 E4.34894
G1 X166.590 Y157.714 E4.37971
G1 X167.318 Y157.812 E4.40902
G1 X167.950 Y157.931 E4.43470
G1 X168.611 Y158.085 E4.46178
G1 X169.505 Y158.347 E4.49896
G1 X170.073 Y158.549 E4.52302
G1 X170.719 Y158.811 E4.55086
G1 X171.520 Y159.190 E4.58625
G1 X172.179 Y159.550 E4.61620
G1 X172.756 Y159.904 E4.64325
G1 X173.370 Y160.323 E4.67293
G1 X173.980 Y160.791 E4.70362
G1 X174.542 Y161.270 E4.73306
G1 X175.002 Y161.702 E4.75828
G1 X175.554 Y162.278 E4.79012
G1 X176.292 Y163.160 E4.83605
G1 X176.934 Y164.064 E4.88028
G1 X177.364 Y164.785 E4.91379
G1 X177.399 Y164.892 E4.91829
G1 X177.410 Y165.032 E4.92390
G1 X177.358 Y165.232 E4.93218
G1 X177.089 Y165.695 E4.95354
G1 X176.118 Y167.129 E5.02267
G1 X176.054 Y166.941 E5.03061
G1 X175.854 Y166.691 E5.04339
G1 X175.547 Y166.493 E5.05798
G1 X175.196 Y166.397 E5.07249
G1 X174.907 Y166.368 E5.08409
G1 X175.212 Y165.990 E5.10348
G1 X175.859 Y165.084 E5.14792
G1 X176.057 Y164.751 E5.16336
G1 X176.176 Y164.420 E5.17741
G1 X176.224 Y164.109 E5.18998
G1 X176.204 Y163.734 E5.20498
G1 X176.095 Y163.389 E5.21942
G1 X175.908 Y163.100 E5.23315
G1 X175.693 Y162.912 E5.24455
G1 X175.448 Y162.795 E5.25539
G1 X175.214 Y162.736 E5.26502
G1 X174.978 Y162.715 E5.27450
G1 X172.965 Y162.719 E5.35483
G1 X172.682 Y162.738 E5.36615
G1 X172.276 Y162.850 E5.38298
G1 X172.022 Y162.974 E5.39427
G1 X171.753 Y163.259 E5.40993
G1 X171.541 Y162.984 E5.42378
G1 X171.186 Y162.786 E5.44001
G1 X170.799 Y162.728 E5.45564
G1 X170.393 Y162.831 E5.47234
G1 X170.081 Y163.071 E5.48805
G1 X169.843 Y163.366 E5.50318
G1 X169.521 Y164.024 E5.53244
G1 X169.428 Y163.679 E5.54671
G1 X169.288 Y163.361 E5.56057
G1 X169.052 Y163.067 E5.57564
G1 X168.726 Y162.857 E5.59110
G1 X168.399 Y162.745 E5.60492
G1 X168.017 Y162.721 E5.62017
G1 X167.758 Y162.774 E5.63074
G1 X167.525 Y162.869 E5.64078
G1 X167.304 Y163.029 E5.65167
G1 X167.163 Y163.210 E5.66082
G1 X166.906 Y162.976 E5.67468
G1 X166.712 Y162.848 E5.68395
G1 X166.441 Y162.741 E5.69559
G1 X166.016 Y162.738 E5.71255
G1 X165.653 Y162.903 E5.72848
G1 X165.368 Y163.152 E5.74359
G1 X165.190 Y163.425 E5.75659
G1 X164.971 Y163.125 E5.77143
G1 X164.776 Y162.941 E5.78210
G1 X164.458 Y162.772 E5.79647
G1 X164.172 Y162.720 E5.80810
G1 X163.882 Y162.744 E5.81969
G1 X163.538 Y162.861 E5.83422
G1 X163.304 Y163.013 E5.84538
G1 X163.108 Y163.226 E5.85691
G1 X162.929 Y163.581 E5.87280
G1 X162.904 Y164.040 E5.89112
G1 X162.968 Y164.317 E5.90248
G1 X163.102 Y164.646 E5.91665
G1 X163.747 Y165.762 E5.96811
G1 X163.545 Y166.047 E5.98205
G1 X163.323 Y166.495 E6.00200
G1 E4.00200 F2400.000
G92 E0
G1 X175.553 Y166.126 F7800.000
G1 E2.00000 F2400.000
G1 F1800.000
G1 X176.158 Y165.278 E2.04156
G1 X176.380 Y164.904 E2.05895
G1 X176.522 Y164.508 E2.07573
G1 X176.576 Y164.158 E2.08989
G1 X177.038 Y164.932 E2.12589
G1 X177.053 Y165.023 E2.12955
G1 X177.032 Y165.085 E2.13218
G1 X176.787 Y165.506 E2.15161
G1 X176.144 Y166.456 E2.19741
G1 X175.694 Y166.165 E2.21883
G1 X175.610 Y166.142 E2.22229
G1 E0.22229 F2400.000
G92 E0
G1 X175.140 Y162.359 F7800.000
G1 E2.00000 F2400.000
G1 F1800.000
G1 X172.953 Y162.363 E2.08731
G1 X172.623 Y162.386 E2.10051
G1 X172.150 Y162.515 E2.12008
G1 X171.766 Y162.703 E2.13711
G1 X171.303 Y162.444 E2.15831
G1 X170.781 Y162.366 E2.17939
G1 X170.235 Y162.505 E2.20185
G1 X169.831 Y162.814 E2.22218
G1 X169.567 Y163.141 E2.23895
G1 X169.293 Y162.799 E2.25647
G1 X168.882 Y162.535 E2.27595
G1 X168.469 Y162.393 E2.29339
G1 X167.993 Y162.363 E2.31246
G1 X167.654 Y162.432 E2.32626
G1 X167.351 Y162.556 E2.33931
G1 X167.144 Y162.706 E2.34953
G1 X166.877 Y162.531 E2.36225
G1 X166.510 Y162.386 E2.37801
G1 X165.941 Y162.381 E2.40075
G1 X165.458 Y162.601 E2.42190
G1 X165.186 Y162.839 E2.43634
G1 X164.986 Y162.649 E2.44735
G1 X164.576 Y162.432 E2.46587
G1 X164.189 Y162.362 E2.48157
G1 X163.810 Y162.393 E2.49677
G1 X163.381 Y162.538 E2.51483
G1 X163.072 Y162.740 E2.52954
G1 X162.812 Y163.021 E2.54484
G1 X162.578 Y163.488 E2.56570
G1 X162.546 Y164.071 E2.58899
G1 X162.628 Y164.424 E2.60349
G1 X162.781 Y164.801 E2.61970
G1 X163.238 Y165.612 E2.65687
G1 X163.117 Y165.726 E2.66352
G1 X162.718 Y165.471 E2.68245
G1 X162.311 Y165.314 E2.69983
G1 X161.723 Y165.269 E2.72340
G1 X161.738 Y164.800 E2.74212
G1 X161.720 Y164.403 E2.75800
G1 X161.674 Y164.018 E2.77346
G1 X161.597 Y163.636 E2.78902
G1 X161.392 Y163.000 E2.81569
G1 X161.093 Y162.438 E2.84113
G1 X160.894 Y162.154 E2.85496
G1 X160.674 Y161.906 E2.86818
G1 X160.385 Y161.644 E2.88376
G1 X160.105 Y161.442 E2.89755
G1 X159.584 Y161.186 E2.92072
G1 X159.106 Y161.053 E2.94054
G1 X158.414 Y160.950 E2.96847
G1 X156.696 Y160.913 E3.03706
G1 X156.217 Y160.962 E3.05628
G1 X155.674 Y161.174 E3.07955
G1 X155.281 Y161.517 E3.10036
G1 X155.140 Y161.770 E3.11191
G1 X154.948 Y161.535 E3.12402
G1 X154.690 Y161.306 E3.13781
G1 X154.316 Y161.073 E3.15539
