; G-Code generated by Simplify3D(R) Version 4.1.2
; Mar 29, 2021 at 1:49:31 AM
; Settings Summary
;   processName,Process1
;   applyToModels,Calibration_OctogonV2
;   profileName,BLV mgn Cube-  Simplify3D Profile (modified)
;   profileVersion,2021-03-16 20:26:39
;   baseProfile,Anet A8
;   printMaterial,PLA
;   printQuality,Medium
;   printExtruders,
;   extruderName,Primary Extruder
;   extruderToolheadNumber,0
;   extruderDiameter,0.4
;   extruderAutoWidth,1
;   extruderWidth,0.48
;   extrusionMultiplier,1
;   extruderUseRetract,1
;   extruderRetractionDistance,1.5
;   extruderExtraRestartDistance,0
;   extruderRetractionZLift,0
;   extruderRetractionSpeed,5100
;   extruderUseCoasting,1
;   extruderCoastingDistance,0.2
;   extruderUseWipe,1
;   extruderWipeDistance,4
;   primaryExtruder,0
;   layerHeight,0.2
;   topSolidLayers,3
;   bottomSolidLayers,3
;   perimeterOutlines,3
;   printPerimetersInsideOut,0
;   startPointOption,3
;   startPointOriginX,0
;   startPointOriginY,500
;   sequentialIslands,0
;   spiralVaseMode,0
;   firstLayerHeightPercentage,150
;   firstLayerWidthPercentage,100
;   firstLayerUnderspeed,0.4
;   useRaft,0
;   raftExtruder,0
;   raftTopLayers,3
;   raftBaseLayers,2
;   raftOffset,3
;   raftSeparationDistance,0.14
;   raftTopInfill,100
;   aboveRaftSpeedMultiplier,0.3
;   useSkirt,1
;   skirtExtruder,0
;   skirtLayers,1
;   skirtOutlines,2
;   skirtOffset,6
;   usePrimePillar,0
;   primePillarExtruder,999
;   primePillarWidth,12
;   primePillarLocation,7
;   primePillarSpeedMultiplier,1
;   useOozeShield,0
;   oozeShieldExtruder,999
;   oozeShieldOffset,2
;   oozeShieldOutlines,1
;   oozeShieldSidewallShape,1
;   oozeShieldSidewallAngle,30
;   oozeShieldSpeedMultiplier,1
;   infillExtruder,0
;   internalInfillPattern,Rectilinear
;   externalInfillPattern,Rectilinear
;   infillPercentage,15
;   outlineOverlapPercentage,15
;   infillExtrusionWidthPercentage,100
;   minInfillLength,5
;   infillLayerInterval,1
;   internalInfillAngles,45,-45
;   overlapInternalInfillAngles,0
;   externalInfillAngles,45,-45
;   generateSupport,1
;   supportExtruder,0
;   supportInfillPercentage,30
;   supportExtraInflation,0
;   supportBaseLayers,0
;   denseSupportExtruder,0
;   denseSupportLayers,0
;   denseSupportInfillPercentage,70
;   supportLayerInterval,1
;   supportHorizontalPartOffset,0.4
;   supportUpperSeparationLayers,1
;   supportLowerSeparationLayers,1
;   supportType,0
;   supportGridSpacing,1
;   maxOverhangAngle,45
;   supportAngles,45,-45
;   temperatureName,Primary Extruder,Heated Bed
;   temperatureNumber,0,0
;   temperatureSetpointCount,2,1
;   temperatureSetpointLayers,1,2,1
;   temperatureSetpointTemperatures,215,210,60
;   temperatureStabilizeAtStartup,1,1
;   temperatureHeatedBed,0,1
;   fanLayers,1,2
;   fanSpeeds,0,100
;   blipFanToFullPower,1
;   adjustSpeedForCooling,1
;   minSpeedLayerTime,15
;   minCoolingSpeedSlowdown,20
;   increaseFanForCooling,0
;   minFanLayerTime,45
;   maxCoolingFanSpeed,100
;   increaseFanForBridging,1
;   bridgingFanSpeed,100
;   use5D,1
;   relativeEdistances,0
;   allowEaxisZeroing,1
;   independentExtruderAxes,0
;   includeM10123,0
;   stickySupport,1
;   applyToolheadOffsets,0
;   gcodeXoffset,24
;   gcodeYoffset,22
;   gcodeZoffset,0
;   overrideMachineDefinition,1
;   machineTypeOverride,0
;   strokeXoverride,310
;   strokeYoverride,310
;   strokeZoverride,334
;   originOffsetXoverride,0
;   originOffsetYoverride,0
;   originOffsetZoverride,0
;   homeXdirOverride,-1
;   homeYdirOverride,-1
;   homeZdirOverride,-1
;   flipXoverride,1
;   flipYoverride,-1
;   flipZoverride,1
;   toolheadOffsets,0,0|0,0|0,0|0,0|0,0|0,0
;   overrideFirmwareConfiguration,1
;   firmwareTypeOverride,RepRap (Marlin/Repetier/Sprinter)
;   GPXconfigOverride,r2
;   baudRateOverride,115200
;   overridePrinterModels,1
;   printerModelsOverride,Blvfull.stl
;   startingGcode,M291 P"Homing all axis" R"Printing.." S1 T2,G21		; metric values,G28		; home all,M98 P"/macros/load_meshbed"	; load mesh bed corresponding to the temp,M98 P"/macros/set_baby_step"	; set baby step,M98 P"/macros/purge_and_prime"; purge and do the prime line,,G92 E0 F100		; reset extruder,G1 Z10 F3000 		; move z up little to prevent scratching of surface,G92 E0 		; reset extruder,M291 P"Printing started !" R"Printing.." S1 T3
;   layerChangeGcode,
;   retractionGcode,
;   toolChangeGcode,
;   endingGcode,M104 S0 ; turn off extruder,M140 S0 ; turn off bed,M98 P"/macros/remove_baby_step"	; unset baby step,M98 P"/macros/rise30mm",G1 X0 Y300 F1000 ; prepare for part removal,M84 ; disable motors,M106 S0 ;turn off part cooling fan,;M81 ; shutdown,; play song,M300 S294 P200 ;D4: 294,M300 S588 P200 ;D5: 588,M300 S440 P200 ;A4: 440,M300 S392 P200 ;G4: 392,M300 S784 P200 ;G5: 784,M300 S440 P200 ;A4: 440,M300 S740 P200 ;F#5: 740,M300 S440 P200 ;A4: 440,M291 P"Printing finished !" R"Printing.." S1 T0,
;   exportFileFormat,gcode
;   celebration,0
;   celebrationSong,Star Wars
;   postProcessing,
;   defaultSpeed,6000
;   outlineUnderspeed,0.66
;   solidInfillUnderspeed,0.8
;   supportUnderspeed,0.8
;   rapidXYspeed,7200
;   rapidZspeed,1002
;   minBridgingArea,50
;   bridgingExtraInflation,0
;   bridgingExtrusionMultiplier,1
;   bridgingSpeedMultiplier,1
;   useFixedBridgingAngle,0
;   fixedBridgingAngle,0
;   applyBridgingToPerimeters,1
;   filamentDiameters,1.75|1.75|1.75|1.75|1.75|1.75
;   filamentPricesPerKg,30|110|110|110|110|110
;   filamentDensities,1.25|1.25|1.25|1.25|1.25|1.25
;   useMinPrintHeight,0
;   minPrintHeight,0
;   useMaxPrintHeight,0
;   maxPrintHeight,0
;   useDiaphragm,0
;   diaphragmLayerInterval,20
;   robustSlicing,1
;   mergeAllIntoSolid,0
;   onlyRetractWhenCrossingOutline,0
;   retractBetweenLayers,1
;   useRetractionMinTravel,1
;   retractionMinTravel,3
;   retractWhileWiping,1
;   onlyWipeOutlines,1
;   avoidCrossingOutline,1
;   maxMovementDetourFactor,3
;   toolChangeRetractionDistance,12
;   toolChangeExtraRestartDistance,-0.5
;   toolChangeRetractionSpeed,600
;   externalThinWallType,1
;   internalThinWallType,2
;   thinWallAllowedOverlapPercentage,15
;   singleExtrusionMinLength,1
;   singleExtrusionMinPrintingWidthPercentage,50
;   singleExtrusionMaxPrintingWidthPercentage,200
;   singleExtrusionEndpointExtension,0.2
;   horizontalSizeCompensation,0
G90
M82
M106 S0
M140 S60
M190 S60
M104 S215 T0
M109 S215 T0
M291 P"Homing all axis" R"Printing.." S1 T2
G21		; metric values
G28		; home all
M98 P"/macros/load_meshbed"	; load mesh bed corresponding to the temp
M98 P"/macros/set_baby_step"	; set baby step
M98 P"/macros/purge_and_prime"; purge and do the prime line
G92 E0 F100		; reset extruder
G1 Z10 F3000 		; move z up little to prevent scratching of surface
G92 E0 		; reset extruder
M291 P"Printing started !" R"Printing.." S1 T3
; process Process1
; layer 1, Z = 0.300
T0
G92 E0.0000
G1 E-1.5000 F5100
; feature skirt
; tool H0.300 W0.480
G1 Z0.300 F1002
G1 X153.799 Y234.347 F7200
G1 E0.0000 F5100
G92 E0.0000
G1 X138.475 Y219.022 E1.2975 F2400
G1 X138.036 Y217.964 E1.3661
G1 X136.978 Y217.525 E1.4347
G1 X121.653 Y202.201 E2.7321
G1 X120.630 Y199.731 E2.8922
G1 X120.630 Y178.058 E4.1897
G1 X121.068 Y177.000 E4.2583
G1 X120.630 Y175.942 E4.3269
G1 X120.630 Y154.269 E5.6243
G1 X121.653 Y151.799 E5.7844
G1 X136.978 Y136.475 E7.0819
G1 X138.036 Y136.036 E7.1505
G1 X138.475 Y134.978 E7.2191
G1 X153.799 Y119.653 E8.5165
G1 X156.269 Y118.630 E8.6766
G1 X177.942 Y118.630 E9.9741
G1 X179.000 Y119.068 E10.0427
G1 X180.058 Y118.630 E10.1113
G1 X201.731 Y118.630 E11.4087
G1 X204.201 Y119.653 E11.5688
G1 X219.525 Y134.978 E12.8663
G1 X219.964 Y136.036 E12.9349
G1 X221.022 Y136.475 E13.0035
G1 X236.347 Y151.799 E14.3009
G1 X237.370 Y154.269 E14.4610
G1 X237.370 Y175.942 E15.7585
G1 X236.932 Y177.000 E15.8271
G1 X237.370 Y178.058 E15.8957
G1 X237.370 Y199.731 E17.1931
G1 X236.347 Y202.201 E17.3532
G1 X221.022 Y217.525 E18.6507
G1 X219.964 Y217.964 E18.7193
G1 X219.525 Y219.022 E18.7879
G1 X204.201 Y234.347 E20.0853
G1 X201.731 Y235.370 E20.2454
G1 X180.058 Y235.370 E21.5429
G1 X179.000 Y234.932 E21.6115
G1 X177.942 Y235.370 E21.6801
G1 X156.269 Y235.370 E22.9775
G1 X153.799 Y234.347 E23.1376
G1 X154.071 Y233.940 F7200
G92 E0.0000
G1 X138.881 Y218.750 E1.2861 F2400
G1 X138.404 Y217.596 E1.3608
G1 X137.250 Y217.119 E1.4356
G1 X122.060 Y201.929 E2.7217
G1 X121.110 Y199.635 E2.8703
G1 X121.110 Y178.154 E4.1563
G1 X121.588 Y177.000 E4.2311
G1 X121.110 Y175.846 E4.3059
G1 X121.110 Y154.365 E5.5919
G1 X122.060 Y152.071 E5.7406
G1 X137.250 Y136.881 E7.0266
G1 X138.404 Y136.404 E7.1014
G1 X138.881 Y135.250 E7.1761
G1 X154.071 Y120.060 E8.4622
G1 X156.365 Y119.110 E8.6108
G1 X177.846 Y119.110 E9.8969
G1 X179.000 Y119.588 E9.9717
G1 X180.154 Y119.110 E10.0464
G1 X201.635 Y119.110 E11.3325
G1 X203.929 Y120.060 E11.4811
G1 X219.119 Y135.250 E12.7672
G1 X219.596 Y136.404 E12.8419
G1 X220.750 Y136.881 E12.9167
G1 X235.940 Y152.071 E14.2028
G1 X236.890 Y154.365 E14.3514
G1 X236.890 Y175.846 E15.6375
G1 X236.412 Y177.000 E15.7122
G1 X236.890 Y178.154 E15.7870
G1 X236.890 Y199.635 E17.0730
G1 X235.940 Y201.929 E17.2217
G1 X220.750 Y217.119 E18.5077
G1 X219.596 Y217.596 E18.5825
G1 X219.119 Y218.750 E18.6573
G1 X203.929 Y233.940 E19.9433
G1 X201.635 Y234.890 E20.0919
G1 X180.154 Y234.890 E21.3780
G1 X179.000 Y234.412 E21.4528
G1 X177.846 Y234.890 E21.5275
G1 X156.365 Y234.890 E22.8136
G1 X154.071 Y233.940 E22.9622
G92 E0.0000
G1 E-1.5000 F5100
; feature outer perimeter
G1 X157.705 Y228.410 F7200
G1 E0.0000 F5100
G92 E0.0000
G1 X144.411 Y215.116 E1.1255 F1584
G1 X144.411 Y212.288 E1.2949
G1 X143.712 Y211.589 E1.3541
G1 X140.884 Y211.589 E1.5234
G1 X127.590 Y198.295 E2.6489
G1 X127.590 Y179.494 E3.7745
G1 X129.590 Y177.494 E3.9438
G1 X129.590 Y176.506 E4.0030
G1 X127.590 Y174.506 E4.1724
G1 X127.590 Y155.705 E5.2979
G1 X140.884 Y142.411 E6.4234
G1 X143.712 Y142.411 E6.5928
G1 X144.411 Y141.712 E6.6520
G1 X144.411 Y138.884 E6.8213
G1 X157.705 Y125.590 E7.9468
G1 X176.506 Y125.590 E9.0724
G1 X178.506 Y127.590 E9.2417
G1 X179.494 Y127.590 E9.3009
G1 X181.494 Y125.590 E9.4702
G1 X200.295 Y125.590 E10.5958
G1 X213.589 Y138.884 E11.7213
G1 X213.589 Y141.712 E11.8907
G1 X214.288 Y142.411 E11.9499
G1 X217.116 Y142.411 E12.1192
G1 X230.410 Y155.705 E13.2447
G1 X230.410 Y174.506 E14.3703
G1 X228.410 Y176.506 E14.5396
G1 X228.410 Y177.494 E14.5988
G1 X230.410 Y179.494 E14.7681
G1 X230.410 Y198.295 E15.8937
G1 X217.116 Y211.589 E17.0192
G1 X214.288 Y211.589 E17.1886
G1 X213.589 Y212.288 E17.2478
G1 X213.589 Y215.116 E17.4171
G1 X200.295 Y228.410 E18.5426
G1 X181.494 Y228.410 E19.6682
G1 X179.494 Y226.410 E19.8375
G1 X178.506 Y226.410 E19.8967
G1 X176.506 Y228.410 E20.0660
G1 X157.905 Y228.410 E21.1796
G1 X157.705 Y228.410 F1584
G92 E0.0000
G1 X157.376 Y228.081 E-1.5000 F1584
G1 X154.877 Y225.582 F1584
; feature inner perimeter
G1 X157.904 Y227.930 F7200
G1 E0.0000 F5100
G92 E0.0000
G1 X144.891 Y214.917 E1.1017 F1992
G1 X144.891 Y212.089 E1.2711
G1 X143.911 Y211.109 E1.3541
G1 X141.083 Y211.109 E1.5234
G1 X128.070 Y198.096 E2.6251
G1 X128.070 Y179.693 E3.7269
G1 X130.070 Y177.693 E3.8962
G1 X130.070 Y176.307 E3.9792
G1 X128.070 Y174.307 E4.1485
G1 X128.070 Y155.904 E5.2503
G1 X141.083 Y142.891 E6.3520
G1 X143.911 Y142.891 E6.5214
G1 X144.891 Y141.911 E6.6044
G1 X144.891 Y139.083 E6.7737
G1 X157.904 Y126.070 E7.8754
G1 X176.307 Y126.070 E8.9772
G1 X178.307 Y128.070 E9.1465
G1 X179.693 Y128.070 E9.2295
G1 X181.693 Y126.070 E9.3988
G1 X200.096 Y126.070 E10.5006
G1 X213.109 Y139.083 E11.6023
G1 X213.109 Y141.911 E11.7716
G1 X214.089 Y142.891 E11.8546
G1 X216.917 Y142.891 E12.0240
G1 X229.930 Y155.904 E13.1257
G1 X229.930 Y174.307 E14.2274
G1 X227.930 Y176.307 E14.3968
G1 X227.930 Y177.693 E14.4798
G1 X229.930 Y179.693 E14.6491
G1 X229.930 Y198.096 E15.7508
G1 X216.917 Y211.109 E16.8526
G1 X214.089 Y211.109 E17.0219
G1 X213.109 Y212.089 E17.1049
G1 X213.109 Y214.917 E17.2743
G1 X200.096 Y227.930 E18.3760
G1 X181.693 Y227.930 E19.4777
G1 X179.693 Y225.930 E19.6471
G1 X178.307 Y225.930 E19.7301
G1 X176.307 Y227.930 E19.8994
G1 X158.104 Y227.930 E20.9892
G1 X157.904 Y227.930 F1992
G1 X158.103 Y227.450 F7200
G92 E0.0000
G1 X145.371 Y214.719 E1.0779 F1992
G1 X145.371 Y211.890 E1.2473
G1 X144.110 Y210.629 E1.3541
G1 X141.281 Y210.629 E1.5234
G1 X128.550 Y197.897 E2.6013
G1 X128.550 Y179.892 E3.6793
G1 X130.550 Y177.892 E3.8486
G1 X130.550 Y176.108 E3.9554
G1 X128.550 Y174.108 E4.1247
G1 X128.550 Y156.103 E5.2027
G1 X141.281 Y143.371 E6.2806
G1 X144.110 Y143.371 E6.4499
G1 X145.371 Y142.110 E6.5567
G1 X145.371 Y139.281 E6.7261
G1 X158.103 Y126.550 E7.8040
G1 X176.108 Y126.550 E8.8819
G1 X178.108 Y128.550 E9.0513
G1 X179.892 Y128.550 E9.1581
G1 X181.892 Y126.550 E9.3274
G1 X199.897 Y126.550 E10.4053
G1 X212.629 Y139.281 E11.4833
G1 X212.629 Y142.110 E11.6526
G1 X213.890 Y143.371 E11.7594
G1 X216.719 Y143.371 E11.9287
G1 X229.450 Y156.103 E13.0067
G1 X229.450 Y174.108 E14.0846
G1 X227.450 Y176.108 E14.2539
G1 X227.450 Y177.892 E14.3607
G1 X229.450 Y179.892 E14.5301
G1 X229.450 Y197.897 E15.6080
G1 X216.719 Y210.629 E16.6859
G1 X213.890 Y210.629 E16.8553
G1 X212.629 Y211.890 E16.9621
G1 X212.629 Y214.719 E17.1314
G1 X199.897 Y227.450 E18.2093
G1 X181.892 Y227.450 E19.2873
G1 X179.892 Y225.450 E19.4566
G1 X178.108 Y225.450 E19.5634
G1 X176.108 Y227.450 E19.7328
G1 X158.303 Y227.450 E20.7987
G1 X158.103 Y227.450 F1992
G92 E0.0000
G1 E-1.5000 F5100
; feature outer perimeter
G1 X162.332 Y217.240 F7200
G1 E0.0000 F5100
G92 E0.0000
G1 X195.668 Y217.240 E1.9958 F1584
G1 X204.088 Y208.820 E2.7087
G1 X179.000 Y183.732 E4.8328
G1 X153.912 Y208.820 E6.9569
G1 X162.191 Y217.099 E7.6579
G1 X162.332 Y217.240 F1584
G92 E0.0000
G1 X162.798 Y217.240 E-1.5000 F1584
G1 X166.332 Y217.240 F1584
; feature inner perimeter
G1 X162.133 Y217.720 F7200
G1 E0.0000 F5100
G92 E0.0000
G1 X195.867 Y217.720 E2.0196 F1992
G1 X204.767 Y208.820 E2.7731
G1 X179.000 Y183.053 E4.9547
G1 X153.233 Y208.820 E7.1363
G1 X161.992 Y217.579 E7.8779
G1 X162.133 Y217.720 F1992
G1 X161.934 Y218.200 F7200
G92 E0.0000
G1 X196.066 Y218.200 E2.0434 F1992
G1 X205.446 Y208.820 E2.8376
G1 X179.000 Y182.374 E5.0766
G1 X152.554 Y208.820 E7.3157
G1 X161.793 Y218.059 E8.0979
G1 X161.934 Y218.200 F1992
G92 E0.0000
G1 E-1.5000 F5100
; feature outer perimeter
G1 X147.180 Y202.088 F7200
G1 E0.0000 F5100
G92 E0.0000
G1 X172.268 Y177.000 E2.1241 F1584
G1 X147.180 Y151.912 E4.2482
G1 X138.760 Y160.332 E4.9612
G1 X138.760 Y193.668 E6.9569
G1 X147.039 Y201.947 E7.6579
G1 X147.180 Y202.088 F1584
G92 E0.0000
G1 X147.510 Y201.759 E-1.5000 F1584
G1 X150.009 Y199.260 F1584
; feature inner perimeter
G1 X147.180 Y202.767 F7200
G1 E0.0000 F5100
G92 E0.0000
G1 X172.947 Y177.000 E2.1816 F1992
G1 X147.180 Y151.233 E4.3632
G1 X138.280 Y160.133 E5.1167
G1 X138.280 Y193.867 E7.1363
G1 X147.039 Y202.626 E7.8779
G1 X147.180 Y202.767 F1992
G1 X147.180 Y203.446 F7200
G92 E0.0000
G1 X173.626 Y177.000 E2.2391 F1992
G1 X147.180 Y150.554 E4.4781
G1 X137.800 Y159.934 E5.2723
G1 X137.800 Y194.066 E7.3157
G1 X147.039 Y203.304 E8.0979
G1 X147.180 Y203.446 F1992
G92 E0.0000
G1 E-1.5000 F5100
; feature outer perimeter
G1 X179.000 Y170.268 F7200
G1 E0.0000 F5100
G92 E0.0000
G1 X204.088 Y145.180 E2.1241 F1584
G1 X195.668 Y136.760 E2.8370
G1 X162.332 Y136.760 E4.8328
G1 X153.912 Y145.180 E5.5457
G1 X178.859 Y170.127 E7.6579
G1 X179.000 Y170.268 F1584
G92 E0.0000
G1 X179.329 Y169.939 E-1.5000 F1584
G1 X181.828 Y167.440 F1584
; feature inner perimeter
G1 X179.000 Y170.947 F7200
G1 E0.0000 F5100
G92 E0.0000
