; G-Code generated by Simplify3D(R) Version 4.1.2
; Mar 8, 2021 at 11:52:47 PM
; Settings Summary
;   processName,Process1
;   applyToModels,ringing_tower
;   profileName,BLV mgn Cube-  Simplify3D Profile (modified)
;   profileVersion,2021-03-08 22:38:16
;   baseProfile,Anet A8
;   printMaterial,PLA
;   printQuality,Medium
;   printExtruders,
;   extruderName,Primary Extruder
;   extruderToolheadNumber,0
;   extruderDiameter,0.4
;   extruderAutoWidth,1
;   extruderWidth,0.48
;   extrusionMultiplier,1
;   extruderUseRetract,1
;   extruderRetractionDistance,1.5
;   extruderExtraRestartDistance,0
;   extruderRetractionZLift,0
;   extruderRetractionSpeed,5100
;   extruderUseCoasting,1
;   extruderCoastingDistance,0.2
;   extruderUseWipe,1
;   extruderWipeDistance,4
;   primaryExtruder,0
;   layerHeight,0.2
;   topSolidLayers,0
;   bottomSolidLayers,4
;   perimeterOutlines,1
;   printPerimetersInsideOut,0
;   startPointOption,3
;   startPointOriginX,0
;   startPointOriginY,500
;   sequentialIslands,0
;   spiralVaseMode,1
;   firstLayerHeightPercentage,150
;   firstLayerWidthPercentage,100
;   firstLayerUnderspeed,0.5
;   useRaft,0
;   raftExtruder,0
;   raftTopLayers,3
;   raftBaseLayers,2
;   raftOffset,3
;   raftSeparationDistance,0.14
;   raftTopInfill,100
;   aboveRaftSpeedMultiplier,0.3
;   useSkirt,1
;   skirtExtruder,0
;   skirtLayers,1
;   skirtOutlines,2
;   skirtOffset,6
;   usePrimePillar,0
;   primePillarExtruder,999
;   primePillarWidth,12
;   primePillarLocation,7
;   primePillarSpeedMultiplier,1
;   useOozeShield,0
;   oozeShieldExtruder,999
;   oozeShieldOffset,2
;   oozeShieldOutlines,1
;   oozeShieldSidewallShape,1
;   oozeShieldSidewallAngle,30
;   oozeShieldSpeedMultiplier,1
;   infillExtruder,0
;   internalInfillPattern,Rectilinear
;   externalInfillPattern,Rectilinear
;   infillPercentage,0
;   outlineOverlapPercentage,15
;   infillExtrusionWidthPercentage,100
;   minInfillLength,5
;   infillLayerInterval,1
;   internalInfillAngles,45,-45
;   overlapInternalInfillAngles,0
;   externalInfillAngles,45,-45
;   generateSupport,0
;   supportExtruder,0
;   supportInfillPercentage,30
;   supportExtraInflation,0
;   supportBaseLayers,0
;   denseSupportExtruder,0
;   denseSupportLayers,0
;   denseSupportInfillPercentage,70
;   supportLayerInterval,1
;   supportHorizontalPartOffset,0.4
;   supportUpperSeparationLayers,1
;   supportLowerSeparationLayers,1
;   supportType,0
;   supportGridSpacing,4.5
;   maxOverhangAngle,45
;   supportAngles,45,-45
;   temperatureName,Primary Extruder,Heated Bed
;   temperatureNumber,0,0
;   temperatureSetpointCount,2,1
;   temperatureSetpointLayers,1,2,1
;   temperatureSetpointTemperatures,215,210,60
;   temperatureStabilizeAtStartup,1,1
;   temperatureHeatedBed,0,1
;   fanLayers,1,2
;   fanSpeeds,0,100
;   blipFanToFullPower,1
;   adjustSpeedForCooling,1
;   minSpeedLayerTime,3
;   minCoolingSpeedSlowdown,20
;   increaseFanForCooling,0
;   minFanLayerTime,45
;   maxCoolingFanSpeed,100
;   increaseFanForBridging,1
;   bridgingFanSpeed,100
;   use5D,1
;   relativeEdistances,0
;   allowEaxisZeroing,1
;   independentExtruderAxes,0
;   includeM10123,0
;   stickySupport,1
;   applyToolheadOffsets,0
;   gcodeXoffset,24
;   gcodeYoffset,22
;   gcodeZoffset,0
;   overrideMachineDefinition,1
;   machineTypeOverride,0
;   strokeXoverride,310
;   strokeYoverride,310
;   strokeZoverride,334
;   originOffsetXoverride,0
;   originOffsetYoverride,0
;   originOffsetZoverride,0
;   homeXdirOverride,-1
;   homeYdirOverride,-1
;   homeZdirOverride,-1
;   flipXoverride,1
;   flipYoverride,-1
;   flipZoverride,1
;   toolheadOffsets,0,0|0,0|0,0|0,0|0,0|0,0
;   overrideFirmwareConfiguration,1
;   firmwareTypeOverride,RepRap (Marlin/Repetier/Sprinter)
;   GPXconfigOverride,r2
;   baudRateOverride,115200
;   overridePrinterModels,1
;   printerModelsOverride,Blvfull.stl
;   startingGcode,M291 P"Homing all axis" R"Printing.." S1 T2,G21		; metric values,G28		; home all,M98 P"/macros/load_meshbed"	; load mesh bed corresponding to the temp,M98 P"/macros/set_baby_step"	; set baby step,M98 P"/macros/purge_and_prime"; purge and do the prime line,,G92 E0 F100		; reset extruder,G1 Z10 F3000 		; move z up little to prevent scratching of surface,G92 E0 		; reset extruder,M291 P"Printing started !" R"Printing.." S1 T3
;   layerChangeGcode,
;   retractionGcode,
;   toolChangeGcode,
;   endingGcode,M104 S0 ; turn off extruder,M140 S0 ; turn off bed,M98 P"/macros/remove_baby_step"	; unset baby step,M98 P"/macros/rise30mm",G1 X0 Y300 F1000 ; prepare for part removal,M84 ; disable motors,M106 S0 ;turn off part cooling fan,;M81 ; shutdown,; play song,M300 S294 P200 ;D4: 294,M300 S588 P200 ;D5: 588,M300 S440 P200 ;A4: 440,M300 S392 P200 ;G4: 392,M300 S784 P200 ;G5: 784,M300 S440 P200 ;A4: 440,M300 S740 P200 ;F#5: 740,M300 S440 P200 ;A4: 440,M291 P"Printing finished !" R"Printing.." S1 T0,
;   exportFileFormat,gcode
;   celebration,0
;   celebrationSong,Star Wars
;   postProcessing,
;   defaultSpeed,6000
;   outlineUnderspeed,1
;   solidInfillUnderspeed,0.8
;   supportUnderspeed,0.8
;   rapidXYspeed,7200
;   rapidZspeed,1002
;   minBridgingArea,50
;   bridgingExtraInflation,0
;   bridgingExtrusionMultiplier,1
;   bridgingSpeedMultiplier,1
;   useFixedBridgingAngle,0
;   fixedBridgingAngle,0
;   applyBridgingToPerimeters,1
;   filamentDiameters,1.75|1.75|1.75|1.75|1.75|1.75
;   filamentPricesPerKg,30|110|110|110|110|110
;   filamentDensities,1.25|1.25|1.25|1.25|1.25|1.25
;   useMinPrintHeight,0
;   minPrintHeight,0
;   useMaxPrintHeight,0
;   maxPrintHeight,0
;   useDiaphragm,0
;   diaphragmLayerInterval,20
;   robustSlicing,1
;   mergeAllIntoSolid,0
;   onlyRetractWhenCrossingOutline,0
;   retractBetweenLayers,1
;   useRetractionMinTravel,1
;   retractionMinTravel,3
;   retractWhileWiping,1
;   onlyWipeOutlines,1
;   avoidCrossingOutline,1
;   maxMovementDetourFactor,3
;   toolChangeRetractionDistance,12
;   toolChangeExtraRestartDistance,-0.5
;   toolChangeRetractionSpeed,600
;   externalThinWallType,0
;   internalThinWallType,2
;   thinWallAllowedOverlapPercentage,15
;   singleExtrusionMinLength,1
;   singleExtrusionMinPrintingWidthPercentage,50
;   singleExtrusionMaxPrintingWidthPercentage,200
;   singleExtrusionEndpointExtension,0.2
;   horizontalSizeCompensation,0
G90
M82
M106 S0
M140 S60
M190 S60
M104 S215 T0
M109 S215 T0
M291 P"Homing all axis" R"Printing.." S1 T2
G21		; metric values
G28		; home all
M98 P"/macros/load_meshbed"	; load mesh bed corresponding to the temp
M98 P"/macros/set_baby_step"	; set baby step
M98 P"/macros/purge_and_prime"; purge and do the prime line
G92 E0 F100		; reset extruder
G1 Z10 F3000 		; move z up little to prevent scratching of surface
G92 E0 		; reset extruder
M291 P"Printing started !" R"Printing.." S1 T3
; process Process1
; layer 1, Z = 0.300
T0
G92 E0.0000
G1 E-1.5000 F5100
; feature skirt
; tool H0.300 W0.480
G1 Z0.300 F1002
G1 X116.216 Y243.720 F7200
G1 E0.0000 F5100
G92 E0.0000
G1 X112.280 Y239.784 E0.3333 F3000
G1 X112.280 Y162.736 E4.9460
G1 X113.799 Y159.819 E5.1429
G1 X117.280 Y157.381 E5.3973
G1 X117.280 Y156.877 E5.4275
G1 X113.799 Y154.440 E5.6819
G1 X112.280 Y151.523 E5.8788
G1 X112.280 Y114.216 E8.1123
G1 X116.216 Y110.280 E8.4455
G1 X193.264 Y110.280 E13.0583
G1 X196.181 Y111.799 E13.2551
G1 X198.619 Y115.280 E13.5096
G1 X199.123 Y115.280 E13.5397
G1 X201.560 Y111.799 E13.7942
G1 X204.477 Y110.280 E13.9911
G1 X241.784 Y110.280 E16.2245
G1 X245.720 Y114.216 E16.5578
G1 X245.720 Y127.784 E17.3700
G1 X241.784 Y131.720 E17.7033
G1 X185.663 Y131.720 E21.0631
G1 X183.193 Y130.697 E21.2232
G1 X183.000 Y130.504 E21.2396
G1 X182.807 Y130.697 E21.2560
G1 X180.337 Y131.720 E21.4160
G1 X133.720 Y131.720 E24.2069
G1 X133.720 Y160.573 E25.9342
G1 X132.870 Y162.848 E26.0796
G1 X132.220 Y163.596 E26.1390
G1 X132.220 Y164.332 E26.1830
G1 X132.870 Y165.080 E26.2423
G1 X133.720 Y167.355 E26.3878
G1 X133.720 Y194.645 E28.0215
G1 X132.870 Y196.920 E28.1669
G1 X132.220 Y197.668 E28.2263
G1 X132.220 Y198.404 E28.2703
G1 X132.870 Y199.152 E28.3296
G1 X133.720 Y201.427 E28.4750
G1 X133.720 Y239.784 E30.7714
G1 X129.784 Y243.720 E31.1047
G1 X116.216 Y243.720 E31.9169
G1 X116.415 Y243.240 F7200
G92 E0.0000
G1 X112.760 Y239.585 E0.3095 F3000
G1 X112.760 Y162.853 E4.9033
G1 X114.170 Y160.145 E5.0861
G1 X117.760 Y157.631 E5.3484
G1 X117.760 Y156.628 E5.4085
G1 X114.170 Y154.114 E5.6709
G1 X112.760 Y151.405 E5.8537
G1 X112.760 Y114.415 E8.0682
G1 X116.415 Y110.760 E8.3777
G1 X193.147 Y110.760 E12.9715
G1 X195.855 Y112.170 E13.1543
G1 X198.369 Y115.760 E13.4167
G1 X199.372 Y115.760 E13.4767
G1 X201.886 Y112.170 E13.7391
G1 X204.595 Y110.760 E13.9219
G1 X241.585 Y110.760 E16.1365
G1 X245.240 Y114.415 E16.4459
G1 X245.240 Y127.585 E17.2344
G1 X241.585 Y131.240 E17.5439
G1 X185.759 Y131.240 E20.8861
G1 X183.465 Y130.290 E21.0347
G1 X183.000 Y129.825 E21.0741
G1 X182.535 Y130.290 E21.1135
G1 X180.241 Y131.240 E21.2621
G1 X133.240 Y131.240 E24.0760
G1 X133.240 Y160.486 E25.8269
G1 X132.451 Y162.599 E25.9619
G1 X131.740 Y163.417 E26.0268
G1 X131.740 Y164.511 E26.0923
G1 X132.451 Y165.329 E26.1572
G1 X133.240 Y167.442 E26.2922
G1 X133.240 Y194.558 E27.9156
G1 X132.451 Y196.671 E28.0506
G1 X131.740 Y197.489 E28.1155
G1 X131.740 Y198.583 E28.1810
G1 X132.451 Y199.401 E28.2459
G1 X133.240 Y201.514 E28.3809
G1 X133.240 Y239.585 E30.6601
G1 X129.585 Y243.240 E30.9696
G1 X116.415 Y243.240 E31.7580
G92 E0.0000
G1 E-1.5000 F5100
; feature outer perimeter
G1 X119.240 Y236.760 F7200
G1 E0.0000 F5100
G92 E0.0000
G1 X119.240 Y204.118 E1.9542 F3000
G1 X119.424 Y204.118 E1.9652
G1 X124.240 Y207.490 E2.3172
G1 X124.240 Y200.116 E2.7587
G1 X119.424 Y203.488 E3.1106
G1 X119.240 Y203.488 E3.1217
G1 X119.240 Y164.505 E5.4555
G1 X124.240 Y161.004 E5.8209
G1 X124.240 Y153.254 E6.2849
G1 X119.240 Y149.753 E6.6503
G1 X119.240 Y117.240 E8.5968
G1 X151.882 Y117.240 E10.5510
G1 X151.882 Y117.424 E10.5621
G1 X148.510 Y122.240 E10.9140
G1 X155.884 Y122.240 E11.3555
G1 X152.512 Y117.424 E11.7075
G1 X152.512 Y117.240 E11.7185
G1 X191.495 Y117.240 E14.0523
G1 X194.996 Y122.240 E14.4178
G1 X202.746 Y122.240 E14.8817
G1 X206.247 Y117.240 E15.2472
G1 X238.760 Y117.240 E17.1937
G1 X238.760 Y124.760 E17.6439
G1 X187.099 Y124.760 E20.7367
G1 X185.599 Y123.260 E20.8637
G1 X180.401 Y123.260 E21.1750
G1 X178.901 Y124.760 E21.3020
G1 X126.760 Y124.760 E24.4235
G1 X126.760 Y159.269 E26.4895
G1 X125.260 Y160.996 E26.6265
G1 X125.260 Y166.932 E26.9819
G1 X126.760 Y168.659 E27.1188
G1 X126.760 Y193.341 E28.5964
G1 X125.260 Y195.068 E28.7334
G1 X125.260 Y201.004 E29.0888
G1 X126.760 Y202.731 E29.2257
G1 X126.760 Y236.760 E31.2630
G1 X119.440 Y236.760 E31.7012
G1 X119.240 Y236.760 F3000
G92 E0.0000
G1 X119.240 Y235.878 E-1.5000 F3000
G1 X119.240 Y232.760 F3000
; feature solid layer
G1 X120.237 Y236.352 F7200
G1 E0.0000 F5100
G92 E0.0000
G1 X119.648 Y235.763 E0.0499 F2400
G1 X119.648 Y235.084 E0.0905
G1 X120.916 Y236.352 E0.1978
G1 X121.595 Y236.352 E0.2385
G1 X119.648 Y234.405 E0.4033
G1 X119.648 Y233.727 E0.4439
G1 X122.273 Y236.352 E0.6662
G1 X122.952 Y236.352 E0.7068
G1 X119.648 Y233.048 E0.9866
G1 X119.648 Y232.369 E1.0272
G1 X123.631 Y236.352 E1.3645
G1 X124.310 Y236.352 E1.4051
G1 X119.648 Y231.690 E1.7998
G1 X119.648 Y231.011 E1.8404
G1 X124.989 Y236.352 E2.2926
G1 X125.667 Y236.352 E2.3333
G1 X119.648 Y230.333 E2.8429
G1 X119.648 Y229.654 E2.8835
G1 X126.346 Y236.352 E3.4507
G1 X126.352 Y236.352 E3.4510
G1 X126.352 Y235.679 E3.4913
G1 X119.648 Y228.975 E4.0589
G1 X119.648 Y228.296 E4.0995
G1 X126.352 Y235.000 E4.6672
G1 X126.352 Y234.321 E4.7078
G1 X119.648 Y227.617 E5.2754
G1 X119.648 Y226.938 E5.3160
G1 X126.352 Y233.642 E5.8836
G1 X126.352 Y232.964 E5.9243
G1 X119.648 Y226.260 E6.4919
G1 X119.648 Y225.581 E6.5325
G1 X126.352 Y232.285 E7.1001
G1 X126.352 Y231.606 E7.1408
G1 X119.648 Y224.902 E7.7084
G1 X119.648 Y224.223 E7.7490
G1 X126.352 Y230.927 E8.3166
G1 X126.352 Y230.248 E8.3573
G1 X119.648 Y223.544 E8.9249
G1 X119.648 Y222.865 E8.9655
G1 X126.352 Y229.569 E9.5331
G1 X126.352 Y228.891 E9.5737
G1 X119.648 Y222.187 E10.1413
G1 X119.648 Y221.508 E10.1820
G1 X126.352 Y228.212 E10.7496
G1 X126.352 Y227.533 E10.7902
G1 X119.648 Y220.829 E11.3578
G1 X119.648 Y220.150 E11.3985
G1 X126.352 Y226.854 E11.9661
G1 X126.352 Y226.175 E12.0067
G1 X119.648 Y219.471 E12.5743
G1 X119.648 Y218.793 E12.6150
G1 X126.352 Y225.497 E13.1826
G1 X126.352 Y224.818 E13.2232
G1 X119.648 Y218.114 E13.7908
G1 X119.648 Y217.435 E13.8315
G1 X126.352 Y224.139 E14.3991
G1 X126.352 Y223.460 E14.4397
G1 X119.648 Y216.756 E15.0073
G1 X119.648 Y216.077 E15.0479
G1 X126.352 Y222.781 E15.6155
G1 X126.352 Y222.102 E15.6562
G1 X119.648 Y215.398 E16.2238
G1 X119.648 Y214.720 E16.2644
G1 X126.352 Y221.424 E16.8320
G1 X126.352 Y220.745 E16.8727
G1 X119.648 Y214.041 E17.4403
G1 X119.648 Y213.362 E17.4809
G1 X126.352 Y220.066 E18.0485
G1 X126.352 Y219.387 E18.0892
G1 X119.648 Y212.683 E18.6568
G1 X119.648 Y212.004 E18.6974
G1 X126.352 Y218.708 E19.2650
G1 X126.352 Y218.029 E19.3056
G1 X119.648 Y211.325 E19.8733
G1 X119.648 Y210.647 E19.9139
G1 X126.352 Y217.351 E20.4815
G1 X126.352 Y216.672 E20.5221
G1 X119.648 Y209.968 E21.0897
G1 X119.648 Y209.289 E21.1304
G1 X126.352 Y215.993 E21.6980
G1 X126.352 Y215.314 E21.7386
G1 X119.648 Y208.610 E22.3062
G1 X119.648 Y207.931 E22.3469
G1 X126.352 Y214.635 E22.9145
G1 X126.352 Y213.957 E22.9551
G1 X119.648 Y207.253 E23.5227
G1 X119.648 Y206.574 E23.5634
G1 X126.352 Y213.278 E24.1310
G1 X126.352 Y212.599 E24.1716
G1 X119.648 Y205.895 E24.7392
G1 X119.648 Y205.216 E24.7798
G1 X126.352 Y211.920 E25.3474
G1 X126.352 Y211.241 E25.3881
G1 X120.434 Y205.323 E25.8891
G1 X122.698 Y206.909 E26.0546
G1 X126.352 Y210.562 E26.3640
G1 X126.352 Y209.884 E26.4046
G1 X124.648 Y208.180 E26.5489
G1 X124.648 Y207.501 E26.5895
G1 X126.352 Y209.205 E26.7338
G1 X126.352 Y208.526 E26.7744
G1 X124.648 Y206.822 E26.9187
G1 X124.648 Y206.143 E26.9594
G1 X126.352 Y207.847 E27.1036
G1 X126.352 Y207.168 E27.1443
G1 X124.648 Y205.464 E27.2885
G1 X124.648 Y204.786 E27.3292
G1 X126.352 Y206.490 E27.4735
G1 X126.352 Y205.811 E27.5141
G1 X124.648 Y204.107 E27.6584
G1 X124.648 Y203.428 E27.6990
G1 X126.352 Y205.132 E27.8433
G1 X126.352 Y204.453 E27.8839
G1 X124.648 Y202.749 E28.0282
G1 X124.648 Y202.070 E28.0688
G1 X126.352 Y203.774 E28.2131
G1 X126.352 Y203.095 E28.2537
G1 X124.648 Y201.391 E28.3980
G1 X124.648 Y200.713 E28.4386
G1 X124.852 Y200.917 E28.4559
G1 X124.852 Y200.238 E28.4966
G1 X124.789 Y200.175 E28.5019
G1 X124.648 Y200.034 F2400
G92 E0.0000
G1 E-1.5000 F5100
G1 X124.240 Y200.235 F7200
G1 X124.240 Y200.116
G1 X123.665 Y200.519
G1 X119.648 Y202.501
G1 E0.0000 F5100
G92 E0.0000
G1 X119.844 Y202.696 E0.0166 F2400
G1 X120.243 Y202.417 E0.0457
G1 X119.648 Y201.822 E0.0961
G1 X119.648 Y201.143 E0.1368
G1 X120.642 Y202.137 E0.2209
G1 X121.041 Y201.858 E0.2501
G1 X119.648 Y200.464 E0.3681
G1 X119.648 Y199.786 E0.4087
G1 X121.441 Y201.578 E0.5605
G1 X121.840 Y201.299 E0.5897
G1 X119.648 Y199.107 E0.7753
G1 X119.648 Y198.428 E0.8159
G1 X122.239 Y201.019 E1.0353
G1 X122.639 Y200.740 E1.0645
G1 X119.648 Y197.749 E1.3177
G1 X119.648 Y197.070 E1.3583
G1 X123.038 Y200.460 E1.6453
G1 X123.437 Y200.180 E1.6745
G1 X119.648 Y196.391 E1.9953
G1 X119.648 Y195.713 E2.0360
G1 X123.836 Y199.901 E2.3906
G1 X124.236 Y199.621 E2.4197
G1 X119.648 Y195.034 E2.8082
G1 X119.648 Y194.355 E2.8488
G1 X124.635 Y199.342 E3.2710
G1 X124.648 Y199.332 E3.2720
G1 X124.648 Y199.355 E3.2733
G1 X124.852 Y199.559 E3.2906
G1 X124.852 Y198.880 E3.3312
