; G-Code generated by Simplify3D(R) Version 4.1.2
; Mar 8, 2021 at 10:21:53 PM
; Settings Summary
;   processName,Process1
;   applyToModels,Voron_Design_Cube_v7
;   profileName,BLV mgn Cube-  Simplify3D Profile (modified)
;   profileVersion,2021-03-04 21:50:07
;   baseProfile,Anet A8
;   printMaterial,PLA
;   printQuality,Medium
;   printExtruders,
;   extruderName,Primary Extruder
;   extruderToolheadNumber,0
;   extruderDiameter,0.4
;   extruderAutoWidth,1
;   extruderWidth,0.48
;   extrusionMultiplier,1
;   extruderUseRetract,1
;   extruderRetractionDistance,1.5
;   extruderExtraRestartDistance,0
;   extruderRetractionZLift,0
;   extruderRetractionSpeed,5100
;   extruderUseCoasting,1
;   extruderCoastingDistance,0.2
;   extruderUseWipe,1
;   extruderWipeDistance,4
;   primaryExtruder,0
;   layerHeight,0.2
;   topSolidLayers,4
;   bottomSolidLayers,4
;   perimeterOutlines,4
;   printPerimetersInsideOut,0
;   startPointOption,3
;   startPointOriginX,0
;   startPointOriginY,500
;   sequentialIslands,0
;   spiralVaseMode,0
;   firstLayerHeightPercentage,150
;   firstLayerWidthPercentage,100
;   firstLayerUnderspeed,0.5
;   useRaft,0
;   raftExtruder,0
;   raftTopLayers,3
;   raftBaseLayers,2
;   raftOffset,3
;   raftSeparationDistance,0.14
;   raftTopInfill,100
;   aboveRaftSpeedMultiplier,0.3
;   useSkirt,1
;   skirtExtruder,0
;   skirtLayers,1
;   skirtOutlines,2
;   skirtOffset,6
;   usePrimePillar,0
;   primePillarExtruder,999
;   primePillarWidth,12
;   primePillarLocation,7
;   primePillarSpeedMultiplier,1
;   useOozeShield,0
;   oozeShieldExtruder,999
;   oozeShieldOffset,2
;   oozeShieldOutlines,1
;   oozeShieldSidewallShape,1
;   oozeShieldSidewallAngle,30
;   oozeShieldSpeedMultiplier,1
;   infillExtruder,0
;   internalInfillPattern,Rectilinear
;   externalInfillPattern,Rectilinear
;   infillPercentage,15
;   outlineOverlapPercentage,15
;   infillExtrusionWidthPercentage,100
;   minInfillLength,5
;   infillLayerInterval,1
;   internalInfillAngles,45,-45
;   overlapInternalInfillAngles,0
;   externalInfillAngles,45,-45
;   generateSupport,0
;   supportExtruder,0
;   supportInfillPercentage,30
;   supportExtraInflation,0
;   supportBaseLayers,0
;   denseSupportExtruder,0
;   denseSupportLayers,0
;   denseSupportInfillPercentage,70
;   supportLayerInterval,1
;   supportHorizontalPartOffset,0.4
;   supportUpperSeparationLayers,1
;   supportLowerSeparationLayers,1
;   supportType,0
;   supportGridSpacing,4.5
;   maxOverhangAngle,45
;   supportAngles,45,-45
;   temperatureName,Primary Extruder,Heated Bed
;   temperatureNumber,0,0
;   temperatureSetpointCount,2,1
;   temperatureSetpointLayers,1,2,1
;   temperatureSetpointTemperatures,215,210,60
;   temperatureStabilizeAtStartup,1,1
;   temperatureHeatedBed,0,1
;   fanLayers,1,2
;   fanSpeeds,0,100
;   blipFanToFullPower,1
;   adjustSpeedForCooling,1
;   minSpeedLayerTime,15
;   minCoolingSpeedSlowdown,20
;   increaseFanForCooling,0
;   minFanLayerTime,45
;   maxCoolingFanSpeed,100
;   increaseFanForBridging,1
;   bridgingFanSpeed,100
;   use5D,1
;   relativeEdistances,0
;   allowEaxisZeroing,1
;   independentExtruderAxes,0
;   includeM10123,0
;   stickySupport,1
;   applyToolheadOffsets,0
;   gcodeXoffset,24
;   gcodeYoffset,22
;   gcodeZoffset,0
;   overrideMachineDefinition,1
;   machineTypeOverride,0
;   strokeXoverride,310
;   strokeYoverride,310
;   strokeZoverride,334
;   originOffsetXoverride,0
;   originOffsetYoverride,0
;   originOffsetZoverride,0
;   homeXdirOverride,-1
;   homeYdirOverride,-1
;   homeZdirOverride,-1
;   flipXoverride,1
;   flipYoverride,-1
;   flipZoverride,1
;   toolheadOffsets,0,0|0,0|0,0|0,0|0,0|0,0
;   overrideFirmwareConfiguration,1
;   firmwareTypeOverride,RepRap (Marlin/Repetier/Sprinter)
;   GPXconfigOverride,r2
;   baudRateOverride,115200
;   overridePrinterModels,1
;   printerModelsOverride,Blvfull.stl
;   startingGcode,M291 P"Homing all axis" R"Printing.." S1 T2,G21		; metric values,G28		; home all,M98 P"/macros/load_meshbed"	; load mesh bed corresponding to the temp,M98 P"/macros/set_baby_step"	; set baby step,M98 P"/macros/purge_and_prime"; purge and do the prime line,,G92 E0 F100		; reset extruder,G1 Z10 F3000 		; move z up little to prevent scratching of surface,G92 E0 		; reset extruder,M291 P"Printing started !" R"Printing.." S1 T3
;   layerChangeGcode,
;   retractionGcode,
;   toolChangeGcode,
;   endingGcode,M104 S0 ; turn off extruder,M140 S0 ; turn off bed,M98 P"/macros/remove_baby_step"	; unset baby step,M98 P"/macros/rise30mm",G1 X0 Y300 F1000 ; prepare for part removal,M84 ; disable motors,M106 S0 ;turn off part cooling fan,;M81 ; shutdown,; play song,M300 S294 P200 ;D4: 294,M300 S588 P200 ;D5: 588,M300 S440 P200 ;A4: 440,M300 S392 P200 ;G4: 392,M300 S784 P200 ;G5: 784,M300 S440 P200 ;A4: 440,M300 S740 P200 ;F#5: 740,M300 S440 P200 ;A4: 440,M291 P"Printing finished !" R"Printing.." S1 T0,
;   exportFileFormat,gcode
;   celebration,0
;   celebrationSong,Star Wars
;   postProcessing,
;   defaultSpeed,4800
;   outlineUnderspeed,0.66
;   solidInfillUnderspeed,0.8
;   supportUnderspeed,0.8
;   rapidXYspeed,7200
;   rapidZspeed,1002
;   minBridgingArea,50
;   bridgingExtraInflation,0
;   bridgingExtrusionMultiplier,1
;   bridgingSpeedMultiplier,1
;   useFixedBridgingAngle,0
;   fixedBridgingAngle,0
;   applyBridgingToPerimeters,1
;   filamentDiameters,1.75|1.75|1.75|1.75|1.75|1.75
;   filamentPricesPerKg,110|110|110|110|110|110
;   filamentDensities,1.25|1.25|1.25|1.25|1.25|1.25
;   useMinPrintHeight,0
;   minPrintHeight,0
;   useMaxPrintHeight,0
;   maxPrintHeight,0
;   useDiaphragm,0
;   diaphragmLayerInterval,20
;   robustSlicing,1
;   mergeAllIntoSolid,0
;   onlyRetractWhenCrossingOutline,0
;   retractBetweenLayers,1
;   useRetractionMinTravel,1
;   retractionMinTravel,3
;   retractWhileWiping,1
;   onlyWipeOutlines,1
;   avoidCrossingOutline,1
;   maxMovementDetourFactor,3
;   toolChangeRetractionDistance,12
;   toolChangeExtraRestartDistance,-0.5
;   toolChangeRetractionSpeed,600
;   externalThinWallType,0
;   internalThinWallType,2
;   thinWallAllowedOverlapPercentage,15
;   singleExtrusionMinLength,1
;   singleExtrusionMinPrintingWidthPercentage,50
;   singleExtrusionMaxPrintingWidthPercentage,200
;   singleExtrusionEndpointExtension,0.2
;   horizontalSizeCompensation,0
G90
M82
M106 S0
M140 S60
M190 S60
M104 S215 T0
M109 S215 T0
M291 P"Homing all axis" R"Printing.." S1 T2
G21		; metric values
G28		; home all
M98 P"/macros/load_meshbed"	; load mesh bed corresponding to the temp
M98 P"/macros/set_baby_step"	; set baby step
M98 P"/macros/purge_and_prime"; purge and do the prime line
G92 E0 F100		; reset extruder
G1 Z10 F3000 		; move z up little to prevent scratching of surface
G92 E0 		; reset extruder
M291 P"Printing started !" R"Printing.." S1 T3
; process Process1
; layer 1, Z = 0.300
T0
G92 E0.0000
G1 E-1.5000 F5100
; feature skirt
; tool H0.300 W0.480
G1 Z0.300 F1002
G1 X166.016 Y197.647 F7200
G1 E0.0000 F5100
G92 E0.0000
G1 X158.353 Y189.984 E0.6488 F2400
G1 X157.330 Y187.514 E0.8089
G1 X157.330 Y166.486 E2.0678
G1 X158.353 Y164.016 E2.2278
G1 X166.016 Y156.353 E2.8766
G1 X168.486 Y155.330 E3.0367
G1 X189.514 Y155.330 E4.2956
G1 X191.984 Y156.353 E4.4556
G1 X199.647 Y164.016 E5.1044
G1 X200.670 Y166.486 E5.2645
G1 X200.670 Y187.514 E6.5234
G1 X199.647 Y189.984 E6.6834
G1 X191.984 Y197.647 E7.3322
G1 X189.514 Y198.670 E7.4923
G1 X168.486 Y198.670 E8.7512
G1 X166.016 Y197.647 E8.9112
G1 X166.288 Y197.240 F7200
G92 E0.0000
G1 X158.760 Y189.712 E0.6374 F2400
G1 X157.810 Y187.418 E0.7860
G1 X157.810 Y166.582 E2.0335
G1 X158.760 Y164.288 E2.1821
G1 X166.288 Y156.760 E2.8195
G1 X168.582 Y155.810 E2.9681
G1 X189.418 Y155.810 E4.2155
G1 X191.712 Y156.760 E4.3641
G1 X199.240 Y164.288 E5.0015
G1 X200.190 Y166.582 E5.1502
G1 X200.190 Y187.418 E6.3976
G1 X199.240 Y189.712 E6.5462
G1 X191.712 Y197.240 E7.1836
G1 X189.418 Y198.190 E7.3322
G1 X168.582 Y198.190 E8.5797
G1 X166.288 Y197.240 E8.7283
G92 E0.0000
G1 E-1.5000 F5100
; feature outer perimeter
G1 X169.922 Y191.710 F7200
G1 E0.0000 F5100
G92 E0.0000
G1 X164.290 Y186.078 E0.4769 F1584
G1 X164.290 Y167.922 E1.5638
G1 X169.922 Y162.290 E2.0407
G1 X188.078 Y162.290 E3.1276
G1 X193.710 Y167.922 E3.6045
G1 X193.710 Y186.078 E4.6914
G1 X188.078 Y191.710 E5.1683
G1 X170.122 Y191.710 E6.2432
G1 X169.922 Y191.710 F1584
G92 E0.0000
G1 X169.593 Y191.381 E-1.5000 F1584
G1 X167.094 Y188.882 F1584
; feature inner perimeter
G1 X164.770 Y185.879 F7200
G1 E0.0000 F5100
G92 E0.0000
G1 X164.770 Y168.121 E1.0631 F1992
G1 X170.121 Y162.770 E1.5162
G1 X187.879 Y162.770 E2.5793
G1 X193.230 Y168.121 E3.0324
G1 X193.230 Y185.879 E4.0955
G1 X187.879 Y191.230 E4.5485
G1 X170.121 Y191.230 E5.6117
G1 X164.911 Y186.020 E6.0528
G1 X164.770 Y185.879 F1992
G1 X165.250 Y185.680 F7200
G92 E0.0000
G1 X165.250 Y168.320 E1.0393 F1992
G1 X170.320 Y163.250 E1.4686
G1 X187.680 Y163.250 E2.5079
G1 X192.750 Y168.320 E2.9371
G1 X192.750 Y185.680 E3.9764
G1 X187.680 Y190.750 E4.4057
G1 X170.320 Y190.750 E5.4450
G1 X165.391 Y185.821 E5.8623
G1 X165.250 Y185.680 F1992
G1 X165.730 Y185.481 F7200
G92 E0.0000
G1 X165.730 Y168.519 E1.0155 F1992
G1 X170.519 Y163.730 E1.4210
G1 X187.481 Y163.730 E2.4365
G1 X192.270 Y168.519 E2.8419
G1 X192.270 Y185.481 E3.8574
G1 X187.481 Y190.270 E4.2629
G1 X170.519 Y190.270 E5.2784
G1 X165.871 Y185.623 E5.6719
G1 X165.730 Y185.481 F1992
G92 E0.0000
G1 E-1.5000 F5100
; feature outer perimeter
G1 X172.315 Y181.285 F7200
G1 E0.0000 F5100
G92 E0.0000
G1 X172.546 Y181.625 E0.0246 F1584
G1 X172.794 Y181.953 E0.0493
G1 X173.059 Y182.268 E0.0739
G1 X173.340 Y182.569 E0.0985
G1 X173.636 Y182.854 E0.1231
G1 X173.947 Y183.124 E0.1478
G1 X174.271 Y183.378 E0.1724
G1 X174.607 Y183.614 E0.1970
G1 X174.957 Y183.833 E0.2217
G1 X175.410 Y184.081 E0.2526
G1 X176.060 Y184.376 E0.2954
G1 X176.449 Y184.519 E0.3202
G1 X176.841 Y184.641 E0.3448
G1 X177.240 Y184.742 E0.3694
G1 X177.643 Y184.823 E0.3941
G1 X178.050 Y184.883 E0.4187
G1 X178.460 Y184.922 E0.4433
G1 X178.871 Y184.939 E0.4679
G1 X179.282 Y184.935 E0.4926
G1 X179.693 Y184.910 E0.5172
G1 X180.102 Y184.863 E0.5418
G1 X180.508 Y184.795 E0.5665
G1 X180.910 Y184.707 E0.5911
G1 X181.407 Y184.566 E0.6221
G1 X182.077 Y184.319 E0.6648
G1 X182.455 Y184.149 E0.6896
G1 X182.820 Y183.960 E0.7142
G1 X183.176 Y183.753 E0.7389
G1 X183.520 Y183.528 E0.7635
G1 X183.852 Y183.285 E0.7881
G1 X184.171 Y183.025 E0.8127
G1 X184.476 Y182.749 E0.8374
G1 X184.766 Y182.458 E0.8620
G1 X185.041 Y182.152 E0.8866
G1 X185.300 Y181.832 E0.9113
G1 X185.542 Y181.499 E0.9359
G1 X185.766 Y181.154 E0.9605
G1 X185.972 Y180.798 E0.9851
G1 X186.160 Y180.432 E1.0098
G1 X186.328 Y180.057 E1.0344
G1 X186.476 Y179.673 E1.0590
G1 X186.605 Y179.282 E1.0837
G1 X186.713 Y178.885 E1.1083
G1 X186.800 Y178.483 E1.1329
G1 X186.866 Y178.077 E1.1576
G1 X186.919 Y177.565 E1.1884
G1 X186.938 Y177.154 E1.2130
G1 X186.935 Y176.742 E1.2377
G1 X186.911 Y176.332 E1.2623
G1 X186.866 Y175.923 E1.2869
G1 X186.800 Y175.517 E1.3115
G1 X186.712 Y175.112 E1.3363
G1 X186.511 Y174.427 E1.3791
G1 X186.328 Y173.944 E1.4100
G1 X186.160 Y173.568 E1.4347
G1 X185.972 Y173.202 E1.4593
G1 X185.766 Y172.846 E1.4839
G1 X185.542 Y172.501 E1.5086
G1 X185.300 Y172.168 E1.5332
G1 X185.041 Y171.848 E1.5578
G1 X184.766 Y171.542 E1.5824
G1 X184.476 Y171.251 E1.6071
G1 X184.171 Y170.975 E1.6317
G1 X183.852 Y170.715 E1.6563
G1 X183.520 Y170.472 E1.6810
G1 X183.174 Y170.245 E1.7057
G1 X182.549 Y169.898 E1.7485
G1 X182.080 Y169.682 E1.7794
G1 X181.696 Y169.532 E1.8041
G1 X181.306 Y169.402 E1.8287
G1 X180.909 Y169.293 E1.8534
G1 X180.508 Y169.205 E1.8780
G1 X180.102 Y169.137 E1.9026
G1 X179.693 Y169.090 E1.9272
G1 X179.282 Y169.065 E1.9519
G1 X178.871 Y169.061 E1.9765
G1 X178.460 Y169.078 E2.0011
G1 X178.050 Y169.117 E2.0258
G1 X177.643 Y169.177 E2.0504
G1 X177.238 Y169.258 E2.0752
G1 X176.549 Y169.449 E2.1179
G1 X176.064 Y169.623 E2.1488
G1 X175.684 Y169.785 E2.1735
G1 X175.315 Y169.967 E2.1981
G1 X174.956 Y170.167 E2.2228
G1 X174.607 Y170.386 E2.2474
G1 X174.271 Y170.622 E2.2720
G1 X173.947 Y170.876 E2.2967
G1 X173.636 Y171.146 E2.3213
G1 X173.340 Y171.431 E2.3459
G1 X173.059 Y171.732 E2.3706
G1 X172.794 Y172.047 E2.3952
G1 X172.546 Y172.375 E2.4198
G1 X172.315 Y172.715 E2.4444
G1 X172.102 Y173.067 E2.4691
G1 X171.908 Y173.430 E2.4937
G1 X171.732 Y173.802 E2.5183
G1 X171.577 Y174.183 E2.5430
G1 X171.441 Y174.571 E2.5676
G1 X171.325 Y174.966 E2.5922
G1 X171.230 Y175.366 E2.6169
G1 X171.155 Y175.773 E2.6416
G1 X171.079 Y176.483 E2.6844
G1 X171.060 Y176.999 E2.7153
G1 X171.071 Y177.411 E2.7400
G1 X171.103 Y177.821 E2.7646
G1 X171.156 Y178.229 E2.7892
G1 X171.230 Y178.634 E2.8139
G1 X171.325 Y179.035 E2.8386
G1 X171.475 Y179.529 E2.8695
G1 X171.731 Y180.196 E2.9122
G1 X171.908 Y180.570 E2.9370
G1 X172.102 Y180.933 E2.9616
G1 X172.212 Y181.114 E2.9743
G1 X172.315 Y181.285 F1584
G1 X172.546 Y181.625 F1584
G1 X172.794 Y181.953
G1 X173.059 Y182.268
G1 X173.340 Y182.569
G1 X173.636 Y182.854
G1 X173.947 Y183.124
G1 X174.271 Y183.378
G1 X174.607 Y183.614
G1 X174.957 Y183.833
G1 X175.217 Y183.975
; feature inner perimeter
G1 X175.195 Y184.510 F7200
G92 E0.0000
G1 X175.878 Y184.820 E0.0449 F1992
G1 X176.294 Y184.974 E0.0714
G1 X176.711 Y185.103 E0.0976
G1 X177.134 Y185.211 E0.1237
G1 X177.561 Y185.296 E0.1498
G1 X177.993 Y185.360 E0.1759
G1 X178.427 Y185.401 E0.2020
G1 X178.863 Y185.419 E0.2282
G1 X179.300 Y185.415 E0.2543
G1 X179.735 Y185.388 E0.2804
G1 X180.169 Y185.339 E0.3065
G1 X180.599 Y185.267 E0.3326
G1 X181.028 Y185.172 E0.3589
G1 X181.555 Y185.022 E0.3918
G1 X182.259 Y184.764 E0.4366
G1 X182.663 Y184.581 E0.4632
G1 X183.051 Y184.381 E0.4893
G1 X183.428 Y184.162 E0.5154
G1 X183.793 Y183.923 E0.5416
G1 X184.145 Y183.665 E0.5677
G1 X184.484 Y183.390 E0.5938
G1 X184.807 Y183.097 E0.6199
G1 X185.115 Y182.788 E0.6460
G1 X185.407 Y182.464 E0.6722
G1 X185.681 Y182.124 E0.6983
G1 X185.937 Y181.771 E0.7244
G1 X186.175 Y181.406 E0.7505
G1 X186.394 Y181.028 E0.7766
G1 X186.592 Y180.640 E0.8027
G1 X186.771 Y180.242 E0.8289
G1 X186.928 Y179.835 E0.8550
G1 X187.064 Y179.420 E0.8811
G1 X187.179 Y178.999 E0.9072
G1 X187.272 Y178.573 E0.9333
G1 X187.342 Y178.140 E0.9596
G1 X187.398 Y177.601 E0.9920
G1 X187.418 Y177.163 E1.0183
G1 X187.415 Y176.727 E1.0444
G1 X187.390 Y176.291 E1.0705
G1 X187.342 Y175.858 E1.0967
G1 X187.272 Y175.427 E1.1228
G1 X187.178 Y174.994 E1.1493
G1 X186.966 Y174.274 E1.1942
G1 X186.772 Y173.761 E1.2271
G1 X186.593 Y173.360 E1.2533
G1 X186.394 Y172.972 E1.2795
G1 X186.175 Y172.594 E1.3056
G1 X185.937 Y172.229 E1.3317
G1 X185.681 Y171.876 E1.3578
G1 X185.407 Y171.536 E1.3839
G1 X185.115 Y171.212 E1.4101
G1 X184.807 Y170.903 E1.4362
G1 X184.483 Y170.610 E1.4623
G1 X184.145 Y170.335 E1.4884
G1 X183.793 Y170.077 E1.5145
G1 X183.422 Y169.834 E1.5411
G1 X182.767 Y169.470 E1.5860
G1 X182.269 Y169.240 E1.6188
G1 X181.859 Y169.080 E1.6451
G1 X181.445 Y168.943 E1.6712
G1 X181.025 Y168.827 E1.6973
G1 X180.599 Y168.733 E1.7235
G1 X180.169 Y168.661 E1.7496
G1 X179.735 Y168.612 E1.7757
G1 X179.300 Y168.585 E1.8018
G1 X178.863 Y168.581 E1.8279
G1 X178.427 Y168.599 E1.8541
G1 X177.993 Y168.640 E1.8802
G1 X177.561 Y168.704 E1.9063
G1 X177.126 Y168.791 E1.9329
G1 X176.404 Y168.991 E1.9777
G1 X175.888 Y169.176 E2.0106
G1 X175.484 Y169.349 E2.0369
G1 X175.092 Y169.541 E2.0630
G1 X174.711 Y169.754 E2.0891
G1 X174.342 Y169.986 E2.1152
G1 X173.985 Y170.236 E2.1414
G1 X173.641 Y170.505 E2.1675
G1 X173.312 Y170.792 E2.1936
G1 X172.998 Y171.095 E2.2197
G1 X172.700 Y171.413 E2.2458
G1 X172.419 Y171.747 E2.2720
