; generated by PrusaSlicer 2.3.0+win64 on 2021-02-28 at 17:59:17 UTC

; 

; external perimeters extrusion width = 0.45mm
; perimeters extrusion width = 0.45mm
; infill extrusion width = 0.45mm
; solid infill extrusion width = 0.45mm
; top infill extrusion width = 0.40mm
; first layer extrusion width = 0.42mm

M107
;TYPE:Custom
; debut start gcode
G90 ; use absolute coordinates
M83 ; extruder relative mode
M104 S215 ; set extruder temp for bed leveling
M140 S70 ; set bed temp
M109 R215 ; wait for bed leveling extruder temp
M190 S70 ; wait for bed temp
M291 P"Homing all axis" R"Printing.." S1 T2
G21		; metric values
G28		; home all
M98 P"/macros/load_meshbed"	; load mesh bed corresponding to the temp
M98 P"/macros/set_baby_step"	; set baby step
M98 P"/macros/purge_and_prime"; purge and do the prime line
G92 E0 F100		; reset extruder
G1 Z10 F3000 		; move z up little to prevent scratching of surface
G92 E0 		; reset extruder
M291 P"Printing started !" R"Printing.." S1 T3
;fin start gcode
G21 ; set units to millimeters
G90 ; use absolute coordinates
M82 ; use absolute distances for extrusion
G92 E0
M900 K0.05 ; Filament gcode LA 1.5
M900 K30 ; Filament gcode LA 1.0
;LAYER_CHANGE
;Z:0.25
;HEIGHT:0.25
G1 Z0.250 F4800.000
;AFTER_LAYER_CHANGE
;0.25
G1 E-2.00000 F2400.000
G92 E0
G1 X110.821 Y90.197 F4800.000
G1 E2.00000 F2400.000
;TYPE:Skirt
;WIDTH:0.42
G1 F1200.000
G1 X111.890 Y89.445 E2.04976
G1 X113.090 Y88.927 E2.09952
G1 X114.364 Y88.666 E2.14904
G1 X135.006 Y88.634 E2.93506
G1 X136.116 Y88.732 E2.97749
G1 X137.198 Y89.025 E3.02016
G1 X138.206 Y89.500 E3.06259
G1 X139.116 Y90.143 E3.10503
G1 X139.900 Y90.935 E3.14746
G1 X140.534 Y91.852 E3.18989
G1 X140.998 Y92.865 E3.23233
G1 X141.279 Y93.950 E3.27499
G1 X141.366 Y94.973 E3.31412
G1 X141.359 Y115.312 E4.08854
G1 X141.240 Y116.263 E4.12506
G1 X140.981 Y117.180 E4.16134
G1 X140.589 Y118.049 E4.19763
G1 X140.071 Y118.849 E4.23391
G1 X139.108 Y119.864 E4.28720
G1 X137.951 Y120.641 E4.34027
G1 X136.647 Y121.150 E4.39356
G1 X135.270 Y121.361 E4.44663
G1 X114.664 Y121.357 E5.23126
G1 X113.725 Y121.237 E5.26730
G1 X112.814 Y120.979 E5.30335
G1 X111.946 Y120.586 E5.33963
G1 X111.151 Y120.071 E5.37567
G1 X110.136 Y119.108 E5.42897
G1 X109.359 Y117.951 E5.48203
G1 X108.850 Y116.647 E5.53533
G1 X108.639 Y115.270 E5.58839
G1 X108.643 Y94.664 E6.37302
G1 X108.763 Y93.725 E6.40907
G1 X109.021 Y92.814 E6.44511
G1 X109.414 Y91.946 E6.48139
G1 X109.929 Y91.151 E6.51744
G1 X110.780 Y90.241 E6.56491
G1 E4.56491 F2400.000
G92 E0
G1 X116.143 Y96.143 F4800.000
G1 E2.00000 F2400.000
;TYPE:Perimeter
G1 F1200.000
G1 X133.857 Y96.143 E2.67453
G1 X133.857 Y113.857 E3.34906
G1 X116.143 Y113.857 E4.02359
G1 X116.143 Y96.203 E4.69583
G1 X115.776 Y95.776 F4800.000
G1 F1200.000
G1 X134.224 Y95.776 E5.39826
G1 X134.224 Y114.224 E6.10069
G1 X115.776 Y114.224 E6.80312
G1 X115.776 Y95.836 E7.50327
G1 X115.410 Y95.410 F4800.000
;TYPE:External perimeter
G1 F1200.000
G1 X134.590 Y95.410 E8.23360
G1 X134.590 Y114.590 E8.96392
G1 X115.410 Y114.590 E9.69425
G1 X115.410 Y95.470 E10.42230
G1 X115.796 Y95.514 F4800.000
G1 E8.42230 F2400.000
G92 E0
G1 X132.999 Y96.253 F4800.000
G1 E2.00000 F2400.000
;TYPE:Solid infill
;WIDTH:0.423697
G1 F1200.000
G1 X133.583 Y96.836 E2.03174
G1 X133.583 Y97.359 E2.05187
G1 X132.641 Y96.417 E2.10311
G1 X132.117 Y96.417 E2.12324
G1 X133.583 Y97.883 E2.20294
G1 X133.583 Y98.406 E2.22307
G1 X131.594 Y96.417 E2.33124
G1 X131.071 Y96.417 E2.35137
G1 X133.583 Y98.929 E2.48801
G1 X133.583 Y99.453 E2.50814
G1 X130.547 Y96.417 E2.67324
G1 X130.024 Y96.417 E2.69337
G1 X133.583 Y99.976 E2.88694
G1 X133.583 Y100.499 E2.90706
G1 X129.501 Y96.417 E3.12910
G1 X128.977 Y96.417 E3.14922
G1 X133.583 Y101.023 E3.39972
G1 X133.583 Y101.546 E3.41985
G1 X128.454 Y96.417 E3.69882
G1 X127.931 Y96.417 E3.71894
G1 X133.583 Y102.069 E4.02637
G1 X133.583 Y102.593 E4.04650
G1 X127.407 Y96.417 E4.38240
G1 X126.884 Y96.417 E4.40252
G1 X133.583 Y103.116 E4.76688
G1 X133.583 Y103.639 E4.78701
G1 X126.361 Y96.417 E5.17984
G1 X125.837 Y96.417 E5.19997
G1 X133.583 Y104.163 E5.62126
G1 X133.583 Y104.686 E5.64139
G1 X125.314 Y96.417 E6.09114
G1 X124.791 Y96.417 E6.11127
G1 X133.583 Y105.209 E6.58949
G1 X133.583 Y105.733 E6.60962
G1 X124.267 Y96.417 E7.11631
G1 X123.744 Y96.417 E7.13644
G1 X133.583 Y106.256 E7.67159
G1 X133.583 Y106.779 E7.69172
G1 X123.221 Y96.417 E8.25533
G1 X122.697 Y96.417 E8.27546
G1 X133.583 Y107.303 E8.86755
G1 X133.583 Y107.826 E8.88767
G1 X122.174 Y96.417 E9.50822
G1 X121.651 Y96.417 E9.52835
G1 X133.583 Y108.349 E10.17737
G1 X133.583 Y108.873 E10.19749
G1 X121.127 Y96.417 E10.87497
G1 X120.604 Y96.417 E10.89510
G1 X133.583 Y109.396 E11.60105
G1 X133.583 Y109.919 E11.62118
G1 X120.081 Y96.417 E12.35559
G1 X119.557 Y96.417 E12.37572
G1 X133.583 Y110.443 E13.13859
G1 X133.583 Y110.966 E13.15872
G1 X119.034 Y96.417 E13.95006
G1 X118.511 Y96.417 E13.97019
G1 X133.583 Y111.489 E14.79000
G1 X133.583 Y112.013 E14.81012
G1 X117.987 Y96.417 E15.65840
G1 X117.464 Y96.417 E15.67853
G1 X133.583 Y112.536 E16.55526
G1 X133.583 Y113.059 E16.57539
G1 X116.941 Y96.417 E17.48060
G1 X116.417 Y96.417 E17.50072
G1 X133.583 Y113.583 E18.43439
G1 X133.059 Y113.583 E18.45452
G1 X116.417 Y96.941 E19.35972
G1 X116.417 Y97.464 E19.37985
G1 X132.536 Y113.583 E20.25658
G1 X132.013 Y113.583 E20.27671
G1 X116.417 Y97.987 E21.12498
G1 X116.417 Y98.511 E21.14511
G1 X131.489 Y113.583 E21.96491
G1 X130.966 Y113.583 E21.98504
G1 X116.417 Y99.034 E22.77638
G1 X116.417 Y99.557 E22.79651
G1 X130.443 Y113.583 E23.55938
G1 X129.919 Y113.583 E23.57951
G1 X116.417 Y100.081 E24.31392
G1 X116.417 Y100.604 E24.33405
G1 X129.396 Y113.583 E25.03999
G1 X128.873 Y113.583 E25.06012
G1 X116.417 Y101.127 E25.73760
G1 X116.417 Y101.651 E25.75772
G1 X128.349 Y113.583 E26.40674
G1 X127.826 Y113.583 E26.42686
G1 X116.417 Y102.174 E27.04741
G1 X116.417 Y102.697 E27.06754
G1 X127.303 Y113.583 E27.65962
G1 X126.779 Y113.583 E27.67975
G1 X116.417 Y103.221 E28.24336
G1 X116.417 Y103.744 E28.26349
G1 X126.256 Y113.583 E28.79864
G1 X125.733 Y113.583 E28.81877
G1 X116.417 Y104.267 E29.32546
G1 X116.417 Y104.791 E29.34558
G1 X125.209 Y113.583 E29.82380
G1 X124.686 Y113.583 E29.84393
G1 X116.417 Y105.314 E30.29369
G1 X116.417 Y105.837 E30.31381
G1 X124.163 Y113.583 E30.73510
G1 X123.639 Y113.583 E30.75523
G1 X116.417 Y106.361 E31.14805
G1 X116.417 Y106.884 E31.16818
G1 X123.116 Y113.583 E31.53254
G1 X122.593 Y113.583 E31.55267
G1 X116.417 Y107.407 E31.88856
G1 X116.417 Y107.931 E31.90869
G1 X122.069 Y113.583 E32.21611
G1 X121.546 Y113.583 E32.23624
G1 X116.417 Y108.454 E32.51520
G1 X116.417 Y108.977 E32.53533
G1 X121.023 Y113.583 E32.78583
G1 X120.499 Y113.583 E32.80596
G1 X116.417 Y109.501 E33.02799
G1 X116.417 Y110.024 E33.04812
G1 X119.976 Y113.583 E33.24168
G1 X119.453 Y113.583 E33.26181
G1 X116.417 Y110.547 E33.42691
G1 X116.417 Y111.071 E33.44704
G1 X118.929 Y113.583 E33.58367
G1 X118.406 Y113.583 E33.60380
G1 X116.417 Y111.594 E33.71197
G1 X116.417 Y112.117 E33.73210
G1 X117.883 Y113.583 E33.81180
G1 X117.359 Y113.583 E33.83193
G1 X116.417 Y112.641 E33.88317
G1 X116.417 Y113.164 E33.90329
G1 X117.001 Y113.747 E33.93503
M106 S76.5
;LAYER_CHANGE
;Z:0.45
;HEIGHT:0.2
G1 Z0.450 F4800.000
;AFTER_LAYER_CHANGE
;0.45
G10 S210 ; set temperature
G1 E31.93503 F2400.000
G92 E0
G1 X110.136 Y119.108 F4800.000
G1 E2.00000 F2400.000
;TYPE:Skirt
;WIDTH:0.42
G1 X109.359 Y117.951 E2.04369
G1 X108.850 Y116.647 E2.08758
G1 X108.639 Y115.270 E2.13127
G1 X108.643 Y94.664 E2.77736
G1 X108.763 Y93.725 E2.80704
G1 X109.021 Y92.814 E2.83672
G1 X109.414 Y91.946 E2.86660
G1 X109.929 Y91.151 E2.89628
G1 X110.821 Y90.197 E2.93725
G1 X111.890 Y89.445 E2.97822
G1 X113.090 Y88.927 E3.01919
G1 X114.364 Y88.666 E3.05997
G1 X135.006 Y88.634 E3.70721
G1 X136.116 Y88.732 E3.74215
G1 X137.198 Y89.025 E3.77728
G1 X138.206 Y89.500 E3.81222
G1 X139.116 Y90.143 E3.84716
G1 X139.900 Y90.935 E3.88210
G1 X140.534 Y91.852 E3.91705
G1 X140.998 Y92.865 E3.95199
G1 X141.279 Y93.950 E3.98712
G1 X141.366 Y94.973 E4.01933
G1 X141.359 Y115.312 E4.65702
G1 X141.240 Y116.263 E4.68709
G1 X140.981 Y117.180 E4.71697
G1 X140.589 Y118.049 E4.74684
G1 X140.071 Y118.849 E4.77672
G1 X139.108 Y119.864 E4.82061
G1 X137.951 Y120.641 E4.86430
G1 X136.647 Y121.150 E4.90819
G1 X135.270 Y121.361 E4.95188
G1 X114.664 Y121.357 E5.59797
G1 X113.725 Y121.237 E5.62765
G1 X112.814 Y120.979 E5.65733
G1 X111.946 Y120.586 E5.68720
G1 X111.151 Y120.071 E5.71689
G1 X110.180 Y119.149 E5.75889
G1 E3.75889
G92 E0
G1 X116.039 Y96.039 F4800.000
G1 E2.00000 F2400.000
;TYPE:Perimeter
;WIDTH:0.45
G1 X133.961 Y96.039 E2.60663
G1 X133.961 Y113.961 E3.21326
G1 X116.039 Y113.961 E3.81988
G1 X116.039 Y96.099 E4.42448
G1 X115.632 Y95.632 F4800.000
G1 F2400.000
G1 X134.368 Y95.632 E5.05867
G1 X134.368 Y114.368 E5.69285
G1 X115.632 Y114.368 E6.32704
G1 X115.632 Y95.692 E6.95919
G1 X115.225 Y95.410 F4800.000
;TYPE:External perimeter
G1 F2400.000
G1 X115.225 Y95.225 E6.96545
G1 X134.775 Y95.225 E7.62720
G1 X134.775 Y114.775 E8.28894
G1 X115.225 Y114.775 E8.95069
G1 X115.225 Y95.470 E9.60414
G1 X115.356 Y95.279 F4800.000
G1 X133.008 Y113.839
;TYPE:Solid infill
;WIDTH:0.453694
G1 F1383.585
G1 X133.656 Y113.191 E9.63542
G1 X133.656 Y112.610 E9.65526
G1 X132.610 Y113.656 E9.70575
G1 X132.029 Y113.656 E9.72559
G1 X133.656 Y112.029 E9.80415
G1 X133.656 Y111.448 E9.82399
G1 X131.448 Y113.656 E9.93060
G1 X130.867 Y113.656 E9.95045
G1 X133.656 Y110.867 E10.08512
G1 X133.656 Y110.287 E10.10496
G1 X130.287 Y113.656 E10.26770
G1 X129.706 Y113.656 E10.28754
G1 X133.656 Y109.706 E10.47833
G1 X133.656 Y109.125 E10.49818
G1 X129.125 Y113.656 E10.71703
G1 X128.544 Y113.656 E10.73688
G1 X133.656 Y108.544 E10.98379
G1 X133.656 Y107.963 E11.00363
G1 X127.963 Y113.656 E11.27861
G1 X127.382 Y113.656 E11.29846
G1 X133.656 Y107.382 E11.60149
G1 X133.656 Y106.801 E11.62134
G1 X126.801 Y113.656 E11.95244
G1 X126.220 Y113.656 E11.97228
G1 X133.656 Y106.220 E12.33144
G1 X133.656 Y105.639 E12.35128
G1 X125.639 Y113.656 E12.73850
G1 X125.058 Y113.656 E12.75834
G1 X133.656 Y105.058 E13.17363
G1 X133.656 Y104.477 E13.19347
G1 X124.477 Y113.656 E13.63681
G1 X123.896 Y113.656 E13.65665
G1 X133.656 Y103.896 E14.12806
G1 X133.656 Y103.315 E14.14790
G1 X123.315 Y113.656 E14.64736
G1 X122.735 Y113.656 E14.66721
G1 X133.656 Y102.735 E15.19473
G1 X133.656 Y102.154 E15.21457
G1 X122.154 Y113.656 E15.77016
G1 X121.573 Y113.656 E15.79000
G1 X133.656 Y101.573 E16.37365
G1 X133.656 Y100.992 E16.39349
G1 X120.992 Y113.656 E17.00520
G1 X120.411 Y113.656 E17.02504
G1 X133.656 Y100.411 E17.66481
G1 X133.656 Y99.830 E17.68465
G1 X119.830 Y113.656 E18.35248
G1 X119.249 Y113.656 E18.37232
G1 X133.656 Y99.249 E19.06821
G1 X133.656 Y98.668 E19.08805
G1 X118.668 Y113.656 E19.81201
G1 X118.087 Y113.656 E19.83185
G1 X133.656 Y98.087 E20.58386
G1 X133.656 Y97.506 E20.60370
G1 X117.506 Y113.656 E21.38377
G1 X116.925 Y113.656 E21.40362
G1 X133.656 Y96.925 E22.21175
G1 X133.656 Y96.344 E22.23159
G1 X116.344 Y113.656 E23.06778
G1 X116.344 Y113.075 E23.08762
G1 X133.075 Y96.344 E23.89575
G1 X132.494 Y96.344 E23.91560
G1 X116.344 Y112.494 E24.69567
G1 X116.344 Y111.913 E24.71551
G1 X131.913 Y96.344 E25.46752
G1 X131.332 Y96.344 E25.48736
G1 X116.344 Y111.332 E26.21131
G1 X116.344 Y110.751 E26.23115
G1 X130.751 Y96.344 E26.92704
G1 X130.170 Y96.344 E26.94688
G1 X116.344 Y110.170 E27.61470
G1 X116.344 Y109.589 E27.63455
G1 X129.589 Y96.344 E28.27431
G1 X129.008 Y96.344 E28.29415
G1 X116.344 Y109.008 E28.90586
G1 X116.344 Y108.427 E28.92570
G1 X128.427 Y96.344 E29.50935
G1 X127.846 Y96.344 E29.52919
G1 X116.344 Y107.846 E30.08477
G1 X116.344 Y107.265 E30.10461
G1 X127.265 Y96.344 E30.63213
G1 X126.684 Y96.344 E30.65198
G1 X116.344 Y106.684 E31.15144
G1 X116.344 Y106.104 E31.17128
G1 X126.104 Y96.344 E31.64268
G1 X125.523 Y96.344 E31.66252
G1 X116.344 Y105.523 E32.10586
G1 X116.344 Y104.942 E32.12571
G1 X124.942 Y96.344 E32.54098
G1 X124.361 Y96.344 E32.56083
G1 X116.344 Y104.361 E32.94805
G1 X116.344 Y103.780 E32.96789
G1 X123.780 Y96.344 E33.32704
G1 X123.199 Y96.344 E33.34689
G1 X116.344 Y103.199 E33.67798
G1 X116.344 Y102.618 E33.69783
G1 X122.618 Y96.344 E34.00086
G1 X122.037 Y96.344 E34.02070
G1 X116.344 Y102.037 E34.29568
G1 X116.344 Y101.456 E34.31552
G1 X121.456 Y96.344 E34.56244
G1 X120.875 Y96.344 E34.58228
G1 X116.344 Y100.875 E34.80113
G1 X116.344 Y100.294 E34.82097
G1 X120.294 Y96.344 E35.01177
G1 X119.713 Y96.344 E35.03161
G1 X116.344 Y99.713 E35.19434
G1 X116.344 Y99.132 E35.21418
G1 X119.132 Y96.344 E35.34885
G1 X118.552 Y96.344 E35.36870
G1 X116.344 Y98.552 E35.47531
G1 X116.344 Y97.971 E35.49515
G1 X117.971 Y96.344 E35.57370
G1 X117.390 Y96.344 E35.59354
G1 X116.344 Y97.390 E35.64403
G1 X116.344 Y96.809 E35.66387
G1 X116.992 Y96.161 E35.69515
M106 S153
;LAYER_CHANGE
;Z:0.65
;HEIGHT:0.2
G1 Z0.650 F4800.000
;AFTER_LAYER_CHANGE
;0.65
G1 X116.039 Y96.039
;TYPE:Perimeter
;WIDTH:0.45
G1 F2400.000
G1 X133.961 Y96.039 E36.30178
G1 X133.961 Y113.961 E36.90840
G1 X116.039 Y113.961 E37.51503
G1 X116.039 Y96.099 E38.11963
G1 X115.632 Y95.632 F4800.000
G1 F2400.000
G1 X134.368 Y95.632 E38.75381
G1 X134.368 Y114.368 E39.38800
G1 X115.632 Y114.368 E40.02219
G1 X115.632 Y95.692 E40.65434
G1 X115.225 Y95.410 F4800.000
;TYPE:External perimeter
G1 F2400.000
G1 X115.225 Y95.225 E40.66060
G1 X134.775 Y95.225 E41.32235
G1 X134.775 Y114.775 E41.98409
G1 X115.225 Y114.775 E42.64584
G1 X115.225 Y95.470 E43.29929
G1 X115.356 Y95.279 F4800.000
G1 X133.839 Y96.992
;TYPE:Solid infill
;WIDTH:0.453694
G1 F1383.585
G1 X133.191 Y96.344 E43.33057
G1 X132.610 Y96.344 E43.35041
G1 X133.656 Y97.390 E43.40090
G1 X133.656 Y97.971 E43.42074
G1 X132.029 Y96.344 E43.49930
G1 X131.448 Y96.344 E43.51914
G1 X133.656 Y98.552 E43.62575
G1 X133.656 Y99.133 E43.64559
G1 X130.867 Y96.344 E43.78027
G1 X130.287 Y96.344 E43.80011
G1 X133.656 Y99.713 E43.96284
G1 X133.656 Y100.294 E43.98269
G1 X129.706 Y96.344 E44.17348
G1 X129.125 Y96.344 E44.19332
G1 X133.656 Y100.875 E44.41218
G1 X133.656 Y101.456 E44.43202
G1 X128.544 Y96.344 E44.67894
G1 X127.963 Y96.344 E44.69878
G1 X133.656 Y102.037 E44.97376
G1 X133.656 Y102.618 E44.99360
G1 X127.382 Y96.344 E45.29664
G1 X126.801 Y96.344 E45.31648
G1 X133.656 Y103.199 E45.64758
G1 X133.656 Y103.780 E45.66743
G1 X126.220 Y96.344 E46.02659
G1 X125.639 Y96.344 E46.04643
G1 X133.656 Y104.361 E46.43365
G1 X133.656 Y104.942 E46.45349
G1 X125.058 Y96.344 E46.86877
G1 X124.477 Y96.344 E46.88862
G1 X133.656 Y105.523 E47.33196
G1 X133.656 Y106.104 E47.35180
G1 X123.896 Y96.344 E47.82321
G1 X123.315 Y96.344 E47.84305
G1 X133.656 Y106.685 E48.34251
G1 X133.656 Y107.265 E48.36235
G1 X122.735 Y96.344 E48.88988
G1 X122.154 Y96.344 E48.90972
G1 X133.656 Y107.846 E49.46531
G1 X133.656 Y108.427 E49.48515
G1 X121.573 Y96.344 E50.06880
G1 X120.992 Y96.344 E50.08864
G1 X133.656 Y109.008 E50.70035
G1 X133.656 Y109.589 E50.72019
G1 X120.411 Y96.344 E51.35996
G1 X119.830 Y96.344 E51.37980
G1 X133.656 Y110.170 E52.04763
G1 X133.656 Y110.751 E52.06747
G1 X119.249 Y96.344 E52.76336
G1 X118.668 Y96.344 E52.78320
G1 X133.656 Y111.332 E53.50715
G1 X133.656 Y111.913 E53.52700
G1 X118.087 Y96.344 E54.27901
G1 X117.506 Y96.344 E54.29885
G1 X133.656 Y112.494 E55.07892
G1 X133.656 Y113.075 E55.09876
G1 X116.925 Y96.344 E55.90690
G1 X116.344 Y96.344 E55.92674
G1 X133.656 Y113.656 E56.76293
G1 X133.075 Y113.656 E56.78277
G1 X116.344 Y96.925 E57.59090
G1 X116.344 Y97.506 E57.61074
G1 X132.494 Y113.656 E58.39081
G1 X131.913 Y113.656 E58.41066
G1 X116.344 Y98.087 E59.16266
G1 X116.344 Y98.668 E59.18251
G1 X131.332 Y113.656 E59.90645
G1 X130.751 Y113.656 E59.92630
G1 X116.344 Y99.249 E60.62218
G1 X116.344 Y99.830 E60.64203
G1 X130.170 Y113.656 E61.30985
G1 X129.589 Y113.656 E61.32969
G1 X116.344 Y100.411 E61.96946
G1 X116.344 Y100.992 E61.98930
G1 X129.008 Y113.656 E62.60101
G1 X128.427 Y113.656 E62.62085
G1 X116.344 Y101.573 E63.20449
G1 X116.344 Y102.154 E63.22433
G1 X127.846 Y113.656 E63.77992
G1 X127.265 Y113.656 E63.79976
G1 X116.344 Y102.735 E64.32728
G1 X116.344 Y103.316 E64.34712
G1 X126.684 Y113.656 E64.84659
