; G-Code generated by Simplify3D(R) Version 4.1.2
; Mar 8, 2021 at 8:39:18 PM
; Settings Summary
;   processName,Process1
;   applyToModels,xyzCalibration_cube
;   profileName,BLV mgn Cube-  Simplify3D Profile (modified)
;   profileVersion,2021-03-04 21:50:07
;   baseProfile,Anet A8
;   printMaterial,PLA
;   printQuality,Medium
;   printExtruders,
;   extruderName,Primary Extruder
;   extruderToolheadNumber,0
;   extruderDiameter,0.4
;   extruderAutoWidth,1
;   extruderWidth,0.48
;   extrusionMultiplier,1
;   extruderUseRetract,1
;   extruderRetractionDistance,1.5
;   extruderExtraRestartDistance,0
;   extruderRetractionZLift,0
;   extruderRetractionSpeed,5100
;   extruderUseCoasting,1
;   extruderCoastingDistance,0.2
;   extruderUseWipe,1
;   extruderWipeDistance,4
;   primaryExtruder,0
;   layerHeight,0.2
;   topSolidLayers,4
;   bottomSolidLayers,4
;   perimeterOutlines,4
;   printPerimetersInsideOut,0
;   startPointOption,3
;   startPointOriginX,0
;   startPointOriginY,500
;   sequentialIslands,0
;   spiralVaseMode,0
;   firstLayerHeightPercentage,150
;   firstLayerWidthPercentage,100
;   firstLayerUnderspeed,0.5
;   useRaft,0
;   raftExtruder,0
;   raftTopLayers,3
;   raftBaseLayers,2
;   raftOffset,3
;   raftSeparationDistance,0.14
;   raftTopInfill,100
;   aboveRaftSpeedMultiplier,0.3
;   useSkirt,1
;   skirtExtruder,0
;   skirtLayers,1
;   skirtOutlines,2
;   skirtOffset,6
;   usePrimePillar,0
;   primePillarExtruder,999
;   primePillarWidth,12
;   primePillarLocation,7
;   primePillarSpeedMultiplier,1
;   useOozeShield,0
;   oozeShieldExtruder,999
;   oozeShieldOffset,2
;   oozeShieldOutlines,1
;   oozeShieldSidewallShape,1
;   oozeShieldSidewallAngle,30
;   oozeShieldSpeedMultiplier,1
;   infillExtruder,0
;   internalInfillPattern,Rectilinear
;   externalInfillPattern,Rectilinear
;   infillPercentage,15
;   outlineOverlapPercentage,15
;   infillExtrusionWidthPercentage,100
;   minInfillLength,5
;   infillLayerInterval,1
;   internalInfillAngles,45,-45
;   overlapInternalInfillAngles,0
;   externalInfillAngles,45,-45
;   generateSupport,1
;   supportExtruder,0
;   supportInfillPercentage,30
;   supportExtraInflation,0
;   supportBaseLayers,0
;   denseSupportExtruder,0
;   denseSupportLayers,0
;   denseSupportInfillPercentage,70
;   supportLayerInterval,1
;   supportHorizontalPartOffset,0.4
;   supportUpperSeparationLayers,1
;   supportLowerSeparationLayers,1
;   supportType,0
;   supportGridSpacing,4.5
;   maxOverhangAngle,45
;   supportAngles,45,-45
;   temperatureName,Primary Extruder,Heated Bed
;   temperatureNumber,0,0
;   temperatureSetpointCount,2,1
;   temperatureSetpointLayers,1,2,1
;   temperatureSetpointTemperatures,215,210,60
;   temperatureStabilizeAtStartup,1,1
;   temperatureHeatedBed,0,1
;   fanLayers,1,2
;   fanSpeeds,0,100
;   blipFanToFullPower,1
;   adjustSpeedForCooling,1
;   minSpeedLayerTime,15
;   minCoolingSpeedSlowdown,20
;   increaseFanForCooling,0
;   minFanLayerTime,45
;   maxCoolingFanSpeed,100
;   increaseFanForBridging,1
;   bridgingFanSpeed,100
;   use5D,1
;   relativeEdistances,0
;   allowEaxisZeroing,1
;   independentExtruderAxes,0
;   includeM10123,0
;   stickySupport,1
;   applyToolheadOffsets,0
;   gcodeXoffset,24
;   gcodeYoffset,22
;   gcodeZoffset,0
;   overrideMachineDefinition,1
;   machineTypeOverride,0
;   strokeXoverride,310
;   strokeYoverride,310
;   strokeZoverride,334
;   originOffsetXoverride,0
;   originOffsetYoverride,0
;   originOffsetZoverride,0
;   homeXdirOverride,-1
;   homeYdirOverride,-1
;   homeZdirOverride,-1
;   flipXoverride,1
;   flipYoverride,-1
;   flipZoverride,1
;   toolheadOffsets,0,0|0,0|0,0|0,0|0,0|0,0
;   overrideFirmwareConfiguration,1
;   firmwareTypeOverride,RepRap (Marlin/Repetier/Sprinter)
;   GPXconfigOverride,r2
;   baudRateOverride,115200
;   overridePrinterModels,1
;   printerModelsOverride,Blvfull.stl
;   startingGcode,M291 P"Homing all axis" R"Printing.." S1 T2,G21		; metric values,G28		; home all,M98 P"/macros/load_meshbed"	; load mesh bed corresponding to the temp,M98 P"/macros/set_baby_step"	; set baby step,M98 P"/macros/purge_and_prime"; purge and do the prime line,,G92 E0 F100		; reset extruder,G1 Z10 F3000 		; move z up little to prevent scratching of surface,G92 E0 		; reset extruder,M291 P"Printing started !" R"Printing.." S1 T3
;   layerChangeGcode,
;   retractionGcode,
;   toolChangeGcode,
;   endingGcode,M104 S0 ; turn off extruder,M140 S0 ; turn off bed,M98 P"/macros/remove_baby_step"	; unset baby step,M98 P"/macros/rise30mm",G1 X0 Y300 F1000 ; prepare for part removal,M84 ; disable motors,M106 S0 ;turn off part cooling fan,;M81 ; shutdown,; play song,M300 S294 P200 ;D4: 294,M300 S588 P200 ;D5: 588,M300 S440 P200 ;A4: 440,M300 S392 P200 ;G4: 392,M300 S784 P200 ;G5: 784,M300 S440 P200 ;A4: 440,M300 S740 P200 ;F#5: 740,M300 S440 P200 ;A4: 440,M291 P"Printing finished !" R"Printing.." S1 T0,
;   exportFileFormat,gcode
;   celebration,0
;   celebrationSong,Star Wars
;   postProcessing,
;   defaultSpeed,2400
;   outlineUnderspeed,0.66
;   solidInfillUnderspeed,0.8
;   supportUnderspeed,0.8
;   rapidXYspeed,7200
;   rapidZspeed,1002
;   minBridgingArea,50
;   bridgingExtraInflation,0
;   bridgingExtrusionMultiplier,1
;   bridgingSpeedMultiplier,1
;   useFixedBridgingAngle,0
;   fixedBridgingAngle,0
;   applyBridgingToPerimeters,1
;   filamentDiameters,1.75|1.75|1.75|1.75|1.75|1.75
;   filamentPricesPerKg,110|110|110|110|110|110
;   filamentDensities,1.25|1.25|1.25|1.25|1.25|1.25
;   useMinPrintHeight,0
;   minPrintHeight,0
;   useMaxPrintHeight,0
;   maxPrintHeight,0
;   useDiaphragm,0
;   diaphragmLayerInterval,20
;   robustSlicing,1
;   mergeAllIntoSolid,0
;   onlyRetractWhenCrossingOutline,0
;   retractBetweenLayers,1
;   useRetractionMinTravel,1
;   retractionMinTravel,3
;   retractWhileWiping,1
;   onlyWipeOutlines,1
;   avoidCrossingOutline,1
;   maxMovementDetourFactor,3
;   toolChangeRetractionDistance,12
;   toolChangeExtraRestartDistance,-0.5
;   toolChangeRetractionSpeed,600
;   externalThinWallType,0
;   internalThinWallType,2
;   thinWallAllowedOverlapPercentage,15
;   singleExtrusionMinLength,1
;   singleExtrusionMinPrintingWidthPercentage,50
;   singleExtrusionMaxPrintingWidthPercentage,200
;   singleExtrusionEndpointExtension,0.2
;   horizontalSizeCompensation,0
G90
M82
M106 S0
M140 S60
M190 S60
M104 S215 T0
M109 S215 T0
M291 P"Homing all axis" R"Printing.." S1 T2
G21		; metric values
G28		; home all
M98 P"/macros/load_meshbed"	; load mesh bed corresponding to the temp
M98 P"/macros/set_baby_step"	; set baby step
M98 P"/macros/purge_and_prime"; purge and do the prime line
G92 E0 F100		; reset extruder
G1 Z10 F3000 		; move z up little to prevent scratching of surface
G92 E0 		; reset extruder
M291 P"Printing started !" R"Printing.." S1 T3
; process Process1
; layer 1, Z = 0.300
T0
G92 E0.0000
G1 E-1.5000 F5100
; feature skirt
; tool H0.300 W0.480
G1 Z0.300 F1002
G1 X166.216 Y193.720 F7200
G1 E0.0000 F5100
G92 E0.0000
G1 X162.280 Y189.784 E0.3333 F1200
G1 X162.280 Y164.216 E1.8639
G1 X166.216 Y160.280 E2.1972
G1 X191.784 Y160.280 E3.7279
G1 X195.720 Y164.216 E4.0612
G1 X195.720 Y189.784 E5.5918
G1 X191.784 Y193.720 E5.9251
G1 X166.216 Y193.720 E7.4558
G1 X166.415 Y193.240 F7200
G92 E0.0000
G1 X162.760 Y189.585 E0.3095 F1200
G1 X162.760 Y164.415 E1.8163
G1 X166.415 Y160.760 E2.1258
G1 X191.585 Y160.760 E3.6327
G1 X195.240 Y164.415 E3.9421
G1 X195.240 Y189.585 E5.4490
G1 X191.585 Y193.240 E5.7585
G1 X166.415 Y193.240 E7.2653
G92 E0.0000
G1 E-1.5000 F5100
; feature outer perimeter
G1 X169.240 Y186.760 F7200
G1 E0.0000 F5100
G92 E0.0000
G1 X169.240 Y167.240 E1.1686 F792
G1 X188.760 Y167.240 E2.3373
G1 X188.760 Y186.760 E3.5059
G1 X169.440 Y186.760 E4.6625
G1 X169.240 Y186.760 F792
G92 E0.0000
G1 X169.240 Y186.527 E-1.5000 F792
G1 X169.240 Y182.760 F792
; feature inner perimeter
G1 X169.720 Y186.280 F7200
G1 E0.0000 F5100
G92 E0.0000
G1 X169.720 Y167.720 E1.1112 F996
G1 X188.280 Y167.720 E2.2223
G1 X188.280 Y186.280 E3.3335
G1 X169.920 Y186.280 E4.4326
G1 X169.720 Y186.280 F996
G1 X170.200 Y185.800 F7200
G92 E0.0000
G1 X170.200 Y168.200 E1.0537 F996
G1 X187.800 Y168.200 E2.1074
G1 X187.800 Y185.800 E3.1610
G1 X170.400 Y185.800 E4.2028
G1 X170.200 Y185.800 F996
G1 X170.680 Y185.320 F7200
G92 E0.0000
G1 X170.680 Y168.680 E0.9962 F996
G1 X187.320 Y168.680 E1.9924
G1 X187.320 Y185.320 E2.9886
G1 X170.880 Y185.320 E3.9729
G1 X170.680 Y185.320 F996
; feature solid layer
G1 X171.299 Y184.912 F7200
G92 E0.0000
G1 X171.088 Y184.701 E0.0179 F960
G1 X171.088 Y184.022 E0.0585
G1 X171.978 Y184.912 E0.1339
G1 X172.657 Y184.912 E0.1745
G1 X171.088 Y183.343 E0.3073
G1 X171.088 Y182.664 E0.3480
G1 X173.336 Y184.912 E0.5383
G1 X174.014 Y184.912 E0.5789
G1 X171.088 Y181.986 E0.8267
G1 X171.088 Y181.307 E0.8673
G1 X174.693 Y184.912 E1.1725
G1 X175.372 Y184.912 E1.2132
G1 X171.088 Y180.628 E1.5759
G1 X171.088 Y179.949 E1.6165
G1 X176.051 Y184.912 E2.0367
G1 X176.730 Y184.912 E2.0774
G1 X171.088 Y179.270 E2.5550
G1 X171.088 Y178.592 E2.5957
G1 X177.408 Y184.912 E3.1308
G1 X178.087 Y184.912 E3.1714
G1 X171.088 Y177.913 E3.7640
G1 X171.088 Y177.234 E3.8047
G1 X178.766 Y184.912 E4.4548
G1 X179.445 Y184.912 E4.4954
G1 X171.088 Y176.555 E5.2030
G1 X171.088 Y175.876 E5.2436
G1 X180.124 Y184.912 E6.0086
G1 X180.803 Y184.912 E6.0493
G1 X171.088 Y175.197 E6.8718
G1 X171.088 Y174.519 E6.9124
G1 X181.481 Y184.912 E7.7924
G1 X182.160 Y184.912 E7.8330
G1 X171.088 Y173.840 E8.7705
G1 X171.088 Y173.161 E8.8111
G1 X182.839 Y184.912 E9.8060
G1 X183.518 Y184.912 E9.8467
G1 X171.088 Y172.482 E10.8991
G1 X171.088 Y171.803 E10.9397
G1 X184.197 Y184.912 E12.0496
G1 X184.876 Y184.912 E12.0902
G1 X171.088 Y171.124 E13.2576
G1 X171.088 Y170.446 E13.2982
G1 X185.554 Y184.912 E14.5230
G1 X186.233 Y184.912 E14.5637
G1 X171.088 Y169.767 E15.8459
G1 X171.088 Y169.088 E15.8866
G1 X186.912 Y184.912 E17.2263
G1 X186.912 Y184.233 E17.2670
G1 X171.767 Y169.088 E18.5493
G1 X172.446 Y169.088 E18.5899
G1 X186.912 Y183.554 E19.8147
G1 X186.912 Y182.876 E19.8554
G1 X173.124 Y169.088 E21.0227
G1 X173.803 Y169.088 E21.0634
G1 X186.912 Y182.197 E22.1732
G1 X186.912 Y181.518 E22.2139
G1 X174.482 Y169.088 E23.2663
G1 X175.161 Y169.088 E23.3069
G1 X186.912 Y180.839 E24.3018
G1 X186.912 Y180.160 E24.3425
G1 X175.840 Y169.088 E25.2799
G1 X176.519 Y169.088 E25.3205
G1 X186.912 Y179.481 E26.2005
G1 X186.912 Y178.803 E26.2412
G1 X177.197 Y169.088 E27.0637
G1 X177.876 Y169.088 E27.1043
G1 X186.912 Y178.124 E27.8693
G1 X186.912 Y177.445 E27.9100
G1 X178.555 Y169.088 E28.6175
G1 X179.234 Y169.088 E28.6582
G1 X186.912 Y176.766 E29.3082
G1 X186.912 Y176.087 E29.3489
G1 X179.913 Y169.088 E29.9415
G1 X180.592 Y169.088 E29.9821
G1 X186.912 Y175.408 E30.5172
G1 X186.912 Y174.730 E30.5579
G1 X181.270 Y169.088 E31.0355
G1 X181.949 Y169.088 E31.0762
G1 X186.912 Y174.051 E31.4964
G1 X186.912 Y173.372 E31.5370
G1 X182.628 Y169.088 E31.8997
G1 X183.307 Y169.088 E31.9404
G1 X186.912 Y172.693 E32.2456
G1 X186.912 Y172.014 E32.2862
G1 X183.986 Y169.088 E32.5340
G1 X184.664 Y169.088 E32.5746
G1 X186.912 Y171.336 E32.7649
G1 X186.912 Y170.657 E32.8056
G1 X185.343 Y169.088 E32.9384
G1 X186.022 Y169.088 E32.9790
G1 X186.912 Y169.978 E33.0544
G1 X186.912 Y169.299 E33.0950
G1 X186.842 Y169.229 E33.1009
G1 X186.701 Y169.088 F960
G92 E0.0000
G1 E-1.5000 F5100
; layer 2, Z = 0.500
M106 S255
M104 S210 T0
; feature outer perimeter
; tool H0.200 W0.480
G1 Z0.500 F1002
G1 X169.240 Y186.760 F7200
G1 E0.0000 F5100
G92 E0.0000
G1 X169.240 Y167.240 E0.7791 F1584
G1 X188.760 Y167.240 E1.5582
G1 X188.760 Y186.760 E2.3373
G1 X169.440 Y186.760 E3.1084
G1 X169.240 Y186.760 F1584
G92 E0.0000
G1 X169.240 Y186.294 E-1.5000 F1584
G1 X169.240 Y182.760 F1584
; feature inner perimeter
G1 X169.720 Y186.280 F7200
G1 E0.0000 F5100
G92 E0.0000
G1 X169.720 Y167.720 E0.7408 F1992
G1 X188.280 Y167.720 E1.4815
G1 X188.280 Y186.280 E2.2223
G1 X169.920 Y186.280 E2.9551
G1 X169.720 Y186.280 F1992
G1 X170.200 Y185.800 F7200
G92 E0.0000
G1 X170.200 Y168.200 E0.7025 F1992
G1 X187.800 Y168.200 E1.4049
G1 X187.800 Y185.800 E2.1074
G1 X170.400 Y185.800 E2.8018
G1 X170.200 Y185.800 F1992
G1 X170.680 Y185.320 F7200
G92 E0.0000
G1 X170.680 Y168.680 E0.6641 F1992
G1 X187.320 Y168.680 E1.3283
G1 X187.320 Y185.320 E1.9924
G1 X170.880 Y185.320 E2.6486
G1 X170.680 Y185.320 F1992
G92 E0.0000
G1 E-1.5000 F5100
; feature solid layer
G1 X171.088 Y169.299 F7200
G1 E0.0000 F5100
G92 E0.0000
G1 X171.299 Y169.088 E0.0119 F1920
G1 X171.978 Y169.088 E0.0390
G1 X171.088 Y169.978 E0.0892
G1 X171.088 Y170.657 E0.1163
G1 X172.657 Y169.088 E0.2049
G1 X173.336 Y169.088 E0.2320
G1 X171.088 Y171.336 E0.3588
G1 X171.088 Y172.014 E0.3859
G1 X174.014 Y169.088 E0.5511
G1 X174.693 Y169.088 E0.5782
G1 X171.088 Y172.693 E0.7817
G1 X171.088 Y173.372 E0.8088
G1 X175.372 Y169.088 E1.0506
G1 X176.051 Y169.088 E1.0777
G1 X171.088 Y174.051 E1.3578
G1 X171.088 Y174.730 E1.3849
G1 X176.730 Y169.088 E1.7034
G1 X177.409 Y169.088 E1.7305
G1 X171.088 Y175.409 E2.0872
G1 X171.088 Y176.087 E2.1143
G1 X178.087 Y169.088 E2.5094
G1 X178.766 Y169.088 E2.5365
G1 X171.088 Y176.766 E2.9699
G1 X171.088 Y177.445 E2.9969
G1 X179.445 Y169.088 E3.4687
G1 X180.124 Y169.088 E3.4957
G1 X171.088 Y178.124 E4.0058
G1 X171.088 Y178.803 E4.0329
G1 X180.803 Y169.088 E4.5812
G1 X181.481 Y169.088 E4.6083
G1 X171.088 Y179.481 E5.1949
G1 X171.088 Y180.160 E5.2220
G1 X182.160 Y169.088 E5.8470
G1 X182.839 Y169.088 E5.8741
G1 X171.088 Y180.839 E6.5374
G1 X171.088 Y181.518 E6.5645
G1 X183.518 Y169.088 E7.2661
G1 X184.197 Y169.088 E7.2932
G1 X171.088 Y182.197 E8.0331
G1 X171.088 Y182.876 E8.0602
G1 X184.876 Y169.088 E8.8384
G1 X185.554 Y169.088 E8.8655
G1 X171.088 Y183.554 E9.6820
G1 X171.088 Y184.233 E9.7091
G1 X186.233 Y169.088 E10.5640
G1 X186.912 Y169.088 E10.5911
G1 X171.088 Y184.912 E11.4843
G1 X171.767 Y184.912 E11.5114
G1 X186.912 Y169.767 E12.3662
G1 X186.912 Y170.446 E12.3933
G1 X172.446 Y184.912 E13.2098
G1 X173.125 Y184.912 E13.2369
G1 X186.912 Y171.125 E14.0152
G1 X186.912 Y171.803 E14.0423
G1 X173.803 Y184.912 E14.7822
G1 X174.482 Y184.912 E14.8093
G1 X186.912 Y172.482 E15.5109
G1 X186.912 Y173.161 E15.5379
G1 X175.161 Y184.912 E16.2012
G1 X175.840 Y184.912 E16.2283
G1 X186.912 Y173.840 E16.8533
G1 X186.912 Y174.519 E16.8804
G1 X176.519 Y184.912 E17.4670
G1 X177.197 Y184.912 E17.4941
G1 X186.912 Y175.197 E18.0425
G1 X186.912 Y175.876 E18.0695
G1 X177.876 Y184.912 E18.5796
G1 X178.555 Y184.912 E18.6067
G1 X186.912 Y176.555 E19.0784
G1 X186.912 Y177.234 E19.1054
G1 X179.234 Y184.912 E19.5388
G1 X179.913 Y184.912 E19.5659
G1 X186.912 Y177.913 E19.9610
G1 X186.912 Y178.592 E19.9881
G1 X180.592 Y184.912 E20.3448
G1 X181.270 Y184.912 E20.3719
G1 X186.912 Y179.270 E20.6904
G1 X186.912 Y179.949 E20.7175
G1 X181.949 Y184.912 E20.9976
G1 X182.628 Y184.912 E21.0247
G1 X186.912 Y180.628 E21.2665
G1 X186.912 Y181.307 E21.2936
G1 X183.307 Y184.912 E21.4971
G1 X183.986 Y184.912 E21.5242
G1 X186.912 Y181.986 E21.6893
G1 X186.912 Y182.664 E21.7164
G1 X184.664 Y184.912 E21.8433
G1 X185.343 Y184.912 E21.8704
G1 X186.912 Y183.343 E21.9589
G1 X186.912 Y184.022 E21.9860
G1 X186.022 Y184.912 E22.0363
G1 X186.701 Y184.912 E22.0633
G1 X186.771 Y184.842 E22.0673
G1 X186.912 Y184.701 F1920
G92 E0.0000
G1 E-1.5000 F5100
; layer 3, Z = 0.700
; feature outer perimeter
G1 Z0.700 F1002
G1 X169.240 Y186.760 F7200
G1 E0.0000 F5100
G92 E0.0000
G1 X169.240 Y167.240 E0.7791 F1584
G1 X188.760 Y167.240 E1.5582
G1 X188.760 Y186.760 E2.3373
G1 X169.440 Y186.760 E3.1084
G1 X169.240 Y186.760 F1584
