; G-Code generated by Simplify3D(R) Version 4.1.2
; Feb 28, 2021 at 5:18:09 PM
; Settings Summary
;   processName,Process1
;   applyToModels,xyzCalibration_cube
;   profileName,BLV mgn Cube-  Simplify3D Profile (modified)
;   profileVersion,2021-02-28 17:01:57
;   baseProfile,Anet A8
;   printMaterial,PLA
;   printQuality,Medium
;   printExtruders,
;   extruderName,Primary Extruder
;   extruderToolheadNumber,0
;   extruderDiameter,0.4
;   extruderAutoWidth,1
;   extruderWidth,0.48
;   extrusionMultiplier,1
;   extruderUseRetract,1
;   extruderRetractionDistance,5.5
;   extruderExtraRestartDistance,-0.1
;   extruderRetractionZLift,0
;   extruderRetractionSpeed,5100
;   extruderUseCoasting,1
;   extruderCoastingDistance,0.2
;   extruderUseWipe,1
;   extruderWipeDistance,4
;   primaryExtruder,0
;   layerHeight,0.2
;   topSolidLayers,3
;   bottomSolidLayers,3
;   perimeterOutlines,3
;   printPerimetersInsideOut,1
;   startPointOption,3
;   startPointOriginX,0
;   startPointOriginY,500
;   sequentialIslands,0
;   spiralVaseMode,0
;   firstLayerHeightPercentage,150
;   firstLayerWidthPercentage,100
;   firstLayerUnderspeed,0.5
;   useRaft,0
;   raftExtruder,0
;   raftTopLayers,3
;   raftBaseLayers,2
;   raftOffset,3
;   raftSeparationDistance,0.14
;   raftTopInfill,100
;   aboveRaftSpeedMultiplier,0.3
;   useSkirt,1
;   skirtExtruder,0
;   skirtLayers,1
;   skirtOutlines,2
;   skirtOffset,6
;   usePrimePillar,0
;   primePillarExtruder,999
;   primePillarWidth,12
;   primePillarLocation,7
;   primePillarSpeedMultiplier,1
;   useOozeShield,0
;   oozeShieldExtruder,999
;   oozeShieldOffset,2
;   oozeShieldOutlines,1
;   oozeShieldSidewallShape,1
;   oozeShieldSidewallAngle,30
;   oozeShieldSpeedMultiplier,1
;   infillExtruder,0
;   internalInfillPattern,Rectilinear
;   externalInfillPattern,Rectilinear
;   infillPercentage,15
;   outlineOverlapPercentage,15
;   infillExtrusionWidthPercentage,100
;   minInfillLength,5
;   infillLayerInterval,1
;   internalInfillAngles,45,-45
;   overlapInternalInfillAngles,0
;   externalInfillAngles,45,-45
;   generateSupport,0
;   supportExtruder,0
;   supportInfillPercentage,30
;   supportExtraInflation,0
;   supportBaseLayers,0
;   denseSupportExtruder,0
;   denseSupportLayers,0
;   denseSupportInfillPercentage,70
;   supportLayerInterval,1
;   supportHorizontalPartOffset,0.4
;   supportUpperSeparationLayers,1
;   supportLowerSeparationLayers,1
;   supportType,0
;   supportGridSpacing,4.5
;   maxOverhangAngle,45
;   supportAngles,0
;   temperatureName,Primary Extruder,Heated Bed
;   temperatureNumber,0,0
;   temperatureSetpointCount,2,1
;   temperatureSetpointLayers,1,1,1
;   temperatureSetpointTemperatures,215,210,70
;   temperatureStabilizeAtStartup,1,1
;   temperatureHeatedBed,0,1
;   fanLayers,1,2,4
;   fanSpeeds,0,75,100
;   blipFanToFullPower,1
;   adjustSpeedForCooling,1
;   minSpeedLayerTime,15
;   minCoolingSpeedSlowdown,20
;   increaseFanForCooling,0
;   minFanLayerTime,45
;   maxCoolingFanSpeed,100
;   increaseFanForBridging,1
;   bridgingFanSpeed,100
;   use5D,1
;   relativeEdistances,0
;   allowEaxisZeroing,1
;   independentExtruderAxes,0
;   includeM10123,0
;   stickySupport,1
;   applyToolheadOffsets,0
;   gcodeXoffset,24
;   gcodeYoffset,22
;   gcodeZoffset,0
;   overrideMachineDefinition,1
;   machineTypeOverride,0
;   strokeXoverride,310
;   strokeYoverride,310
;   strokeZoverride,334
;   originOffsetXoverride,0
;   originOffsetYoverride,0
;   originOffsetZoverride,0
;   homeXdirOverride,-1
;   homeYdirOverride,-1
;   homeZdirOverride,-1
;   flipXoverride,1
;   flipYoverride,-1
;   flipZoverride,1
;   toolheadOffsets,0,0|0,0|0,0|0,0|0,0|0,0
;   overrideFirmwareConfiguration,1
;   firmwareTypeOverride,RepRap (Marlin/Repetier/Sprinter)
;   GPXconfigOverride,r2
;   baudRateOverride,115200
;   overridePrinterModels,1
;   printerModelsOverride,Blvfull.stl
;   startingGcode,M291 P"Homing all axis" R"Printing.." S1 T2,G21		; metric values,G28		; home all,M98 P"/macros/load_meshbed"	; load mesh bed corresponding to the temp,M98 P"/macros/set_baby_step"	; set baby step,M98 P"/macros/purge_and_prime"; purge and do the prime line,,G92 E0 F100		; reset extruder,G1 Z10 F3000 		; move z up little to prevent scratching of surface,G92 E0 		; reset extruder,M291 P"Printing started !" R"Printing.." S1 T3
;   layerChangeGcode,
;   retractionGcode,
;   toolChangeGcode,
;   endingGcode,M104 S0 ; turn off extruder,M140 S0 ; turn off bed,M98 P"/macros/remove_baby_step"	; unset baby step,M98 P"/macros/rise30mm",G1 X0 Y300 F1000 ; prepare for part removal,M84 ; disable motors,M106 S0 :turn off part cooling fan,;M81 ; shutdown,; play song,M300 S294 P200 ;D4: 294,M300 S588 P200 ;D5: 588,M300 S440 P200 ;A4: 440,M300 S392 P200 ;G4: 392,M300 S784 P200 ;G5: 784,M300 S440 P200 ;A4: 440,M300 S740 P200 ;F#5: 740,M300 S440 P200 ;A4: 440,M291 P"Printing finished !" R"Printing.." S1 T0,
;   exportFileFormat,gcode
;   celebration,0
;   celebrationSong,Star Wars
;   postProcessing,
;   defaultSpeed,4800
;   outlineUnderspeed,0.5
;   solidInfillUnderspeed,0.8
;   supportUnderspeed,0.8
;   rapidXYspeed,7200
;   rapidZspeed,1002
;   minBridgingArea,50
;   bridgingExtraInflation,0
;   bridgingExtrusionMultiplier,1
;   bridgingSpeedMultiplier,1
;   useFixedBridgingAngle,0
;   fixedBridgingAngle,0
;   applyBridgingToPerimeters,1
;   filamentDiameters,1.75|1.75|1.75|1.75|1.75|1.75
;   filamentPricesPerKg,110|110|110|110|110|110
;   filamentDensities,1.25|1.25|1.25|1.25|1.25|1.25
;   useMinPrintHeight,0
;   minPrintHeight,0
;   useMaxPrintHeight,0
;   maxPrintHeight,0
;   useDiaphragm,0
;   diaphragmLayerInterval,20
;   robustSlicing,1
;   mergeAllIntoSolid,0
;   onlyRetractWhenCrossingOutline,0
;   retractBetweenLayers,1
;   useRetractionMinTravel,1
;   retractionMinTravel,3
;   retractWhileWiping,1
;   onlyWipeOutlines,1
;   avoidCrossingOutline,1
;   maxMovementDetourFactor,3
;   toolChangeRetractionDistance,12
;   toolChangeExtraRestartDistance,-0.5
;   toolChangeRetractionSpeed,600
;   externalThinWallType,0
;   internalThinWallType,2
;   thinWallAllowedOverlapPercentage,15
;   singleExtrusionMinLength,1
;   singleExtrusionMinPrintingWidthPercentage,50
;   singleExtrusionMaxPrintingWidthPercentage,200
;   singleExtrusionEndpointExtension,0.2
;   horizontalSizeCompensation,0
G90
M82
M106 S0
M140 S70
M190 S70
M104 S210 T0
M109 S210 T0
M291 P"Homing all axis" R"Printing.." S1 T2
G21		; metric values
G28		; home all
M98 P"/macros/load_meshbed"	; load mesh bed corresponding to the temp
M98 P"/macros/set_baby_step"	; set baby step
M98 P"/macros/purge_and_prime"; purge and do the prime line
G92 E0 F100		; reset extruder
G1 Z10 F3000 		; move z up little to prevent scratching of surface
G92 E0 		; reset extruder
M291 P"Printing started !" R"Printing.." S1 T3
; process Process1
; layer 1, Z = 0.300
T0
G92 E0.0000
G1 E-5.5000 F5100
; feature skirt
; tool H0.300 W0.480
G1 Z0.300 F1002
G1 X166.216 Y193.720 F7200
G1 E-0.1000 F5100
G92 E0.0000
G1 X162.280 Y189.784 E0.3333 F2400
G1 X162.280 Y164.216 E1.8639
G1 X166.216 Y160.280 E2.1972
G1 X191.784 Y160.280 E3.7279
G1 X195.720 Y164.216 E4.0612
G1 X195.720 Y189.784 E5.5918
G1 X191.784 Y193.720 E5.9251
G1 X166.216 Y193.720 E7.4558
G1 X166.415 Y193.240 F7200
G92 E0.0000
G1 X162.760 Y189.585 E0.3095 F2400
G1 X162.760 Y164.415 E1.8163
G1 X166.415 Y160.760 E2.1258
G1 X191.585 Y160.760 E3.6327
G1 X195.240 Y164.415 E3.9421
G1 X195.240 Y189.585 E5.4490
G1 X191.585 Y193.240 E5.7585
G1 X166.415 Y193.240 E7.2653
G92 E0.0000
G1 E-5.5000 F5100
; feature inner perimeter
G1 X169.240 Y186.760 F7200
G1 X169.712 Y186.760
G1 X170.200 Y185.800
G1 E-0.1000 F5100
G92 E0.0000
G1 X170.200 Y168.200 E1.0537 F1800
G1 X187.800 Y168.200 E2.1074
G1 X187.800 Y185.800 E3.1610
G1 X170.400 Y185.800 E4.2028
G1 X170.200 Y185.800 F1800
G1 X169.720 Y186.280 F7200
G92 E0.0000
G1 X169.720 Y167.720 E1.1112 F1800
G1 X188.280 Y167.720 E2.2223
G1 X188.280 Y186.280 E3.3335
G1 X169.920 Y186.280 E4.4326
G1 X169.720 Y186.280 F1800
; feature outer perimeter
G1 X169.240 Y186.760 F7200
G92 E0.0000
G1 X169.240 Y167.240 E1.1686 F1200
G1 X188.760 Y167.240 E2.3373
G1 X188.760 Y186.760 E3.5059
G1 X169.440 Y186.760 E4.6625
G1 X169.240 Y186.760 F1200
G92 E0.0000
G1 X169.240 Y185.466 E-5.5000 F1200
G1 X169.240 Y182.760 F1200
; feature solid layer
G1 X171.100 Y185.392 F7200
G1 E-0.1000 F5100
G92 E0.0000
G1 X170.608 Y184.900 E0.0417 F1920
G1 X170.608 Y184.221 E0.0823
G1 X171.779 Y185.392 E0.1815
G1 X172.458 Y185.392 E0.2221
G1 X170.608 Y183.542 E0.3787
G1 X170.608 Y182.863 E0.4194
G1 X173.137 Y185.392 E0.6335
G1 X173.816 Y185.392 E0.6741
G1 X170.608 Y182.184 E0.9457
G1 X170.608 Y181.506 E0.9863
G1 X174.494 Y185.392 E1.3154
G1 X175.173 Y185.392 E1.3560
G1 X170.608 Y180.827 E1.7425
G1 X170.608 Y180.148 E1.7832
G1 X175.852 Y185.392 E2.2272
G1 X176.531 Y185.392 E2.2678
G1 X170.608 Y179.469 E2.7693
G1 X170.608 Y178.790 E2.8099
G1 X177.210 Y185.392 E3.3689
G1 X177.888 Y185.392 E3.4095
G1 X170.608 Y178.112 E4.0259
G1 X170.608 Y177.433 E4.0666
G1 X178.567 Y185.392 E4.7404
G1 X179.246 Y185.392 E4.7811
G1 X170.608 Y176.754 E5.5124
G1 X170.608 Y176.075 E5.5531
G1 X179.925 Y185.392 E6.3419
G1 X180.604 Y185.392 E6.3826
G1 X170.608 Y175.396 E7.2289
G1 X170.608 Y174.717 E7.2695
G1 X181.283 Y185.392 E8.1733
G1 X181.961 Y185.392 E8.2139
G1 X170.608 Y174.039 E9.1752
G1 X170.608 Y173.360 E9.2158
G1 X182.640 Y185.392 E10.2345
G1 X183.319 Y185.392 E10.2752
G1 X170.608 Y172.681 E11.3514
G1 X170.608 Y172.002 E11.3920
G1 X183.998 Y185.392 E12.5257
G1 X184.677 Y185.392 E12.5663
G1 X170.608 Y171.323 E13.7575
G1 X170.608 Y170.644 E13.7981
G1 X185.356 Y185.392 E15.0468
G1 X186.034 Y185.392 E15.0874
G1 X170.608 Y169.966 E16.3935
G1 X170.608 Y169.287 E16.4341
G1 X186.713 Y185.392 E17.7977
G1 X187.392 Y185.392 E17.8383
G1 X170.608 Y168.608 E19.2594
G1 X171.287 Y168.608 E19.3000
G1 X187.392 Y184.713 E20.6636
G1 X187.392 Y184.034 E20.7042
G1 X171.966 Y168.608 E22.0103
G1 X172.644 Y168.608 E22.0510
G1 X187.392 Y183.356 E23.2996
G1 X187.392 Y182.677 E23.3402
G1 X173.323 Y168.608 E24.5314
G1 X174.002 Y168.608 E24.5720
G1 X187.392 Y181.998 E25.7057
G1 X187.392 Y181.319 E25.7463
G1 X174.681 Y168.608 E26.8225
G1 X175.360 Y168.608 E26.8632
G1 X187.392 Y180.640 E27.8819
G1 X187.392 Y179.961 E27.9225
G1 X176.039 Y168.608 E28.8838
G1 X176.717 Y168.608 E28.9244
G1 X187.392 Y179.283 E29.8282
G1 X187.392 Y178.604 E29.8688
G1 X177.396 Y168.608 E30.7152
G1 X178.075 Y168.608 E30.7558
G1 X187.392 Y177.925 E31.5446
G1 X187.392 Y177.246 E31.5853
G1 X178.754 Y168.608 E32.3166
G1 X179.433 Y168.608 E32.3573
G1 X187.392 Y176.567 E33.0311
G1 X187.392 Y175.888 E33.0718
G1 X180.112 Y168.608 E33.6882
G1 X180.790 Y168.608 E33.7288
G1 X187.392 Y175.210 E34.2878
G1 X187.392 Y174.531 E34.3284
G1 X181.469 Y168.608 E34.8299
G1 X182.148 Y168.608 E34.8705
G1 X187.392 Y173.852 E35.3145
G1 X187.392 Y173.173 E35.3552
G1 X182.827 Y168.608 E35.7417
G1 X183.506 Y168.608 E35.7823
G1 X187.392 Y172.494 E36.1114
G1 X187.392 Y171.816 E36.1520
G1 X184.184 Y168.608 E36.4236
G1 X184.863 Y168.608 E36.4642
G1 X187.392 Y171.137 E36.6783
G1 X187.392 Y170.458 E36.7189
G1 X185.542 Y168.608 E36.8756
G1 X186.221 Y168.608 E36.9162
G1 X187.392 Y169.779 E37.0154
G1 X187.392 Y169.100 E37.0560
G1 X187.041 Y168.749 E37.0857
G1 X186.900 Y168.608 F1920
G92 E0.0000
G1 E-5.5000 F5100
; layer 2, Z = 0.500
M106 S255
G4 P500
M106 S191
; feature inner perimeter
; tool H0.200 W0.480
G1 Z0.500 F1002
G1 X170.200 Y185.800 F7200
G1 E-0.1000 F5100
G92 E0.0000
G1 X170.200 Y168.200 E0.7025 F3371
G1 X187.800 Y168.200 E1.4049
G1 X187.800 Y185.800 E2.1074
G1 X170.400 Y185.800 E2.8018
G1 X170.200 Y185.800 F3371
G1 X169.720 Y186.280 F7200
G92 E0.0000
G1 X169.720 Y167.720 E0.7408 F3371
G1 X188.280 Y167.720 E1.4815
G1 X188.280 Y186.280 E2.2223
G1 X169.920 Y186.280 E2.9551
G1 X169.720 Y186.280 F3371
; feature outer perimeter
G1 X169.240 Y186.760 F7200
G92 E0.0000
G1 X169.240 Y167.240 E0.7791 F2247
G1 X188.760 Y167.240 E1.5582
G1 X188.760 Y186.760 E2.3373
G1 X169.440 Y186.760 E3.1084
G1 X169.240 Y186.760 F2247
G92 E0.0000
G1 X169.240 Y184.337 E-5.5000 F2247
G1 X169.240 Y182.760 F2247
; feature solid layer
G1 X170.608 Y169.100 F7200
G1 E-0.1000 F5100
G92 E0.0000
G1 X171.100 Y168.608 E0.0278 F3595
G1 X171.779 Y168.608 E0.0549
G1 X170.608 Y169.779 E0.1210
G1 X170.608 Y170.458 E0.1481
G1 X172.458 Y168.608 E0.2525
G1 X173.137 Y168.608 E0.2796
G1 X170.608 Y171.137 E0.4223
G1 X170.608 Y171.816 E0.4494
G1 X173.816 Y168.608 E0.6305
G1 X174.494 Y168.608 E0.6576
G1 X170.608 Y172.494 E0.8769
G1 X170.608 Y173.173 E0.9040
G1 X175.173 Y168.608 E1.1617
G1 X175.852 Y168.608 E1.1888
G1 X170.608 Y173.852 E1.4848
G1 X170.608 Y174.531 E1.5119
G1 X176.531 Y168.608 E1.8462
G1 X177.210 Y168.608 E1.8733
G1 X170.608 Y175.210 E2.2459
G1 X170.608 Y175.889 E2.2730
G1 X177.889 Y168.608 E2.6840
G1 X178.567 Y168.608 E2.7110
G1 X170.608 Y176.567 E3.1603
G1 X170.608 Y177.246 E3.1874
G1 X179.246 Y168.608 E3.6750
G1 X179.925 Y168.608 E3.7021
G1 X170.608 Y177.925 E4.2280
G1 X170.608 Y178.604 E4.2551
G1 X180.604 Y168.608 E4.8193
G1 X181.283 Y168.608 E4.8464
G1 X170.608 Y179.283 E5.4489
G1 X170.608 Y179.961 E5.4760
G1 X181.961 Y168.608 E6.1168
G1 X182.640 Y168.608 E6.1439
G1 X170.608 Y180.640 E6.8231
G1 X170.608 Y181.319 E6.8501
G1 X183.319 Y168.608 E7.5676
G1 X183.998 Y168.608 E7.5947
G1 X170.608 Y181.998 E8.3505
G1 X170.608 Y182.677 E8.3776
G1 X184.677 Y168.608 E9.1717
G1 X185.356 Y168.608 E9.1988
G1 X170.608 Y183.356 E10.0312
G1 X170.608 Y184.034 E10.0583
G1 X186.034 Y168.608 E10.9290
G1 X186.713 Y168.608 E10.9561
G1 X170.608 Y184.713 E11.8652
G1 X170.608 Y185.392 E11.8923
G1 X187.392 Y168.608 E12.8396
G1 X187.392 Y169.287 E12.8667
G1 X171.287 Y185.392 E13.7758
G1 X171.966 Y185.392 E13.8028
G1 X187.392 Y169.966 E14.6736
G1 X187.392 Y170.645 E14.7007
G1 X172.645 Y185.392 E15.5331
G1 X173.323 Y185.392 E15.5602
G1 X187.392 Y171.323 E16.3543
G1 X187.392 Y172.002 E16.3814
G1 X174.002 Y185.392 E17.1371
G1 X174.681 Y185.392 E17.1642
G1 X187.392 Y172.681 E17.8817
G1 X187.392 Y173.360 E17.9088
G1 X175.360 Y185.392 E18.5879
G1 X176.039 Y185.392 E18.6150
G1 X187.392 Y174.039 E19.2559
G1 X187.392 Y174.717 E19.2830
G1 X176.717 Y185.392 E19.8855
G1 X177.396 Y185.392 E19.9126
G1 X187.392 Y175.396 E20.4768
G1 X187.392 Y176.075 E20.5039
G1 X178.075 Y185.392 E21.0298
G1 X178.754 Y185.392 E21.0569
G1 X187.392 Y176.754 E21.5444
G1 X187.392 Y177.433 E21.5715
G1 X179.433 Y185.392 E22.0208
G1 X180.112 Y185.392 E22.0479
G1 X187.392 Y178.112 E22.4588
G1 X187.392 Y178.790 E22.4859
G1 X180.790 Y185.392 E22.8585
G1 X181.469 Y185.392 E22.8856
G1 X187.392 Y179.469 E23.2199
G1 X187.392 Y180.148 E23.2470
G1 X182.148 Y185.392 E23.5430
G1 X182.827 Y185.392 E23.5701
G1 X187.392 Y180.827 E23.8278
G1 X187.392 Y181.506 E23.8549
G1 X183.506 Y185.392 E24.0742
G1 X184.184 Y185.392 E24.1013
G1 X187.392 Y182.184 E24.2824
G1 X187.392 Y182.863 E24.3095
G1 X184.863 Y185.392 E24.4522
G1 X185.542 Y185.392 E24.4793
G1 X187.392 Y183.542 E24.5837
G1 X187.392 Y184.221 E24.6108
G1 X186.221 Y185.392 E24.6769
G1 X186.900 Y185.392 E24.7040
G1 X187.251 Y185.041 E24.7238
G1 X187.392 Y184.900 F3595
G92 E0.0000
G1 E-5.5000 F5100
; layer 3, Z = 0.700
; feature inner perimeter
G1 Z0.700 F1002
G1 X170.200 Y185.800 F7200
G1 E-0.1000 F5100
G92 E0.0000
G1 X170.200 Y168.200 E0.7025 F3371
G1 X187.800 Y168.200 E1.4049
G1 X187.800 Y185.800 E2.1074
G1 X170.400 Y185.800 E2.8018
G1 X170.200 Y185.800 F3371
G1 X169.720 Y186.280 F7200
G92 E0.0000
G1 X169.720 Y167.720 E0.7408 F3371
G1 X188.280 Y167.720 E1.4815
G1 X188.280 Y186.280 E2.2223
G1 X169.920 Y186.280 E2.9551
G1 X169.720 Y186.280 F3371
; feature outer perimeter
G1 X169.240 Y186.760 F7200
G92 E0.0000
G1 X169.240 Y167.240 E0.7791 F2247
G1 X188.760 Y167.240 E1.5582
G1 X188.760 Y186.760 E2.3373
G1 X169.440 Y186.760 E3.1084
G1 X169.240 Y186.760 F2247
G92 E0.0000
G1 X169.240 Y184.337 E-5.5000 F2247
G1 X169.240 Y182.760 F2247
; feature solid layer
G1 X171.100 Y185.392 F7200
G1 E-0.1000 F5100
G92 E0.0000
G1 X170.608 Y184.900 E0.0278 F3595
G1 X170.608 Y184.221 E0.0549
