; G-Code generated by Simplify3D(R) Version 4.1.2
; Mar 5, 2021 at 12:38:01 AM
; Settings Summary
;   processName,Process1
;   applyToModels,bearing support,frame bearing junction,frame bearing junction(2)
;   profileName,BLV mgn Cube-  Simplify3D Profile
;   profileVersion,2021-03-04 21:50:07
;   baseProfile,Anet A8
;   printMaterial,PLA
;   printQuality,Medium
;   printExtruders,
;   extruderName,Primary Extruder
;   extruderToolheadNumber,0
;   extruderDiameter,0.4
;   extruderAutoWidth,1
;   extruderWidth,0.48
;   extrusionMultiplier,1
;   extruderUseRetract,1
;   extruderRetractionDistance,1.5
;   extruderExtraRestartDistance,0
;   extruderRetractionZLift,0
;   extruderRetractionSpeed,5100
;   extruderUseCoasting,1
;   extruderCoastingDistance,0.2
;   extruderUseWipe,1
;   extruderWipeDistance,4
;   primaryExtruder,0
;   layerHeight,0.2
;   topSolidLayers,4
;   bottomSolidLayers,4
;   perimeterOutlines,4
;   printPerimetersInsideOut,0
;   startPointOption,3
;   startPointOriginX,0
;   startPointOriginY,500
;   sequentialIslands,0
;   spiralVaseMode,0
;   firstLayerHeightPercentage,150
;   firstLayerWidthPercentage,100
;   firstLayerUnderspeed,0.5
;   useRaft,0
;   raftExtruder,0
;   raftTopLayers,3
;   raftBaseLayers,2
;   raftOffset,3
;   raftSeparationDistance,0.14
;   raftTopInfill,100
;   aboveRaftSpeedMultiplier,0.3
;   useSkirt,1
;   skirtExtruder,0
;   skirtLayers,1
;   skirtOutlines,2
;   skirtOffset,6
;   usePrimePillar,0
;   primePillarExtruder,999
;   primePillarWidth,12
;   primePillarLocation,7
;   primePillarSpeedMultiplier,1
;   useOozeShield,0
;   oozeShieldExtruder,999
;   oozeShieldOffset,2
;   oozeShieldOutlines,1
;   oozeShieldSidewallShape,1
;   oozeShieldSidewallAngle,30
;   oozeShieldSpeedMultiplier,1
;   infillExtruder,0
;   internalInfillPattern,Rectilinear
;   externalInfillPattern,Rectilinear
;   infillPercentage,15
;   outlineOverlapPercentage,15
;   infillExtrusionWidthPercentage,100
;   minInfillLength,5
;   infillLayerInterval,1
;   internalInfillAngles,45,-45
;   overlapInternalInfillAngles,0
;   externalInfillAngles,45,-45
;   generateSupport,1
;   supportExtruder,0
;   supportInfillPercentage,30
;   supportExtraInflation,0
;   supportBaseLayers,0
;   denseSupportExtruder,0
;   denseSupportLayers,0
;   denseSupportInfillPercentage,70
;   supportLayerInterval,1
;   supportHorizontalPartOffset,0.4
;   supportUpperSeparationLayers,1
;   supportLowerSeparationLayers,1
;   supportType,0
;   supportGridSpacing,4.5
;   maxOverhangAngle,45
;   supportAngles,45,-45
;   temperatureName,Primary Extruder,Heated Bed
;   temperatureNumber,0,0
;   temperatureSetpointCount,2,1
;   temperatureSetpointLayers,1,2,1
;   temperatureSetpointTemperatures,215,210,70
;   temperatureStabilizeAtStartup,1,1
;   temperatureHeatedBed,0,1
;   fanLayers,1,2
;   fanSpeeds,0,100
;   blipFanToFullPower,1
;   adjustSpeedForCooling,1
;   minSpeedLayerTime,15
;   minCoolingSpeedSlowdown,20
;   increaseFanForCooling,0
;   minFanLayerTime,45
;   maxCoolingFanSpeed,100
;   increaseFanForBridging,1
;   bridgingFanSpeed,100
;   use5D,1
;   relativeEdistances,0
;   allowEaxisZeroing,1
;   independentExtruderAxes,0
;   includeM10123,0
;   stickySupport,1
;   applyToolheadOffsets,0
;   gcodeXoffset,24
;   gcodeYoffset,22
;   gcodeZoffset,0
;   overrideMachineDefinition,1
;   machineTypeOverride,0
;   strokeXoverride,310
;   strokeYoverride,310
;   strokeZoverride,334
;   originOffsetXoverride,0
;   originOffsetYoverride,0
;   originOffsetZoverride,0
;   homeXdirOverride,-1
;   homeYdirOverride,-1
;   homeZdirOverride,-1
;   flipXoverride,1
;   flipYoverride,-1
;   flipZoverride,1
;   toolheadOffsets,0,0|0,0|0,0|0,0|0,0|0,0
;   overrideFirmwareConfiguration,1
;   firmwareTypeOverride,RepRap (Marlin/Repetier/Sprinter)
;   GPXconfigOverride,r2
;   baudRateOverride,115200
;   overridePrinterModels,1
;   printerModelsOverride,Blvfull.stl
;   startingGcode,M291 P"Homing all axis" R"Printing.." S1 T2,G21		; metric values,G28		; home all,M98 P"/macros/load_meshbed"	; load mesh bed corresponding to the temp,M98 P"/macros/set_baby_step"	; set baby step,M98 P"/macros/purge_and_prime"; purge and do the prime line,,G92 E0 F100		; reset extruder,G1 Z10 F3000 		; move z up little to prevent scratching of surface,G92 E0 		; reset extruder,M291 P"Printing started !" R"Printing.." S1 T3
;   layerChangeGcode,
;   retractionGcode,
;   toolChangeGcode,
;   endingGcode,M104 S0 ; turn off extruder,M140 S0 ; turn off bed,M98 P"/macros/remove_baby_step"	; unset baby step,M98 P"/macros/rise30mm",G1 X0 Y300 F1000 ; prepare for part removal,M84 ; disable motors,M106 S0 ;turn off part cooling fan,;M81 ; shutdown,; play song,M300 S294 P200 ;D4: 294,M300 S588 P200 ;D5: 588,M300 S440 P200 ;A4: 440,M300 S392 P200 ;G4: 392,M300 S784 P200 ;G5: 784,M300 S440 P200 ;A4: 440,M300 S740 P200 ;F#5: 740,M300 S440 P200 ;A4: 440,M291 P"Printing finished !" R"Printing.." S1 T0,
;   exportFileFormat,gcode
;   celebration,0
;   celebrationSong,Star Wars
;   postProcessing,
;   defaultSpeed,2400
;   outlineUnderspeed,0.66
;   solidInfillUnderspeed,0.8
;   supportUnderspeed,0.8
;   rapidXYspeed,7200
;   rapidZspeed,1002
;   minBridgingArea,50
;   bridgingExtraInflation,0
;   bridgingExtrusionMultiplier,1
;   bridgingSpeedMultiplier,1
;   useFixedBridgingAngle,0
;   fixedBridgingAngle,0
;   applyBridgingToPerimeters,1
;   filamentDiameters,1.75|1.75|1.75|1.75|1.75|1.75
;   filamentPricesPerKg,110|110|110|110|110|110
;   filamentDensities,1.25|1.25|1.25|1.25|1.25|1.25
;   useMinPrintHeight,0
;   minPrintHeight,0
;   useMaxPrintHeight,0
;   maxPrintHeight,0
;   useDiaphragm,0
;   diaphragmLayerInterval,20
;   robustSlicing,1
;   mergeAllIntoSolid,0
;   onlyRetractWhenCrossingOutline,0
;   retractBetweenLayers,1
;   useRetractionMinTravel,1
;   retractionMinTravel,3
;   retractWhileWiping,1
;   onlyWipeOutlines,1
;   avoidCrossingOutline,1
;   maxMovementDetourFactor,3
;   toolChangeRetractionDistance,12
;   toolChangeExtraRestartDistance,-0.5
;   toolChangeRetractionSpeed,600
;   externalThinWallType,0
;   internalThinWallType,2
;   thinWallAllowedOverlapPercentage,15
;   singleExtrusionMinLength,1
;   singleExtrusionMinPrintingWidthPercentage,50
;   singleExtrusionMaxPrintingWidthPercentage,200
;   singleExtrusionEndpointExtension,0.2
;   horizontalSizeCompensation,0
G90
M82
M106 S0
M140 S70
M190 S70
M104 S215 T0
M109 S215 T0
M291 P"Homing all axis" R"Printing.." S1 T2
G21		; metric values
G28		; home all
M98 P"/macros/load_meshbed"	; load mesh bed corresponding to the temp
M98 P"/macros/set_baby_step"	; set baby step
M98 P"/macros/purge_and_prime"; purge and do the prime line
G92 E0 F100		; reset extruder
G1 Z10 F3000 		; move z up little to prevent scratching of surface
G92 E0 		; reset extruder
M291 P"Printing started !" R"Printing.." S1 T3
; process Process1
; layer 1, Z = 0.300
T0
G92 E0.0000
G1 E-1.5000 F5100
; feature skirt
; tool H0.300 W0.480
G1 Z0.300 F1002
G1 X104.587 Y186.977 F7200
G1 E0.0000 F5100
G92 E0.0000
G1 X103.468 Y186.683 E0.0693 F1200
G1 X103.145 Y186.580 E0.0896
G1 X102.061 Y186.175 E0.1588
G1 X101.750 Y186.040 E0.1791
G1 X100.713 Y185.527 E0.2484
G1 X100.417 Y185.362 E0.2687
G1 X99.437 Y184.747 E0.3379
G1 X99.159 Y184.553 E0.3583
G1 X98.246 Y183.843 E0.4275
G1 X97.989 Y183.621 E0.4478
G1 X97.152 Y182.823 E0.5171
G1 X96.919 Y182.577 E0.5374
G1 X96.166 Y181.698 E0.6066
G1 X95.959 Y181.429 E0.6269
G1 X95.299 Y180.479 E0.6962
G1 X95.120 Y180.191 E0.7165
G1 X94.559 Y179.179 E0.7857
G1 X94.410 Y178.874 E0.8061
G1 X93.954 Y177.811 E0.8753
G1 X93.837 Y177.493 E0.8956
G1 X93.490 Y176.390 E0.9649
G1 X93.405 Y176.061 E0.9852
G1 X93.172 Y174.928 E1.0544
G1 X93.120 Y174.593 E1.0747
G1 X93.002 Y173.442 E1.1440
G1 X92.985 Y173.103 E1.1643
G1 X92.983 Y171.947 E1.2336
G1 X93.000 Y171.608 E1.2539
G1 X93.115 Y170.457 E1.3231
G1 X93.166 Y170.122 E1.3434
G1 X93.397 Y168.988 E1.4127
G1 X93.481 Y168.659 E1.4330
G1 X93.799 Y167.636 E1.4972
G1 X93.854 Y167.475 E1.5073
G1 X105.846 Y134.839 E3.5890
G1 X106.108 Y134.044 E3.6390
G1 X106.233 Y133.720 E3.6598
G1 X106.693 Y132.692 E3.7272
G1 X106.851 Y132.383 E3.7480
G1 X107.414 Y131.408 E3.8155
G1 X107.604 Y131.117 E3.8363
G1 X108.265 Y130.205 E3.9037
G1 X108.483 Y129.935 E3.9245
G1 X109.235 Y129.096 E3.9919
G1 X109.479 Y128.849 E4.0127
G1 X110.314 Y128.093 E4.0801
G1 X110.583 Y127.873 E4.1009
G1 X111.490 Y127.206 E4.1683
G1 X111.781 Y127.015 E4.1891
G1 X112.752 Y126.446 E4.2566
G1 X113.060 Y126.286 E4.2774
G1 X114.086 Y125.820 E4.3448
G1 X114.409 Y125.692 E4.3656
G1 X115.477 Y125.334 E4.4330
G1 X115.811 Y125.241 E4.4538
G1 X116.911 Y124.995 E4.5212
G1 X117.253 Y124.937 E4.5420
G1 X118.372 Y124.806 E4.6095
G1 X118.718 Y124.783 E4.6303
G1 X119.844 Y124.768 E4.6977
G1 X120.191 Y124.781 E4.7185
G1 X121.313 Y124.882 E4.7859
G1 X121.657 Y124.931 E4.8067
G1 X122.763 Y125.147 E4.8741
G1 X123.099 Y125.231 E4.8949
G1 X124.177 Y125.560 E4.9624
G1 X124.503 Y125.679 E4.9831
G1 X125.540 Y126.117 E5.0506
G1 X125.853 Y126.268 E5.0714
G1 X126.840 Y126.811 E5.1388
G1 X127.135 Y126.994 E5.1596
G1 X128.061 Y127.636 E5.2270
G1 X128.335 Y127.849 E5.2478
G1 X129.190 Y128.582 E5.3152
G1 X129.441 Y128.822 E5.3360
G1 X130.215 Y129.640 E5.4035
G1 X130.441 Y129.904 E5.4243
G1 X131.126 Y130.798 E5.4917
G1 X131.323 Y131.084 E5.5125
G1 X131.868 Y131.970 E5.5747
G1 X131.955 Y132.120 E5.5851
G1 X148.433 Y162.318 E7.6447
G1 X147.345 Y164.151 E7.7723
G1 X149.716 Y161.780 E7.9731
G1 X208.284 Y161.780 E11.4794
G1 X212.220 Y165.716 E11.8126
G1 X212.220 Y188.284 E13.1637
G1 X208.284 Y192.220 E13.4970
G1 X149.716 Y192.220 E17.0033
G1 X145.780 Y188.284 E17.3366
G1 X145.780 Y166.789 E18.6234
G1 X144.528 Y168.898 E18.7703
G1 X136.954 Y168.898 E19.2238
G1 X134.264 Y170.998 E19.4281
G1 X125.039 Y170.998 E19.9804
G1 X123.807 Y170.037 E20.0739
G1 X122.082 Y176.443 E20.4711
G1 X122.033 Y176.606 E20.4813
G1 X121.703 Y177.625 E20.5455
G1 X121.582 Y177.942 E20.5658
G1 X121.116 Y179.001 E20.6350
G1 X120.964 Y179.305 E20.6553
G1 X120.394 Y180.311 E20.7246
G1 X120.212 Y180.597 E20.7449
G1 X119.543 Y181.541 E20.8141
G1 X119.333 Y181.808 E20.8345
G1 X118.573 Y182.679 E20.9037
G1 X118.337 Y182.923 E20.9240
G1 X117.493 Y183.714 E20.9933
G1 X117.234 Y183.933 E21.0136
G1 X116.314 Y184.634 E21.0828
G1 X116.034 Y184.826 E21.1031
G1 X115.048 Y185.431 E21.1724
G1 X114.750 Y185.594 E21.1927
G1 X113.709 Y186.097 E21.2620
G1 X113.396 Y186.229 E21.2823
G1 X112.309 Y186.624 E21.3515
G1 X111.985 Y186.723 E21.3718
G1 X110.863 Y187.007 E21.4411
G1 X110.531 Y187.073 E21.4614
G1 X109.386 Y187.242 E21.5306
G1 X109.048 Y187.275 E21.5510
G1 X107.893 Y187.328 E21.6202
G1 X107.554 Y187.326 E21.6405
G1 X106.399 Y187.262 E21.7098
G1 X106.061 Y187.227 E21.7301
G1 X104.919 Y187.047 E21.7993
G1 X104.587 Y186.977 E21.8196
G1 X104.697 Y186.510 F7200
G92 E0.0000
G1 X103.602 Y186.222 E0.0678 F1200
G1 X103.301 Y186.126 E0.0867
G1 X102.241 Y185.729 E0.1545
G1 X101.952 Y185.604 E0.1733
G1 X100.937 Y185.103 E0.2411
G1 X100.661 Y184.949 E0.2600
G1 X99.702 Y184.347 E0.3278
G1 X99.444 Y184.166 E0.3467
G1 X98.550 Y183.471 E0.4145
G1 X98.311 Y183.266 E0.4333
G1 X97.492 Y182.484 E0.5011
G1 X97.275 Y182.255 E0.5200
G1 X96.539 Y181.395 E0.5878
G1 X96.346 Y181.146 E0.6066
G1 X95.700 Y180.215 E0.6744
G1 X95.534 Y179.948 E0.6933
G1 X94.985 Y178.957 E0.7611
G1 X94.846 Y178.674 E0.7800
G1 X94.400 Y177.633 E0.8478
G1 X94.291 Y177.338 E0.8666
G1 X93.952 Y176.257 E0.9344
G1 X93.873 Y175.952 E0.9533
G1 X93.644 Y174.843 E1.0211
G1 X93.596 Y174.532 E1.0399
G1 X93.481 Y173.405 E1.1077
G1 X93.465 Y173.091 E1.1266
G1 X93.463 Y171.958 E1.1944
G1 X93.479 Y171.644 E1.2132
G1 X93.592 Y170.517 E1.2810
G1 X93.639 Y170.205 E1.2999
G1 X93.864 Y169.095 E1.3677
G1 X93.943 Y168.790 E1.3866
G1 X94.256 Y167.784 E1.4497
G1 X94.306 Y167.635 E1.4591
G1 X106.300 Y134.996 E3.5409
G1 X106.560 Y134.206 E3.5907
G1 X106.676 Y133.905 E3.6100
G1 X107.126 Y132.900 E3.6759
G1 X107.273 Y132.613 E3.6952
G1 X107.824 Y131.659 E3.7612
G1 X107.999 Y131.388 E3.7805
G1 X108.646 Y130.496 E3.8464
G1 X108.849 Y130.246 E3.8657
G1 X109.584 Y129.425 E3.9317
G1 X109.811 Y129.197 E3.9510
G1 X110.627 Y128.456 E4.0169
G1 X110.877 Y128.253 E4.0362
G1 X111.764 Y127.600 E4.1022
G1 X112.034 Y127.423 E4.1215
G1 X112.984 Y126.866 E4.1874
G1 X113.270 Y126.718 E4.2067
G1 X114.273 Y126.262 E4.2727
G1 X114.573 Y126.144 E4.2920
G1 X115.618 Y125.793 E4.3579
G1 X115.928 Y125.707 E4.3772
G1 X117.003 Y125.466 E4.4432
G1 X117.321 Y125.412 E4.4625
G1 X118.415 Y125.284 E4.5285
G1 X118.737 Y125.263 E4.5478
G1 X119.838 Y125.248 E4.6137
G1 X120.160 Y125.260 E4.6330
G1 X121.258 Y125.359 E4.6989
G1 X121.577 Y125.404 E4.7183
G1 X122.658 Y125.616 E4.7842
G1 X122.971 Y125.694 E4.8035
G1 X124.025 Y126.016 E4.8695
G1 X124.328 Y126.126 E4.8888
G1 X125.342 Y126.554 E4.9547
G1 X125.632 Y126.695 E4.9740
G1 X126.597 Y127.226 E5.0400
G1 X126.872 Y127.396 E5.0593
G1 X127.777 Y128.024 E5.1252
G1 X128.032 Y128.221 E5.1445
G1 X128.868 Y128.938 E5.2105
G1 X129.101 Y129.161 E5.2298
G1 X129.858 Y129.961 E5.2957
G1 X130.067 Y130.206 E5.3150
G1 X130.738 Y131.080 E5.3810
G1 X130.921 Y131.346 E5.4003
G1 X131.455 Y132.216 E5.4614
G1 X131.536 Y132.355 E5.4711
G1 X147.881 Y162.308 E7.5139
G1 X144.254 Y168.418 E7.9393
G1 X136.789 Y168.418 E8.3863
G1 X134.099 Y170.518 E8.5906
G1 X125.204 Y170.518 E9.1231
G1 X123.532 Y169.213 E9.2501
G1 X121.620 Y176.313 E9.6903
G1 X121.575 Y176.464 E9.6997
G1 X121.250 Y177.466 E9.7628
G1 X121.138 Y177.760 E9.7816
G1 X120.682 Y178.797 E9.8494
G1 X120.540 Y179.078 E9.8683
G1 X119.982 Y180.064 E9.9361
G1 X119.813 Y180.330 E9.9550
G1 X119.158 Y181.254 E10.0228
G1 X118.963 Y181.501 E10.0416
G1 X118.219 Y182.355 E10.1094
G1 X118.000 Y182.581 E10.1283
G1 X117.174 Y183.355 E10.1961
G1 X116.933 Y183.559 E10.2149
G1 X116.032 Y184.245 E10.2827
G1 X115.772 Y184.424 E10.3016
G1 X114.807 Y185.016 E10.3694
G1 X114.531 Y185.167 E10.3883
G1 X113.511 Y185.659 E10.4561
G1 X113.220 Y185.782 E10.4749
G1 X112.156 Y186.168 E10.5427
G1 X111.855 Y186.261 E10.5616
G1 X110.757 Y186.538 E10.6294
G1 X110.448 Y186.600 E10.6482
G1 X109.328 Y186.766 E10.7160
G1 X109.014 Y186.796 E10.7349
G1 X107.883 Y186.848 E10.8027
G1 X107.568 Y186.846 E10.8216
G1 X106.437 Y186.784 E10.8894
G1 X106.124 Y186.751 E10.9082
G1 X105.005 Y186.574 E10.9760
G1 X104.697 Y186.510 E10.9949
G92 E0.0000
G1 E-1.5000 F5100
G1 X149.915 Y191.740 F7200
G1 E0.0000 F5100
G92 E0.0000
G1 X146.260 Y188.085 E0.3095 F1200
G1 X146.260 Y165.915 E1.6367
G1 X149.915 Y162.260 E1.9462
G1 X208.085 Y162.260 E5.4287
G1 X211.740 Y165.915 E5.7382
G1 X211.740 Y188.085 E7.0654
G1 X208.085 Y191.740 E7.3749
G1 X149.915 Y191.740 E10.8574
G92 E0.0000
G1 E-1.5000 F5100
G1 X149.717 Y157.291 F7200
G1 E0.0000 F5100
G92 E0.0000
G1 X145.780 Y153.354 E0.3333 F1200
G1 X145.780 Y152.859 E0.3630
G1 X145.560 Y152.639 E0.3816
G1 X145.560 Y134.189 E1.4861
G1 X149.497 Y130.253 E1.8194
G1 X208.504 Y130.253 E5.3520
G1 X212.440 Y134.189 E5.6853
G1 X212.440 Y152.639 E6.7899
G1 X212.220 Y152.859 E6.8085
G1 X212.220 Y153.354 E6.8382
G1 X208.284 Y157.291 E7.1714
G1 X149.717 Y157.291 E10.6777
G1 X149.915 Y156.811 F7200
G92 E0.0000
G1 X146.260 Y153.155 E0.3095 F1200
G1 X146.260 Y152.660 E0.3391
G1 X146.040 Y152.440 E0.3578
G1 X146.040 Y134.388 E1.4385
G1 X149.695 Y130.733 E1.7480
G1 X208.305 Y130.733 E5.2568
G1 X211.960 Y134.388 E5.5663
G1 X211.960 Y152.440 E6.6470
G1 X211.740 Y152.660 E6.6657
G1 X211.740 Y153.155 E6.6953
G1 X208.085 Y156.811 E7.0048
G1 X149.915 Y156.811 E10.4873
G92 E0.0000
G1 E-1.5000 F5100
; feature outer perimeter
G1 X140.297 Y161.938 F7200
