; G-Code generated by Simplify3D(R) Version 4.1.2
; Mar 1, 2021 at 9:13:47 PM
; Settings Summary
;   processName,Process1
;   applyToModels,bloque micrometre,support micrometre
;   profileName,BLV mgn Cube-  Simplify3D Profile
;   profileVersion,2019-01-29 15:16:26
;   baseProfile,Anet A8
;   printMaterial,PLA
;   printQuality,Medium
;   printExtruders,
;   extruderName,Primary Extruder
;   extruderToolheadNumber,0
;   extruderDiameter,0.4
;   extruderAutoWidth,1
;   extruderWidth,0.48
;   extrusionMultiplier,1
;   extruderUseRetract,1
;   extruderRetractionDistance,5.5
;   extruderExtraRestartDistance,-0.1
;   extruderRetractionZLift,0
;   extruderRetractionSpeed,5100
;   extruderUseCoasting,1
;   extruderCoastingDistance,0.2
;   extruderUseWipe,1
;   extruderWipeDistance,4
;   primaryExtruder,0
;   layerHeight,0.2
;   topSolidLayers,3
;   bottomSolidLayers,3
;   perimeterOutlines,3
;   printPerimetersInsideOut,0
;   startPointOption,3
;   startPointOriginX,0
;   startPointOriginY,500
;   sequentialIslands,0
;   spiralVaseMode,0
;   firstLayerHeightPercentage,150
;   firstLayerWidthPercentage,100
;   firstLayerUnderspeed,0.5
;   useRaft,0
;   raftExtruder,0
;   raftTopLayers,3
;   raftBaseLayers,2
;   raftOffset,3
;   raftSeparationDistance,0.14
;   raftTopInfill,100
;   aboveRaftSpeedMultiplier,0.3
;   useSkirt,1
;   skirtExtruder,0
;   skirtLayers,1
;   skirtOutlines,2
;   skirtOffset,6
;   usePrimePillar,0
;   primePillarExtruder,999
;   primePillarWidth,12
;   primePillarLocation,7
;   primePillarSpeedMultiplier,1
;   useOozeShield,0
;   oozeShieldExtruder,999
;   oozeShieldOffset,2
;   oozeShieldOutlines,1
;   oozeShieldSidewallShape,1
;   oozeShieldSidewallAngle,30
;   oozeShieldSpeedMultiplier,1
;   infillExtruder,0
;   internalInfillPattern,Rectilinear
;   externalInfillPattern,Rectilinear
;   infillPercentage,15
;   outlineOverlapPercentage,15
;   infillExtrusionWidthPercentage,100
;   minInfillLength,5
;   infillLayerInterval,1
;   internalInfillAngles,45,-45
;   overlapInternalInfillAngles,0
;   externalInfillAngles,45,-45
;   generateSupport,1
;   supportExtruder,0
;   supportInfillPercentage,30
;   supportExtraInflation,0
;   supportBaseLayers,0
;   denseSupportExtruder,0
;   denseSupportLayers,0
;   denseSupportInfillPercentage,70
;   supportLayerInterval,1
;   supportHorizontalPartOffset,0.4
;   supportUpperSeparationLayers,1
;   supportLowerSeparationLayers,1
;   supportType,0
;   supportGridSpacing,4.5
;   maxOverhangAngle,45
;   supportAngles,45,-45
;   temperatureName,Primary Extruder,Heated Bed
;   temperatureNumber,0,0
;   temperatureSetpointCount,2,1
;   temperatureSetpointLayers,1,2,1
;   temperatureSetpointTemperatures,215,210,70
;   temperatureStabilizeAtStartup,1,1
;   temperatureHeatedBed,0,1
;   fanLayers,1,2
;   fanSpeeds,0,100
;   blipFanToFullPower,1
;   adjustSpeedForCooling,1
;   minSpeedLayerTime,15
;   minCoolingSpeedSlowdown,20
;   increaseFanForCooling,0
;   minFanLayerTime,45
;   maxCoolingFanSpeed,100
;   increaseFanForBridging,1
;   bridgingFanSpeed,100
;   use5D,1
;   relativeEdistances,0
;   allowEaxisZeroing,1
;   independentExtruderAxes,0
;   includeM10123,0
;   stickySupport,1
;   applyToolheadOffsets,0
;   gcodeXoffset,24
;   gcodeYoffset,22
;   gcodeZoffset,0
;   overrideMachineDefinition,1
;   machineTypeOverride,0
;   strokeXoverride,310
;   strokeYoverride,310
;   strokeZoverride,334
;   originOffsetXoverride,0
;   originOffsetYoverride,0
;   originOffsetZoverride,0
;   homeXdirOverride,-1
;   homeYdirOverride,-1
;   homeZdirOverride,-1
;   flipXoverride,1
;   flipYoverride,-1
;   flipZoverride,1
;   toolheadOffsets,0,0|0,0|0,0|0,0|0,0|0,0
;   overrideFirmwareConfiguration,1
;   firmwareTypeOverride,RepRap (Marlin/Repetier/Sprinter)
;   GPXconfigOverride,r2
;   baudRateOverride,115200
;   overridePrinterModels,1
;   printerModelsOverride,Blvfull.stl
;   startingGcode,M291 P"Homing all axis" R"Printing.." S1 T2,G21		; metric values,G28		; home all,M98 P"/macros/load_meshbed"	; load mesh bed corresponding to the temp,M98 P"/macros/set_baby_step"	; set baby step,M98 P"/macros/purge_and_prime"; purge and do the prime line,,G92 E0 F100		; reset extruder,G1 Z10 F3000 		; move z up little to prevent scratching of surface,G92 E0 		; reset extruder,M291 P"Printing started !" R"Printing.." S1 T3
;   layerChangeGcode,
;   retractionGcode,
;   toolChangeGcode,
;   endingGcode,M104 S0 ; turn off extruder,M140 S0 ; turn off bed,M98 P"/macros/remove_baby_step"	; unset baby step,M98 P"/macros/rise30mm",G1 X0 Y300 F1000 ; prepare for part removal,M84 ; disable motors,M106 S0 ;turn off part cooling fan,;M81 ; shutdown,; play song,M300 S294 P200 ;D4: 294,M300 S588 P200 ;D5: 588,M300 S440 P200 ;A4: 440,M300 S392 P200 ;G4: 392,M300 S784 P200 ;G5: 784,M300 S440 P200 ;A4: 440,M300 S740 P200 ;F#5: 740,M300 S440 P200 ;A4: 440,M291 P"Printing finished !" R"Printing.." S1 T0,
;   exportFileFormat,gcode
;   celebration,0
;   celebrationSong,Star Wars
;   postProcessing,
;   defaultSpeed,2400
;   outlineUnderspeed,0.66
;   solidInfillUnderspeed,0.8
;   supportUnderspeed,0.8
;   rapidXYspeed,7200
;   rapidZspeed,1002
;   minBridgingArea,50
;   bridgingExtraInflation,0
;   bridgingExtrusionMultiplier,1
;   bridgingSpeedMultiplier,1
;   useFixedBridgingAngle,0
;   fixedBridgingAngle,0
;   applyBridgingToPerimeters,1
;   filamentDiameters,1.75|1.75|1.75|1.75|1.75|1.75
;   filamentPricesPerKg,110|110|110|110|110|110
;   filamentDensities,1.25|1.25|1.25|1.25|1.25|1.25
;   useMinPrintHeight,0
;   minPrintHeight,0
;   useMaxPrintHeight,0
;   maxPrintHeight,0
;   useDiaphragm,0
;   diaphragmLayerInterval,20
;   robustSlicing,1
;   mergeAllIntoSolid,0
;   onlyRetractWhenCrossingOutline,0
;   retractBetweenLayers,1
;   useRetractionMinTravel,1
;   retractionMinTravel,3
;   retractWhileWiping,1
;   onlyWipeOutlines,1
;   avoidCrossingOutline,1
;   maxMovementDetourFactor,3
;   toolChangeRetractionDistance,12
;   toolChangeExtraRestartDistance,-0.5
;   toolChangeRetractionSpeed,600
;   externalThinWallType,0
;   internalThinWallType,2
;   thinWallAllowedOverlapPercentage,15
;   singleExtrusionMinLength,1
;   singleExtrusionMinPrintingWidthPercentage,50
;   singleExtrusionMaxPrintingWidthPercentage,200
;   singleExtrusionEndpointExtension,0.2
;   horizontalSizeCompensation,0
G90
M82
M106 S0
M140 S70
M190 S70
M104 S215 T0
M109 S215 T0
M291 P"Homing all axis" R"Printing.." S1 T2
G21		; metric values
G28		; home all
M98 P"/macros/load_meshbed"	; load mesh bed corresponding to the temp
M98 P"/macros/set_baby_step"	; set baby step
M98 P"/macros/purge_and_prime"; purge and do the prime line
G92 E0 F100		; reset extruder
G1 Z10 F3000 		; move z up little to prevent scratching of surface
G92 E0 		; reset extruder
M291 P"Printing started !" R"Printing.." S1 T3
; process Process1
; layer 1, Z = 0.300
T0
G92 E0.0000
G1 E-5.5000 F5100
; feature skirt
; tool H0.300 W0.480
G1 Z0.300 F1002
G1 X147.736 Y214.436 F7200
G1 E-0.1000 F5100
G92 E0.0000
G1 X143.799 Y210.500 E0.3333 F1200
G1 X143.799 Y151.500 E3.8655
G1 X147.736 Y147.564 E4.1987
G1 X161.810 Y147.564 E5.0413
G1 X161.810 Y143.496 E5.2848
G1 X165.747 Y139.560 E5.6181
G1 X175.754 Y139.560 E6.2172
G1 X179.690 Y143.496 E6.5505
G1 X179.690 Y147.564 E6.7940
G1 X191.083 Y147.564 E7.4761
G1 X191.352 Y147.117 E7.5073
G1 X191.583 Y146.783 E7.5316
G1 X192.231 Y145.957 E7.5945
G1 X192.429 Y145.726 E7.6127
G1 X192.876 Y145.251 E7.6518
G1 X193.094 Y145.039 E7.6700
G1 X193.880 Y144.343 E7.7328
G1 X194.200 Y144.093 E7.7571
G1 X195.064 Y143.496 E7.8200
G1 X195.322 Y143.335 E7.8382
G1 X195.890 Y143.015 E7.8772
G1 X196.162 Y142.877 E7.8955
G1 X197.072 Y142.467 E7.9553
G1 X197.356 Y142.355 E7.9735
G1 X197.972 Y142.142 E8.0125
G1 X198.264 Y142.056 E8.0308
G1 X199.283 Y141.805 E8.0936
G1 X199.682 Y141.732 E8.1179
G1 X200.775 Y141.599 E8.1838
G1 X201.180 Y141.574 E8.2081
G1 X202.281 Y141.574 E8.2740
G1 X202.686 Y141.599 E8.2983
G1 X203.728 Y141.726 E8.3612
G1 X204.029 Y141.776 E8.3794
G1 X204.666 Y141.913 E8.4184
G1 X204.960 Y141.990 E8.4367
G1 X205.914 Y142.287 E8.4965
G1 X206.200 Y142.391 E8.5147
G1 X206.803 Y142.640 E8.5537
G1 X207.078 Y142.770 E8.5719
G1 X207.963 Y143.234 E8.6317
G1 X208.226 Y143.387 E8.6500
G1 X208.773 Y143.741 E8.6890
G1 X209.021 Y143.918 E8.7072
G1 X209.848 Y144.565 E8.7701
G1 X210.152 Y144.835 E8.7944
G1 X210.894 Y145.577 E8.8572
G1 X211.099 Y145.802 E8.8755
G1 X211.517 Y146.303 E8.9145
G1 X211.701 Y146.545 E8.9327
G1 X212.297 Y147.409 E8.9956
G1 X212.507 Y147.757 E9.0199
G1 X212.995 Y148.686 E9.0827
G1 X213.124 Y148.962 E9.1010
G1 X213.374 Y149.564 E9.1400
G1 X213.477 Y149.850 E9.1582
G1 X213.774 Y150.804 E9.2180
G1 X213.852 Y151.099 E9.2363
G1 X213.989 Y151.736 E9.2753
G1 X214.039 Y152.036 E9.2935
G1 X214.165 Y153.078 E9.3564
G1 X214.190 Y153.484 E9.3807
G1 X214.190 Y154.584 E9.4466
G1 X214.165 Y154.990 E9.4709
G1 X214.039 Y156.032 E9.5337
G1 X213.989 Y156.332 E9.5519
G1 X213.852 Y156.969 E9.5910
G1 X213.774 Y157.264 E9.6092
G1 X213.477 Y158.218 E9.6690
G1 X213.374 Y158.504 E9.6872
G1 X213.124 Y159.106 E9.7263
G1 X212.995 Y159.382 E9.7445
G1 X212.507 Y160.311 E9.8073
G1 X212.297 Y160.659 E9.8317
G1 X211.701 Y161.523 E9.8945
G1 X211.517 Y161.765 E9.9127
G1 X211.099 Y162.266 E9.9518
G1 X210.894 Y162.491 E9.9700
G1 X210.152 Y163.233 E10.0328
G1 X209.848 Y163.503 E10.0571
G1 X209.021 Y164.150 E10.1200
G1 X208.773 Y164.327 E10.1382
G1 X208.226 Y164.681 E10.1773
G1 X207.963 Y164.834 E10.1955
G1 X207.034 Y165.322 E10.2583
G1 X206.663 Y165.489 E10.2826
G1 X205.634 Y165.879 E10.3485
G1 X205.246 Y166.000 E10.3728
G1 X204.227 Y166.251 E10.4357
G1 X203.928 Y166.310 E10.4539
G1 X203.284 Y166.408 E10.4929
G1 X202.981 Y166.441 E10.5112
G1 X201.984 Y166.501 E10.5710
G1 X201.680 Y166.506 E10.5892
G1 X201.028 Y166.486 E10.6282
G1 X200.725 Y166.463 E10.6465
G1 X199.733 Y166.342 E10.7063
G1 X199.432 Y166.292 E10.7245
G1 X198.845 Y166.166 E10.7605
G1 X198.648 Y166.117 E10.7726
G1 X198.069 Y165.956 E10.8086
G1 X197.779 Y165.861 E10.8269
G1 X197.700 Y165.831 E10.8319
G1 X197.700 Y210.500 E13.5061
G1 X193.764 Y214.436 E13.8394
G1 X147.736 Y214.436 E16.5950
G1 X147.935 Y213.956 F7200
G92 E0.0000
G1 X144.279 Y210.301 E0.3095 F1200
G1 X144.279 Y151.699 E3.8178
G1 X147.935 Y148.044 E4.1273
G1 X162.290 Y148.044 E4.9867
G1 X162.290 Y143.695 E5.2471
G1 X165.945 Y140.040 E5.5566
G1 X175.555 Y140.040 E6.1319
G1 X179.210 Y143.695 E6.4414
G1 X179.210 Y148.044 E6.7017
G1 X191.353 Y148.044 E7.4287
G1 X191.756 Y147.378 E7.4753
G1 X191.970 Y147.068 E7.4979
G1 X192.602 Y146.261 E7.5592
G1 X192.786 Y146.047 E7.5761
G1 X193.218 Y145.588 E7.6138
G1 X193.421 Y145.391 E7.6308
G1 X194.188 Y144.712 E7.6921
G1 X194.484 Y144.479 E7.7147
G1 X195.327 Y143.898 E7.7760
G1 X195.567 Y143.748 E7.7929
G1 X196.116 Y143.438 E7.8306
G1 X196.368 Y143.310 E7.8476
G1 X197.259 Y142.909 E7.9061
G1 X197.522 Y142.805 E7.9230
G1 X198.118 Y142.600 E7.9607
G1 X198.389 Y142.520 E7.9777
G1 X199.384 Y142.274 E8.0390
G1 X199.755 Y142.206 E8.0616
G1 X200.818 Y142.077 E8.1257
G1 X201.195 Y142.054 E8.1483
G1 X202.266 Y142.054 E8.2124
G1 X202.643 Y142.077 E8.2350
G1 X203.660 Y142.201 E8.2963
G1 X203.938 Y142.247 E8.3133
G1 X204.554 Y142.380 E8.3510
G1 X204.828 Y142.452 E8.3679
G1 X205.761 Y142.742 E8.4264
G1 X206.027 Y142.839 E8.4433
G1 X206.609 Y143.080 E8.4811
G1 X206.865 Y143.200 E8.4980
G1 X207.730 Y143.654 E8.5565
G1 X207.974 Y143.796 E8.5734
G1 X208.504 Y144.138 E8.6112
G1 X208.734 Y144.303 E8.6281
G1 X209.540 Y144.934 E8.6894
G1 X209.822 Y145.184 E8.7120
G1 X210.547 Y145.909 E8.7733
G1 X210.737 Y146.118 E8.7902
G1 X211.141 Y146.602 E8.8280
G1 X211.312 Y146.827 E8.8449
G1 X211.894 Y147.670 E8.9062
G1 X212.089 Y147.993 E8.9288
G1 X212.565 Y148.899 E8.9901
G1 X212.685 Y149.156 E9.0070
G1 X212.926 Y149.738 E9.0448
G1 X213.022 Y150.004 E9.0617
G1 X213.313 Y150.936 E9.1202
G1 X213.385 Y151.210 E9.1371
G1 X213.517 Y151.826 E9.1749
G1 X213.564 Y152.105 E9.1918
G1 X213.687 Y153.122 E9.2531
G1 X213.710 Y153.498 E9.2757
G1 X213.710 Y154.570 E9.3398
G1 X213.687 Y154.946 E9.3624
G1 X213.564 Y155.963 E9.4237
G1 X213.517 Y156.242 E9.4407
G1 X213.385 Y156.858 E9.4784
G1 X213.313 Y157.131 E9.4953
G1 X213.022 Y158.064 E9.5538
G1 X212.926 Y158.330 E9.5707
G1 X212.685 Y158.912 E9.6085
G1 X212.565 Y159.169 E9.6254
G1 X212.089 Y160.076 E9.6867
G1 X211.894 Y160.398 E9.7093
G1 X211.312 Y161.241 E9.7706
G1 X211.141 Y161.466 E9.7876
G1 X210.737 Y161.951 E9.8253
G1 X210.547 Y162.159 E9.8422
G1 X209.822 Y162.884 E9.9035
G1 X209.540 Y163.134 E9.9261
G1 X208.734 Y163.765 E9.9874
G1 X208.504 Y163.930 E10.0044
G1 X207.974 Y164.272 E10.0421
G1 X207.730 Y164.414 E10.0590
G1 X206.823 Y164.890 E10.1203
G1 X206.479 Y165.045 E10.1429
G1 X205.478 Y165.425 E10.2071
G1 X205.118 Y165.537 E10.2296
G1 X204.123 Y165.782 E10.2910
G1 X203.845 Y165.838 E10.3079
G1 X203.223 Y165.932 E10.3456
G1 X202.941 Y165.962 E10.3626
G1 X201.966 Y166.021 E10.4211
G1 X201.683 Y166.025 E10.4380
G1 X201.054 Y166.006 E10.4757
G1 X200.772 Y165.985 E10.4926
G1 X199.802 Y165.867 E10.5511
G1 X199.522 Y165.820 E10.5681
G1 X198.952 Y165.698 E10.6030
G1 X198.770 Y165.653 E10.6142
G1 X198.208 Y165.497 E10.6491
G1 X197.939 Y165.408 E10.6661
G1 X197.220 Y165.136 E10.7121
G1 X197.220 Y210.301 E13.4161
G1 X193.565 Y213.956 E13.7255
G1 X147.935 Y213.956 E16.4574
G92 E0.0000
G1 E-5.5000 F5100
; feature outer perimeter
G1 X150.760 Y207.476 F7200
G1 E-0.1000 F5100
G92 E0.0000
G1 X150.760 Y154.524 E3.1701 F792
G1 X190.740 Y154.524 E5.5637
G1 X190.740 Y207.476 E8.7339
G1 X150.959 Y207.476 E11.1155
G1 X150.760 Y207.476 F792
G92 E0.0000
G1 X150.760 Y206.622 E-5.5000 F792
G1 X150.760 Y203.476 F792
; feature inner perimeter
G1 X151.240 Y206.996 F7200
G1 E-0.1000 F5100
G92 E0.0000
G1 X151.240 Y166.379 E2.4317 F996
G1 X151.525 Y166.289 E2.4496
G1 X151.909 Y166.837 E2.4897
G1 X152.368 Y167.296 E2.5285
G1 X152.899 Y167.668 E2.5674
G1 X153.487 Y167.942 E2.6062
G1 X154.114 Y168.110 E2.6451
G1 X154.760 Y168.167 E2.6839
G1 X155.407 Y168.110 E2.7228
G1 X156.034 Y167.942 E2.7616
G1 X156.622 Y167.668 E2.8005
G1 X157.153 Y167.296 E2.8393
G1 X157.612 Y166.837 E2.8782
G1 X157.984 Y166.305 E2.9170
G1 X158.259 Y165.717 E2.9559
G1 X158.427 Y165.090 E2.9947
G1 X158.484 Y164.440 E3.0338
G1 X158.415 Y163.755 E3.0750
G1 X158.259 Y163.171 E3.1112
G1 X157.984 Y162.583 E3.1501
G1 X157.612 Y162.051 E3.1889
G1 X157.153 Y161.592 E3.2278
G1 X156.622 Y161.220 E3.2666
G1 X156.034 Y160.946 E3.3055
G1 X155.407 Y160.778 E3.3443
G1 X154.760 Y160.721 E3.3832
G1 X154.114 Y160.778 E3.4220
G1 X153.487 Y160.946 E3.4609
G1 X152.899 Y161.220 E3.4997
G1 X152.368 Y161.592 E3.5386
G1 X151.909 Y162.051 E3.5774
G1 X151.525 Y162.599 E3.6175
G1 X151.240 Y162.509 E3.6354
G1 X151.240 Y155.004 E4.0847
G1 X190.260 Y155.004 E6.4209
G1 X190.260 Y194.479 E8.7842
G1 X189.975 Y194.569 E8.8021
G1 X189.612 Y194.051 E8.8400
G1 X189.153 Y193.592 E8.8788
G1 X188.622 Y193.220 E8.9177
G1 X188.034 Y192.946 E8.9565
G1 X187.407 Y192.778 E8.9954
G1 X186.760 Y192.721 E9.0342
G1 X186.114 Y192.778 E9.0731
G1 X185.487 Y192.946 E9.1119
G1 X184.899 Y193.220 E9.1508
G1 X184.368 Y193.592 E9.1896
G1 X183.909 Y194.051 E9.2285
G1 X183.537 Y194.583 E9.2673
G1 X183.262 Y195.171 E9.3062
G1 X183.094 Y195.798 E9.3450
G1 X183.038 Y196.444 E9.3839
G1 X183.094 Y197.090 E9.4227
G1 X183.262 Y197.717 E9.4616
G1 X183.537 Y198.305 E9.5004
G1 X183.909 Y198.837 E9.5393
G1 X184.368 Y199.296 E9.5781
G1 X184.899 Y199.668 E9.6170
G1 X185.487 Y199.942 E9.6558
G1 X186.114 Y200.110 E9.6947
G1 X186.760 Y200.167 E9.7335
G1 X187.407 Y200.110 E9.7724
G1 X188.034 Y199.942 E9.8112
