; G-Code generated by Simplify3D(R) Version 4.1.2
; Mar 29, 2021 at 1:34:28 PM
; Settings Summary
;   processName,Process1
;   applyToModels,cale top Z chariot,cale top Z chariot(2)
;   profileName,BLV mgn Cube-  Simplify3D Profile (modified)
;   profileVersion,2021-03-16 20:26:39
;   baseProfile,Anet A8
;   printMaterial,PLA
;   printQuality,Medium
;   printExtruders,
;   extruderName,Primary Extruder
;   extruderToolheadNumber,0
;   extruderDiameter,0.4
;   extruderAutoWidth,1
;   extruderWidth,0.48
;   extrusionMultiplier,1
;   extruderUseRetract,1
;   extruderRetractionDistance,1.5
;   extruderExtraRestartDistance,0
;   extruderRetractionZLift,0
;   extruderRetractionSpeed,5100
;   extruderUseCoasting,1
;   extruderCoastingDistance,0.2
;   extruderUseWipe,1
;   extruderWipeDistance,4
;   primaryExtruder,0
;   layerHeight,0.2
;   topSolidLayers,3
;   bottomSolidLayers,3
;   perimeterOutlines,3
;   printPerimetersInsideOut,0
;   startPointOption,3
;   startPointOriginX,0
;   startPointOriginY,500
;   sequentialIslands,0
;   spiralVaseMode,0
;   firstLayerHeightPercentage,150
;   firstLayerWidthPercentage,100
;   firstLayerUnderspeed,0.4
;   useRaft,0
;   raftExtruder,0
;   raftTopLayers,3
;   raftBaseLayers,2
;   raftOffset,3
;   raftSeparationDistance,0.14
;   raftTopInfill,100
;   aboveRaftSpeedMultiplier,0.3
;   useSkirt,1
;   skirtExtruder,0
;   skirtLayers,1
;   skirtOutlines,2
;   skirtOffset,6
;   usePrimePillar,0
;   primePillarExtruder,999
;   primePillarWidth,12
;   primePillarLocation,7
;   primePillarSpeedMultiplier,1
;   useOozeShield,0
;   oozeShieldExtruder,999
;   oozeShieldOffset,2
;   oozeShieldOutlines,1
;   oozeShieldSidewallShape,1
;   oozeShieldSidewallAngle,30
;   oozeShieldSpeedMultiplier,1
;   infillExtruder,0
;   internalInfillPattern,Rectilinear
;   externalInfillPattern,Rectilinear
;   infillPercentage,15
;   outlineOverlapPercentage,15
;   infillExtrusionWidthPercentage,100
;   minInfillLength,5
;   infillLayerInterval,1
;   internalInfillAngles,45,-45
;   overlapInternalInfillAngles,0
;   externalInfillAngles,45,-45
;   generateSupport,1
;   supportExtruder,0
;   supportInfillPercentage,30
;   supportExtraInflation,0
;   supportBaseLayers,0
;   denseSupportExtruder,0
;   denseSupportLayers,0
;   denseSupportInfillPercentage,70
;   supportLayerInterval,1
;   supportHorizontalPartOffset,0.4
;   supportUpperSeparationLayers,1
;   supportLowerSeparationLayers,1
;   supportType,0
;   supportGridSpacing,1
;   maxOverhangAngle,45
;   supportAngles,45,-45
;   temperatureName,Primary Extruder,Heated Bed
;   temperatureNumber,0,0
;   temperatureSetpointCount,2,1
;   temperatureSetpointLayers,1,2,1
;   temperatureSetpointTemperatures,215,210,60
;   temperatureStabilizeAtStartup,1,1
;   temperatureHeatedBed,0,1
;   fanLayers,1,2
;   fanSpeeds,0,100
;   blipFanToFullPower,1
;   adjustSpeedForCooling,1
;   minSpeedLayerTime,15
;   minCoolingSpeedSlowdown,20
;   increaseFanForCooling,0
;   minFanLayerTime,45
;   maxCoolingFanSpeed,100
;   increaseFanForBridging,1
;   bridgingFanSpeed,100
;   use5D,1
;   relativeEdistances,0
;   allowEaxisZeroing,1
;   independentExtruderAxes,0
;   includeM10123,0
;   stickySupport,1
;   applyToolheadOffsets,0
;   gcodeXoffset,24
;   gcodeYoffset,22
;   gcodeZoffset,0
;   overrideMachineDefinition,1
;   machineTypeOverride,0
;   strokeXoverride,310
;   strokeYoverride,310
;   strokeZoverride,334
;   originOffsetXoverride,0
;   originOffsetYoverride,0
;   originOffsetZoverride,0
;   homeXdirOverride,-1
;   homeYdirOverride,-1
;   homeZdirOverride,-1
;   flipXoverride,1
;   flipYoverride,-1
;   flipZoverride,1
;   toolheadOffsets,0,0|0,0|0,0|0,0|0,0|0,0
;   overrideFirmwareConfiguration,1
;   firmwareTypeOverride,RepRap (Marlin/Repetier/Sprinter)
;   GPXconfigOverride,r2
;   baudRateOverride,115200
;   overridePrinterModels,1
;   printerModelsOverride,Blvfull.stl
;   startingGcode,M291 P"Homing all axis" R"Printing.." S1 T2,G21		; metric values,G28		; home all,M98 P"/macros/load_meshbed"	; load mesh bed corresponding to the temp,M98 P"/macros/set_baby_step"	; set baby step,M98 P"/macros/purge_and_prime"; purge and do the prime line,,G92 E0 F100		; reset extruder,G1 Z10 F3000 		; move z up little to prevent scratching of surface,G92 E0 		; reset extruder,M291 P"Printing started !" R"Printing.." S1 T3
;   layerChangeGcode,
;   retractionGcode,
;   toolChangeGcode,
;   endingGcode,M104 S0 ; turn off extruder,M140 S0 ; turn off bed,M98 P"/macros/remove_baby_step"	; unset baby step,M98 P"/macros/rise30mm",G1 X0 Y300 F1000 ; prepare for part removal,M84 ; disable motors,M106 S0 ;turn off part cooling fan,;M81 ; shutdown,; play song,M300 S294 P200 ;D4: 294,M300 S588 P200 ;D5: 588,M300 S440 P200 ;A4: 440,M300 S392 P200 ;G4: 392,M300 S784 P200 ;G5: 784,M300 S440 P200 ;A4: 440,M300 S740 P200 ;F#5: 740,M300 S440 P200 ;A4: 440,M291 P"Printing finished !" R"Printing.." S1 T0,
;   exportFileFormat,gcode
;   celebration,0
;   celebrationSong,Star Wars
;   postProcessing,
;   defaultSpeed,6000
;   outlineUnderspeed,0.66
;   solidInfillUnderspeed,0.8
;   supportUnderspeed,0.8
;   rapidXYspeed,7200
;   rapidZspeed,1002
;   minBridgingArea,50
;   bridgingExtraInflation,0
;   bridgingExtrusionMultiplier,1
;   bridgingSpeedMultiplier,1
;   useFixedBridgingAngle,0
;   fixedBridgingAngle,0
;   applyBridgingToPerimeters,1
;   filamentDiameters,1.75|1.75|1.75|1.75|1.75|1.75
;   filamentPricesPerKg,30|110|110|110|110|110
;   filamentDensities,1.25|1.25|1.25|1.25|1.25|1.25
;   useMinPrintHeight,0
;   minPrintHeight,0
;   useMaxPrintHeight,0
;   maxPrintHeight,0
;   useDiaphragm,0
;   diaphragmLayerInterval,20
;   robustSlicing,1
;   mergeAllIntoSolid,0
;   onlyRetractWhenCrossingOutline,0
;   retractBetweenLayers,1
;   useRetractionMinTravel,1
;   retractionMinTravel,3
;   retractWhileWiping,1
;   onlyWipeOutlines,1
;   avoidCrossingOutline,1
;   maxMovementDetourFactor,3
;   toolChangeRetractionDistance,12
;   toolChangeExtraRestartDistance,-0.5
;   toolChangeRetractionSpeed,600
;   externalThinWallType,1
;   internalThinWallType,2
;   thinWallAllowedOverlapPercentage,15
;   singleExtrusionMinLength,1
;   singleExtrusionMinPrintingWidthPercentage,50
;   singleExtrusionMaxPrintingWidthPercentage,200
;   singleExtrusionEndpointExtension,0.2
;   horizontalSizeCompensation,0
G90
M82
M106 S0
M140 S60
M190 S60
M104 S215 T0
M109 S215 T0
M291 P"Homing all axis" R"Printing.." S1 T2
G21		; metric values
G28		; home all
M98 P"/macros/load_meshbed"	; load mesh bed corresponding to the temp
M98 P"/macros/set_baby_step"	; set baby step
M98 P"/macros/purge_and_prime"; purge and do the prime line
G92 E0 F100		; reset extruder
G1 Z10 F3000 		; move z up little to prevent scratching of surface
G92 E0 		; reset extruder
M291 P"Printing started !" R"Printing.." S1 T3
; process Process1
; layer 1, Z = 0.300
T0
G92 E0.0000
G1 E-1.5000 F5100
; feature skirt
; tool H0.300 W0.480
G1 Z0.300 F1002
G1 X152.616 Y193.969 F7200
G1 E0.0000 F5100
G92 E0.0000
G1 X148.680 Y190.032 E0.3333 F2400
G1 X148.680 Y165.265 E1.8160
G1 X152.616 Y161.329 E2.1493
G1 X163.934 Y161.329 E2.8269
G1 X167.200 Y164.594 E3.1034
G1 X170.466 Y161.329 E3.3799
G1 X181.784 Y161.329 E4.0575
G1 X185.720 Y165.265 E4.3908
G1 X185.720 Y190.032 E5.8735
G1 X181.784 Y193.969 E6.2068
G1 X152.616 Y193.969 E7.9530
G1 X152.815 Y193.489 F7200
G92 E0.0000
G1 X149.160 Y189.833 E0.3095 F2400
G1 X149.160 Y165.464 E1.7684
G1 X152.815 Y161.809 E2.0779
G1 X163.736 Y161.809 E2.7317
G1 X167.200 Y165.273 E3.0250
G1 X170.664 Y161.809 E3.3183
G1 X181.585 Y161.809 E3.9721
G1 X185.240 Y165.464 E4.2816
G1 X185.240 Y189.833 E5.7405
G1 X181.585 Y193.489 E6.0500
G1 X152.815 Y193.489 E7.7724
G92 E0.0000
G1 E-1.5000 F5100
G1 X199.627 Y193.969 F7200
G1 E0.0000 F5100
G92 E0.0000
G1 X195.690 Y190.032 E0.3333 F2400
G1 X195.690 Y165.265 E1.8160
G1 X199.627 Y161.329 E2.1493
G1 X210.945 Y161.329 E2.8269
G1 X214.210 Y164.594 E3.1034
G1 X217.476 Y161.329 E3.3799
G1 X228.794 Y161.329 E4.0575
G1 X232.730 Y165.265 E4.3908
G1 X232.730 Y190.032 E5.8735
G1 X228.794 Y193.969 E6.2068
G1 X199.627 Y193.969 E7.9530
G1 X199.826 Y193.489 F7200
G92 E0.0000
G1 X196.170 Y189.833 E0.3095 F2400
G1 X196.170 Y165.464 E1.7684
G1 X199.826 Y161.809 E2.0779
G1 X210.746 Y161.809 E2.7317
G1 X214.210 Y165.273 E3.0250
G1 X217.675 Y161.809 E3.3183
G1 X228.595 Y161.809 E3.9721
G1 X232.250 Y165.464 E4.2816
G1 X232.250 Y189.833 E5.7405
G1 X228.595 Y193.489 E6.0500
G1 X199.826 Y193.489 E7.7724
G92 E0.0000
G1 E-1.5000 F5100
; feature outer perimeter
G1 X155.640 Y187.009 F7200
G1 E0.0000 F5100
G92 E0.0000
G1 X155.640 Y168.289 E1.1207 F1584
G1 X160.911 Y168.289 E1.4363
G1 X160.911 Y179.809 E2.1260
G1 X156.760 Y179.809 E2.3745
G1 X156.760 Y185.489 E2.7145
G1 X177.640 Y185.489 E3.9646
G1 X177.640 Y179.809 E4.3046
G1 X173.489 Y179.809 E4.5531
G1 X173.489 Y168.289 E5.2428
G1 X178.760 Y168.289 E5.5584
G1 X178.760 Y187.009 E6.6791
G1 X155.840 Y187.009 E8.0513
G1 X155.640 Y187.009 F1584
G1 X155.640 Y183.009 F1584
; feature inner perimeter
G1 X156.120 Y185.969 F7200
G92 E0.0000
G1 X178.280 Y185.969 E1.3267 F1992
G1 X178.280 Y186.529 E1.3602
G1 X156.120 Y186.529 E2.6869
G1 X156.120 Y186.169 E2.7084
G1 X156.120 Y185.969 F1992
G92 E0.0000
G1 E-1.5000 F5100
G1 X156.120 Y179.329 F7200
G1 E0.0000 F5100
G92 E0.0000
G1 X156.120 Y168.769 E0.6322 F1992
G1 X160.431 Y168.769 E0.8903
G1 X160.431 Y179.329 E1.5225
G1 X156.320 Y179.329 E1.7686
G1 X156.120 Y179.329 F1992
G92 E0.0000
G1 E-1.5000 F5100
G1 X173.969 Y179.329 F7200
G1 E0.0000 F5100
G92 E0.0000
G1 X173.969 Y168.769 E0.6322 F1992
G1 X178.280 Y168.769 E0.8903
G1 X178.280 Y179.329 E1.5225
G1 X174.169 Y179.329 E1.7686
G1 X173.969 Y179.329 F1992
G1 X174.449 Y178.849 F7200
G92 E0.0000
G1 X174.449 Y169.249 E0.5747 F1992
G1 X177.800 Y169.249 E0.7754
G1 X177.800 Y178.849 E1.3501
G1 X174.649 Y178.849 E1.5387
G1 X174.449 Y178.849 F1992
G92 E0.0000
G1 E-1.5000 F5100
G1 X159.951 Y178.849 F7200
G1 E0.0000 F5100
G92 E0.0000
G1 X156.600 Y178.849 E0.2006 F1992
G1 X156.600 Y169.249 E0.7753
G1 X159.951 Y169.249 E0.9760
G1 X159.951 Y178.649 E1.5387
G1 X159.951 Y178.849 F1992
G92 E0.0000
G1 E-1.5000 F5100
; feature gap fill
G1 X156.142 Y179.742 F7200
G1 E0.0000 F5100
G92 E0.0000
G1 X156.352 Y179.952 E0.0178 F2400
G1 X156.352 Y180.631 E0.0585
G1 X156.048 Y180.327 E0.0842
G1 X156.048 Y181.006 E0.1248
G1 X156.352 Y181.310 E0.1506
G1 X156.352 Y181.989 E0.1912
G1 X156.048 Y181.685 E0.2170
G1 X156.048 Y182.363 E0.2576
G1 X156.352 Y182.667 E0.2833
G1 X156.352 Y183.346 E0.3240
G1 X156.048 Y183.042 E0.3497
G1 X156.048 Y183.721 E0.3904
G1 X156.352 Y184.025 E0.4161
G1 X156.352 Y184.704 E0.4567
G1 X156.048 Y184.400 E0.4825
G1 X156.048 Y185.079 E0.5231
G1 X156.211 Y185.241 E0.5369
G1 X156.352 Y185.383 F2400
G92 E0.0000
G1 E-1.5000 F5100
G1 X156.760 Y185.386 F7200
G1 X156.760 Y185.489
G1 X169.759 Y185.489
G1 X178.248 Y185.556
G1 E0.0000 F5100
G92 E0.0000
G1 X178.048 Y185.356 E0.0169 F2400
G1 X178.048 Y184.677 E0.0575
G1 X178.352 Y184.982 E0.0833
G1 X178.352 Y184.303 E0.1239
G1 X178.048 Y183.999 E0.1497
G1 X178.048 Y183.320 E0.1903
G1 X178.352 Y183.624 E0.2160
G1 X178.352 Y182.945 E0.2567
G1 X178.048 Y182.641 E0.2824
G1 X178.048 Y181.962 E0.3231
G1 X178.352 Y182.266 E0.3488
G1 X178.352 Y181.587 E0.3894
G1 X178.048 Y181.283 E0.4152
G1 X178.048 Y180.605 E0.4558
G1 X178.352 Y180.909 E0.4816
G1 X178.352 Y180.230 E0.5222
G1 X178.189 Y180.067 E0.5360
G1 X178.048 Y179.926 F2400
G92 E0.0000
G1 E-1.5000 F5100
; feature solid layer
G1 X175.205 Y178.441 F7200
G1 E0.0000 F5100
G92 E0.0000
G1 X174.857 Y178.092 E0.0295 F1920
G1 X174.857 Y177.414 E0.0701
G1 X175.884 Y178.441 E0.1571
G1 X176.563 Y178.441 E0.1977
G1 X174.857 Y176.735 E0.3422
G1 X174.857 Y176.056 E0.3828
G1 X177.242 Y178.441 E0.5847
G1 X177.392 Y178.441 E0.5937
G1 X177.392 Y177.912 E0.6254
G1 X174.857 Y175.377 E0.8400
G1 X174.857 Y174.698 E0.8806
G1 X177.392 Y177.233 E1.0953
G1 X177.392 Y176.554 E1.1359
G1 X174.857 Y174.020 E1.3505
G1 X174.857 Y173.341 E1.3912
G1 X177.392 Y175.876 E1.6058
G1 X177.392 Y175.197 E1.6464
G1 X174.857 Y172.662 E1.8611
G1 X174.857 Y171.983 E1.9017
G1 X177.392 Y174.518 E2.1163
G1 X177.392 Y173.839 E2.1570
G1 X174.857 Y171.304 E2.3716
G1 X174.857 Y170.625 E2.4122
G1 X177.392 Y173.160 E2.6269
G1 X177.392 Y172.482 E2.6675
G1 X174.857 Y169.947 E2.8821
G1 X174.857 Y169.657 E2.8995
G1 X175.246 Y169.657 E2.9228
G1 X177.392 Y171.803 E3.1045
G1 X177.392 Y171.124 E3.1451
G1 X175.925 Y169.657 E3.2693
G1 X176.604 Y169.657 E3.3099
G1 X177.392 Y170.445 E3.3767
G1 X177.392 Y169.811 E3.4146
G1 X177.392 Y169.766 F1920
G1 X177.283 Y169.657
G92 E0.0000
G1 E-1.5000 F5100
G1 X158.954 Y169.657 F7200
G1 E0.0000 F5100
G92 E0.0000
G1 X159.543 Y170.245 E0.0498 F1920
G1 X159.543 Y170.924 E0.0905
G1 X158.276 Y169.657 E0.1978
G1 X157.597 Y169.657 E0.2384
G1 X159.543 Y171.603 E0.4032
G1 X159.543 Y172.282 E0.4438
G1 X157.008 Y169.747 E0.6585
G1 X157.008 Y170.426 E0.6991
G1 X159.543 Y172.961 E0.9137
G1 X159.543 Y173.639 E0.9544
G1 X157.008 Y171.105 E1.1690
G1 X157.008 Y171.783 E1.2096
G1 X159.543 Y174.318 E1.4242
G1 X159.543 Y174.997 E1.4649
G1 X157.008 Y172.462 E1.6795
G1 X157.008 Y173.141 E1.7201
G1 X159.543 Y175.676 E1.9348
G1 X159.543 Y176.355 E1.9754
G1 X157.008 Y173.820 E2.1900
G1 X157.008 Y174.499 E2.2307
G1 X159.543 Y177.034 E2.4453
G1 X159.543 Y177.712 E2.4859
G1 X157.008 Y175.177 E2.7006
G1 X157.008 Y175.856 E2.7412
G1 X159.543 Y178.391 E2.9558
G1 X159.543 Y178.441 E2.9588
G1 X158.914 Y178.441 E2.9965
G1 X157.008 Y176.535 E3.1578
G1 X157.008 Y177.214 E3.1985
G1 X158.235 Y178.441 E3.3023
G1 X157.556 Y178.441 E3.3430
G1 X157.149 Y178.034 E3.3774
G1 X157.008 Y177.893 F1920
G92 E0.0000
G1 E-1.5000 F5100
; feature outer perimeter
G1 X160.911 Y178.672 F7200
G1 X160.911 Y179.809
G1 X156.760 Y179.809
G1 X156.760 Y185.489
G1 X177.640 Y185.489
G1 X177.640 Y182.014
G1 X178.760 Y182.237
G1 X178.760 Y187.009
G1 X202.650 Y187.009
G1 E0.0000 F5100
G92 E0.0000
G1 X202.650 Y168.289 E1.1207 F1584
G1 X207.921 Y168.289 E1.4363
G1 X207.921 Y179.809 E2.1260
G1 X203.770 Y179.809 E2.3745
G1 X203.770 Y185.489 E2.7145
G1 X224.650 Y185.489 E3.9646
G1 X224.650 Y179.809 E4.3046
G1 X220.499 Y179.809 E4.5531
G1 X220.499 Y168.289 E5.2428
G1 X225.770 Y168.289 E5.5584
G1 X225.770 Y187.009 E6.6791
G1 X202.850 Y187.009 E8.0513
G1 X202.650 Y187.009 F1584
G1 X202.650 Y183.009 F1584
; feature inner perimeter
G1 X203.130 Y185.969 F7200
G92 E0.0000
G1 X225.290 Y185.969 E1.3267 F1992
G1 X225.290 Y186.529 E1.3602
G1 X203.130 Y186.529 E2.6869
G1 X203.130 Y186.169 E2.7084
G1 X203.130 Y185.969 F1992
G92 E0.0000
G1 E-1.5000 F5100
G1 X203.130 Y179.329 F7200
G1 E0.0000 F5100
G92 E0.0000
G1 X203.130 Y168.769 E0.6322 F1992
G1 X207.441 Y168.769 E0.8903
G1 X207.441 Y179.329 E1.5225
G1 X203.330 Y179.329 E1.7686
G1 X203.130 Y179.329 F1992
G92 E0.0000
G1 E-1.5000 F5100
G1 X220.979 Y179.329 F7200
G1 E0.0000 F5100
G92 E0.0000
G1 X220.979 Y168.769 E0.6322 F1992
G1 X225.290 Y168.769 E0.8903
G1 X225.290 Y179.329 E1.5225
G1 X221.179 Y179.329 E1.7686
G1 X220.979 Y179.329 F1992
G1 X221.459 Y178.849 F7200
G92 E0.0000
G1 X221.459 Y169.249 E0.5747 F1992
G1 X224.810 Y169.249 E0.7753
G1 X224.810 Y178.849 E1.3501
G1 X221.659 Y178.849 E1.5387
G1 X221.459 Y178.849 F1992
G92 E0.0000
G1 E-1.5000 F5100
G1 X206.961 Y178.849 F7200
G1 E0.0000 F5100
G92 E0.0000
G1 X203.610 Y178.849 E0.2006 F1992
G1 X203.610 Y169.249 E0.7754
G1 X206.961 Y169.249 E0.9760
G1 X206.961 Y178.649 E1.5387
G1 X206.961 Y178.849 F1992
G92 E0.0000
G1 E-1.5000 F5100
; feature gap fill
G1 X203.058 Y179.820 F7200
