; G-Code generated by Simplify3D(R) Version 4.1.2
; Feb 28, 2021 at 9:00:30 PM
; Settings Summary
;   processName,Process1
;   applyToModels,graisseur rail lineaire
;   profileName,BLV mgn Cube-  Simplify3D Profile (modified)
;   profileVersion,2019-01-29 15:16:26
;   baseProfile,Anet A8
;   printMaterial,PLA
;   printQuality,Medium
;   printExtruders,
;   extruderName,Primary Extruder
;   extruderToolheadNumber,0
;   extruderDiameter,0.4
;   extruderAutoWidth,1
;   extruderWidth,0.48
;   extrusionMultiplier,1
;   extruderUseRetract,1
;   extruderRetractionDistance,5.5
;   extruderExtraRestartDistance,-0.1
;   extruderRetractionZLift,0
;   extruderRetractionSpeed,5100
;   extruderUseCoasting,1
;   extruderCoastingDistance,0.2
;   extruderUseWipe,1
;   extruderWipeDistance,4
;   primaryExtruder,0
;   layerHeight,0.2
;   topSolidLayers,3
;   bottomSolidLayers,3
;   perimeterOutlines,3
;   printPerimetersInsideOut,0
;   startPointOption,3
;   startPointOriginX,0
;   startPointOriginY,500
;   sequentialIslands,0
;   spiralVaseMode,0
;   firstLayerHeightPercentage,150
;   firstLayerWidthPercentage,100
;   firstLayerUnderspeed,0.5
;   useRaft,0
;   raftExtruder,0
;   raftTopLayers,3
;   raftBaseLayers,2
;   raftOffset,3
;   raftSeparationDistance,0.14
;   raftTopInfill,100
;   aboveRaftSpeedMultiplier,0.3
;   useSkirt,1
;   skirtExtruder,0
;   skirtLayers,1
;   skirtOutlines,2
;   skirtOffset,6
;   usePrimePillar,0
;   primePillarExtruder,999
;   primePillarWidth,12
;   primePillarLocation,7
;   primePillarSpeedMultiplier,1
;   useOozeShield,0
;   oozeShieldExtruder,999
;   oozeShieldOffset,2
;   oozeShieldOutlines,1
;   oozeShieldSidewallShape,1
;   oozeShieldSidewallAngle,30
;   oozeShieldSpeedMultiplier,1
;   infillExtruder,0
;   internalInfillPattern,Rectilinear
;   externalInfillPattern,Rectilinear
;   infillPercentage,15
;   outlineOverlapPercentage,15
;   infillExtrusionWidthPercentage,100
;   minInfillLength,5
;   infillLayerInterval,1
;   internalInfillAngles,45,-45
;   overlapInternalInfillAngles,0
;   externalInfillAngles,45,-45
;   generateSupport,1
;   supportExtruder,0
;   supportInfillPercentage,30
;   supportExtraInflation,0
;   supportBaseLayers,0
;   denseSupportExtruder,0
;   denseSupportLayers,0
;   denseSupportInfillPercentage,70
;   supportLayerInterval,1
;   supportHorizontalPartOffset,0.4
;   supportUpperSeparationLayers,1
;   supportLowerSeparationLayers,1
;   supportType,0
;   supportGridSpacing,4.5
;   maxOverhangAngle,45
;   supportAngles,0
;   temperatureName,Primary Extruder,Heated Bed
;   temperatureNumber,0,0
;   temperatureSetpointCount,2,1
;   temperatureSetpointLayers,1,2,1
;   temperatureSetpointTemperatures,215,210,70
;   temperatureStabilizeAtStartup,1,1
;   temperatureHeatedBed,0,1
;   fanLayers,1,2
;   fanSpeeds,0,100
;   blipFanToFullPower,1
;   adjustSpeedForCooling,1
;   minSpeedLayerTime,15
;   minCoolingSpeedSlowdown,20
;   increaseFanForCooling,0
;   minFanLayerTime,45
;   maxCoolingFanSpeed,100
;   increaseFanForBridging,1
;   bridgingFanSpeed,100
;   use5D,1
;   relativeEdistances,0
;   allowEaxisZeroing,1
;   independentExtruderAxes,0
;   includeM10123,0
;   stickySupport,1
;   applyToolheadOffsets,0
;   gcodeXoffset,24
;   gcodeYoffset,22
;   gcodeZoffset,0
;   overrideMachineDefinition,1
;   machineTypeOverride,0
;   strokeXoverride,310
;   strokeYoverride,310
;   strokeZoverride,334
;   originOffsetXoverride,0
;   originOffsetYoverride,0
;   originOffsetZoverride,0
;   homeXdirOverride,-1
;   homeYdirOverride,-1
;   homeZdirOverride,-1
;   flipXoverride,1
;   flipYoverride,-1
;   flipZoverride,1
;   toolheadOffsets,0,0|0,0|0,0|0,0|0,0|0,0
;   overrideFirmwareConfiguration,1
;   firmwareTypeOverride,RepRap (Marlin/Repetier/Sprinter)
;   GPXconfigOverride,r2
;   baudRateOverride,115200
;   overridePrinterModels,1
;   printerModelsOverride,Blvfull.stl
;   startingGcode,M291 P"Homing all axis" R"Printing.." S1 T2,G21		; metric values,G28		; home all,M98 P"/macros/load_meshbed"	; load mesh bed corresponding to the temp,M98 P"/macros/set_baby_step"	; set baby step,M98 P"/macros/purge_and_prime"; purge and do the prime line,,G92 E0 F100		; reset extruder,G1 Z10 F3000 		; move z up little to prevent scratching of surface,G92 E0 		; reset extruder,M291 P"Printing started !" R"Printing.." S1 T3
;   layerChangeGcode,
;   retractionGcode,
;   toolChangeGcode,
;   endingGcode,M104 S0 ; turn off extruder,M140 S0 ; turn off bed,M98 P"/macros/remove_baby_step"	; unset baby step,M98 P"/macros/rise30mm",G1 X0 Y300 F1000 ; prepare for part removal,M84 ; disable motors,M106 S0 ;turn off part cooling fan,;M81 ; shutdown,; play song,M300 S294 P200 ;D4: 294,M300 S588 P200 ;D5: 588,M300 S440 P200 ;A4: 440,M300 S392 P200 ;G4: 392,M300 S784 P200 ;G5: 784,M300 S440 P200 ;A4: 440,M300 S740 P200 ;F#5: 740,M300 S440 P200 ;A4: 440,M291 P"Printing finished !" R"Printing.." S1 T0,
;   exportFileFormat,gcode
;   celebration,0
;   celebrationSong,Star Wars
;   postProcessing,
;   defaultSpeed,2400
;   outlineUnderspeed,0.66
;   solidInfillUnderspeed,0.8
;   supportUnderspeed,0.8
;   rapidXYspeed,7200
;   rapidZspeed,1002
;   minBridgingArea,50
;   bridgingExtraInflation,0
;   bridgingExtrusionMultiplier,1
;   bridgingSpeedMultiplier,1
;   useFixedBridgingAngle,0
;   fixedBridgingAngle,0
;   applyBridgingToPerimeters,1
;   filamentDiameters,1.75|1.75|1.75|1.75|1.75|1.75
;   filamentPricesPerKg,110|110|110|110|110|110
;   filamentDensities,1.25|1.25|1.25|1.25|1.25|1.25
;   useMinPrintHeight,0
;   minPrintHeight,0
;   useMaxPrintHeight,0
;   maxPrintHeight,0
;   useDiaphragm,0
;   diaphragmLayerInterval,20
;   robustSlicing,1
;   mergeAllIntoSolid,0
;   onlyRetractWhenCrossingOutline,0
;   retractBetweenLayers,1
;   useRetractionMinTravel,1
;   retractionMinTravel,3
;   retractWhileWiping,1
;   onlyWipeOutlines,1
;   avoidCrossingOutline,1
;   maxMovementDetourFactor,3
;   toolChangeRetractionDistance,12
;   toolChangeExtraRestartDistance,-0.5
;   toolChangeRetractionSpeed,600
;   externalThinWallType,0
;   internalThinWallType,2
;   thinWallAllowedOverlapPercentage,15
;   singleExtrusionMinLength,1
;   singleExtrusionMinPrintingWidthPercentage,50
;   singleExtrusionMaxPrintingWidthPercentage,200
;   singleExtrusionEndpointExtension,0.2
;   horizontalSizeCompensation,0
G90
M82
M106 S0
M140 S70
M190 S70
M104 S215 T0
M109 S215 T0
M291 P"Homing all axis" R"Printing.." S1 T2
G21		; metric values
G28		; home all
M98 P"/macros/load_meshbed"	; load mesh bed corresponding to the temp
M98 P"/macros/set_baby_step"	; set baby step
M98 P"/macros/purge_and_prime"; purge and do the prime line
G92 E0 F100		; reset extruder
G1 Z10 F3000 		; move z up little to prevent scratching of surface
G92 E0 		; reset extruder
M291 P"Printing started !" R"Printing.." S1 T3
; process Process1
; layer 1, Z = 0.300
T0
G92 E0.0000
G1 E-5.5000 F5100
; feature skirt
; tool H0.300 W0.480
G1 Z0.300 F1002
G1 X106.216 Y200.120 F7200
G1 E-0.1000 F5100
G92 E0.0000
G1 X102.280 Y196.184 E0.3333 F1200
G1 X102.280 Y174.216 E1.6484
G1 X106.216 Y170.280 E1.9817
G1 X251.784 Y170.280 E10.6965
G1 X255.720 Y174.216 E11.0298
G1 X255.720 Y196.184 E12.3450
G1 X251.784 Y200.120 E12.6782
G1 X151.774 Y200.120 E18.6657
G1 X148.254 Y203.640 E18.9637
G1 X119.747 Y203.640 E20.6704
G1 X116.227 Y200.120 E20.9684
G1 X106.216 Y200.120 E21.5677
G1 X106.415 Y199.640 F7200
G92 E0.0000
G1 X102.760 Y195.985 E0.3095 F1200
G1 X102.760 Y174.415 E1.6008
G1 X106.415 Y170.760 E1.9103
G1 X251.585 Y170.760 E10.6013
G1 X255.240 Y174.415 E10.9108
G1 X255.240 Y195.985 E12.2021
G1 X251.585 Y199.640 E12.5116
G1 X151.575 Y199.640 E18.4990
G1 X148.055 Y203.160 E18.7971
G1 X119.945 Y203.160 E20.4799
G1 X116.425 Y199.640 E20.7779
G1 X106.415 Y199.640 E21.3772
G92 E0.0000
G1 E-5.5000 F5100
; feature outer perimeter
G1 X109.240 Y193.160 F7200
G1 E-0.1000 F5100
G92 E0.0000
G1 X109.240 Y177.240 E0.9531 F792
G1 X248.760 Y177.240 E9.3059
G1 X248.760 Y193.160 E10.2590
G1 X109.440 Y193.160 E18.5999
G1 X109.240 Y193.160 F792
G92 E0.0000
G1 X109.240 Y192.306 E-5.5000 F792
G1 X109.240 Y189.160 F792
; feature inner perimeter
G1 X109.720 Y192.680 F7200
G1 E-0.1000 F5100
G92 E0.0000
G1 X109.720 Y177.720 E0.8956 F996
G1 X248.280 Y177.720 E9.1910
G1 X248.280 Y192.680 E10.0866
G1 X109.920 Y192.680 E18.3700
G1 X109.720 Y192.680 F996
G1 X110.200 Y192.200 F7200
G92 E0.0000
G1 X110.200 Y178.200 E0.8382 F996
G1 X247.800 Y178.200 E9.0760
G1 X247.800 Y192.200 E9.9142
G1 X110.400 Y192.200 E18.1401
G1 X110.200 Y192.200 F996
; feature solid layer
G1 X111.137 Y191.792 F7200
G92 E0.0000
G1 X110.608 Y191.263 E0.0448 F960
G1 X110.608 Y190.584 E0.0854
G1 X111.816 Y191.792 E0.1877
G1 X112.494 Y191.792 E0.2283
G1 X110.608 Y189.906 E0.3880
G1 X110.608 Y189.227 E0.4287
G1 X113.173 Y191.792 E0.6459
G1 X113.852 Y191.792 E0.6865
G1 X110.608 Y188.548 E0.9612
G1 X110.608 Y187.869 E1.0018
G1 X114.531 Y191.792 E1.3339
G1 X115.210 Y191.792 E1.3746
G1 X110.608 Y187.190 E1.7642
G1 X110.608 Y186.511 E1.8048
G1 X115.889 Y191.792 E2.2519
G1 X116.567 Y191.792 E2.2926
G1 X110.608 Y185.833 E2.7971
G1 X110.608 Y185.154 E2.8378
G1 X117.246 Y191.792 E3.3998
G1 X117.925 Y191.792 E3.4404
G1 X110.608 Y184.475 E4.0599
G1 X110.608 Y183.796 E4.1006
G1 X118.604 Y191.792 E4.7776
G1 X119.283 Y191.792 E4.8182
G1 X110.608 Y183.117 E5.5527
G1 X110.608 Y182.438 E5.5933
G1 X119.962 Y191.792 E6.3852
G1 X120.640 Y191.792 E6.4259
G1 X110.608 Y181.760 E7.2753
G1 X110.608 Y181.081 E7.3159
G1 X121.319 Y191.792 E8.2228
G1 X121.998 Y191.792 E8.2634
G1 X110.608 Y180.402 E9.2278
G1 X110.608 Y179.723 E9.2684
G1 X122.677 Y191.792 E10.2902
G1 X123.356 Y191.792 E10.3309
G1 X110.608 Y179.044 E11.4102
G1 X110.608 Y178.608 E11.4363
G1 X110.850 Y178.608 E11.4508
G1 X124.034 Y191.792 E12.5671
G1 X124.713 Y191.792 E12.6077
G1 X111.529 Y178.608 E13.7239
G1 X112.208 Y178.608 E13.7646
G1 X125.392 Y191.792 E14.8808
G1 X126.071 Y191.792 E14.9215
G1 X112.887 Y178.608 E16.0377
G1 X113.566 Y178.608 E16.0783
G1 X126.750 Y191.792 E17.1946
G1 X127.429 Y191.792 E17.2352
G1 X114.245 Y178.608 E18.3515
G1 X114.923 Y178.608 E18.3921
G1 X128.107 Y191.792 E19.5084
G1 X128.786 Y191.792 E19.5490
G1 X115.602 Y178.608 E20.6652
G1 X116.281 Y178.608 E20.7059
G1 X129.465 Y191.792 E21.8221
G1 X130.144 Y191.792 E21.8628
G1 X116.960 Y178.608 E22.9790
G1 X117.639 Y178.608 E23.0196
G1 X130.823 Y191.792 E24.1359
G1 X131.501 Y191.792 E24.1765
G1 X118.318 Y178.608 E25.2928
G1 X118.996 Y178.608 E25.3334
G1 X132.180 Y191.792 E26.4496
G1 X132.859 Y191.792 E26.4903
G1 X119.675 Y178.608 E27.6065
G1 X120.354 Y178.608 E27.6472
G1 X133.538 Y191.792 E28.7634
G1 X134.217 Y191.792 E28.8041
G1 X121.033 Y178.608 E29.9203
G1 X121.712 Y178.608 E29.9609
G1 X134.896 Y191.792 E31.0772
G1 X135.574 Y191.792 E31.1178
G1 X122.390 Y178.608 E32.2341
G1 X123.069 Y178.608 E32.2747
G1 X136.253 Y191.792 E33.3909
G1 X136.932 Y191.792 E33.4316
G1 X123.748 Y178.608 E34.5478
G1 X124.427 Y178.608 E34.5885
G1 X137.611 Y191.792 E35.7047
G1 X138.290 Y191.792 E35.7453
G1 X125.106 Y178.608 E36.8616
G1 X125.785 Y178.608 E36.9022
G1 X138.969 Y191.792 E38.0185
G1 X139.647 Y191.792 E38.0591
G1 X126.463 Y178.608 E39.1754
G1 X127.142 Y178.608 E39.2160
G1 X140.326 Y191.792 E40.3322
G1 X141.005 Y191.792 E40.3729
G1 X127.821 Y178.608 E41.4891
G1 X128.500 Y178.608 E41.5298
G1 X141.684 Y191.792 E42.6460
G1 X142.363 Y191.792 E42.6866
G1 X129.179 Y178.608 E43.8029
G1 X129.857 Y178.608 E43.8435
G1 X143.041 Y191.792 E44.9598
G1 X143.720 Y191.792 E45.0004
G1 X130.536 Y178.608 E46.1166
G1 X131.215 Y178.608 E46.1573
G1 X144.399 Y191.792 E47.2735
G1 X145.078 Y191.792 E47.3142
G1 X131.894 Y178.608 E48.4304
G1 X132.573 Y178.608 E48.4710
G1 X145.757 Y191.792 E49.5873
G1 X146.436 Y191.792 E49.6279
G1 X133.252 Y178.608 E50.7442
G1 X133.930 Y178.608 E50.7848
G1 X147.114 Y191.792 E51.9011
G1 X147.793 Y191.792 E51.9417
G1 X134.609 Y178.608 E53.0579
G1 X135.288 Y178.608 E53.0986
G1 X148.472 Y191.792 E54.2148
G1 X149.151 Y191.792 E54.2555
G1 X135.967 Y178.608 E55.3717
G1 X136.646 Y178.608 E55.4123
G1 X149.830 Y191.792 E56.5286
G1 X150.509 Y191.792 E56.5692
G1 X137.325 Y178.608 E57.6855
G1 X138.003 Y178.608 E57.7261
G1 X151.187 Y191.792 E58.8423
G1 X151.866 Y191.792 E58.8830
G1 X138.682 Y178.608 E59.9992
G1 X139.361 Y178.608 E60.0399
G1 X152.545 Y191.792 E61.1561
G1 X153.224 Y191.792 E61.1967
G1 X140.040 Y178.608 E62.3130
G1 X140.719 Y178.608 E62.3536
G1 X153.903 Y191.792 E63.4699
G1 X154.581 Y191.792 E63.5105
G1 X141.397 Y178.608 E64.6268
G1 X142.076 Y178.608 E64.6674
G1 X155.260 Y191.792 E65.7836
G1 X155.939 Y191.792 E65.8243
G1 X142.755 Y178.608 E66.9405
G1 X143.434 Y178.608 E66.9812
G1 X156.618 Y191.792 E68.0974
G1 X157.297 Y191.792 E68.1380
G1 X144.113 Y178.608 E69.2543
G1 X144.792 Y178.608 E69.2949
G1 X157.976 Y191.792 E70.4112
G1 X158.654 Y191.792 E70.4518
G1 X145.470 Y178.608 E71.5680
G1 X146.149 Y178.608 E71.6087
G1 X159.333 Y191.792 E72.7249
G1 X160.012 Y191.792 E72.7656
G1 X146.828 Y178.608 E73.8818
G1 X147.507 Y178.608 E73.9224
G1 X160.691 Y191.792 E75.0387
G1 X161.370 Y191.792 E75.0793
G1 X148.186 Y178.608 E76.1956
G1 X148.865 Y178.608 E76.2362
G1 X162.049 Y191.792 E77.3525
G1 X162.727 Y191.792 E77.3931
G1 X149.543 Y178.608 E78.5093
G1 X150.222 Y178.608 E78.5500
G1 X163.406 Y191.792 E79.6662
G1 X164.085 Y191.792 E79.7069
G1 X150.901 Y178.608 E80.8231
G1 X151.580 Y178.608 E80.8637
G1 X164.764 Y191.792 E81.9800
G1 X165.443 Y191.792 E82.0206
G1 X152.259 Y178.608 E83.1369
G1 X152.937 Y178.608 E83.1775
G1 X166.121 Y191.792 E84.2937
G1 X166.800 Y191.792 E84.3344
G1 X153.616 Y178.608 E85.4506
G1 X154.295 Y178.608 E85.4913
G1 X167.479 Y191.792 E86.6075
G1 X168.158 Y191.792 E86.6482
G1 X154.974 Y178.608 E87.7644
G1 X155.653 Y178.608 E87.8050
G1 X168.837 Y191.792 E88.9213
G1 X169.516 Y191.792 E88.9619
G1 X156.332 Y178.608 E90.0782
G1 X157.010 Y178.608 E90.1188
G1 X170.194 Y191.792 E91.2350
G1 X170.873 Y191.792 E91.2757
G1 X157.689 Y178.608 E92.3919
G1 X158.368 Y178.608 E92.4326
G1 X171.552 Y191.792 E93.5488
G1 X172.231 Y191.792 E93.5894
G1 X159.047 Y178.608 E94.7057
G1 X159.726 Y178.608 E94.7463
G1 X172.910 Y191.792 E95.8626
G1 X173.588 Y191.792 E95.9032
G1 X160.405 Y178.608 E97.0195
G1 X161.083 Y178.608 E97.0601
G1 X174.267 Y191.792 E98.1763
G1 X174.946 Y191.792 E98.2170
G1 X161.762 Y178.608 E99.3332
G1 X162.441 Y178.608 E99.3739
G1 X175.625 Y191.792 E100.4901
G1 X176.304 Y191.792 E100.5307
G1 X163.120 Y178.608 E101.6470
G1 X163.799 Y178.608 E101.6876
G1 X176.983 Y191.792 E102.8039
G1 X177.661 Y191.792 E102.8445
G1 X164.477 Y178.608 E103.9607
G1 X165.156 Y178.608 E104.0014
G1 X178.340 Y191.792 E105.1176
G1 X179.019 Y191.792 E105.1583
G1 X165.835 Y178.608 E106.2745
G1 X166.514 Y178.608 E106.3151
G1 X179.698 Y191.792 E107.4314
G1 X180.377 Y191.792 E107.4720
G1 X167.193 Y178.608 E108.5883
G1 X167.872 Y178.608 E108.6289
G1 X181.056 Y191.792 E109.7452
G1 X181.734 Y191.792 E109.7858
G1 X168.550 Y178.608 E110.9020
G1 X169.229 Y178.608 E110.9427
G1 X182.413 Y191.792 E112.0589
G1 X183.092 Y191.792 E112.0996
G1 X169.908 Y178.608 E113.2158
G1 X170.587 Y178.608 E113.2564
G1 X183.771 Y191.792 E114.3727
G1 X184.450 Y191.792 E114.4133
G1 X171.266 Y178.608 E115.5296
G1 X171.944 Y178.608 E115.5702
G1 X185.128 Y191.792 E116.6864
G1 X185.807 Y191.792 E116.7271
G1 X172.623 Y178.608 E117.8433
G1 X173.302 Y178.608 E117.8840
G1 X186.486 Y191.792 E119.0002
G1 X187.165 Y191.792 E119.0408
G1 X173.981 Y178.608 E120.1571
G1 X174.660 Y178.608 E120.1977
G1 X187.844 Y191.792 E121.3140
G1 X188.523 Y191.792 E121.3546
G1 X175.339 Y178.608 E122.4709
G1 X176.017 Y178.608 E122.5115
