; G-Code generated by Simplify3D(R) Version 4.1.2
; Mar 27, 2021 at 10:47:39 PM
; Settings Summary
;   processName,Process1
;   applyToModels,left part cooling fan support,right part cooling fan support
;   profileName,BLV mgn Cube-  Simplify3D Profile (modified)
;   profileVersion,2021-03-16 20:26:39
;   baseProfile,Anet A8
;   printMaterial,PLA
;   printQuality,Medium
;   printExtruders,
;   extruderName,Primary Extruder
;   extruderToolheadNumber,0
;   extruderDiameter,0.4
;   extruderAutoWidth,1
;   extruderWidth,0.48
;   extrusionMultiplier,1
;   extruderUseRetract,1
;   extruderRetractionDistance,1.5
;   extruderExtraRestartDistance,0
;   extruderRetractionZLift,0
;   extruderRetractionSpeed,5100
;   extruderUseCoasting,1
;   extruderCoastingDistance,0.2
;   extruderUseWipe,1
;   extruderWipeDistance,4
;   primaryExtruder,0
;   layerHeight,0.2
;   topSolidLayers,3
;   bottomSolidLayers,3
;   perimeterOutlines,3
;   printPerimetersInsideOut,0
;   startPointOption,3
;   startPointOriginX,0
;   startPointOriginY,500
;   sequentialIslands,0
;   spiralVaseMode,0
;   firstLayerHeightPercentage,150
;   firstLayerWidthPercentage,100
;   firstLayerUnderspeed,0.4
;   useRaft,0
;   raftExtruder,0
;   raftTopLayers,3
;   raftBaseLayers,2
;   raftOffset,3
;   raftSeparationDistance,0.14
;   raftTopInfill,100
;   aboveRaftSpeedMultiplier,0.3
;   useSkirt,1
;   skirtExtruder,0
;   skirtLayers,1
;   skirtOutlines,2
;   skirtOffset,6
;   usePrimePillar,0
;   primePillarExtruder,999
;   primePillarWidth,12
;   primePillarLocation,7
;   primePillarSpeedMultiplier,1
;   useOozeShield,0
;   oozeShieldExtruder,999
;   oozeShieldOffset,2
;   oozeShieldOutlines,1
;   oozeShieldSidewallShape,1
;   oozeShieldSidewallAngle,30
;   oozeShieldSpeedMultiplier,1
;   infillExtruder,0
;   internalInfillPattern,Rectilinear
;   externalInfillPattern,Rectilinear
;   infillPercentage,15
;   outlineOverlapPercentage,15
;   infillExtrusionWidthPercentage,100
;   minInfillLength,5
;   infillLayerInterval,1
;   internalInfillAngles,45,-45
;   overlapInternalInfillAngles,0
;   externalInfillAngles,45,-45
;   generateSupport,1
;   supportExtruder,0
;   supportInfillPercentage,30
;   supportExtraInflation,0
;   supportBaseLayers,0
;   denseSupportExtruder,0
;   denseSupportLayers,0
;   denseSupportInfillPercentage,70
;   supportLayerInterval,1
;   supportHorizontalPartOffset,0.4
;   supportUpperSeparationLayers,1
;   supportLowerSeparationLayers,1
;   supportType,0
;   supportGridSpacing,1
;   maxOverhangAngle,45
;   supportAngles,45,-45
;   temperatureName,Primary Extruder,Heated Bed
;   temperatureNumber,0,0
;   temperatureSetpointCount,2,1
;   temperatureSetpointLayers,1,2,1
;   temperatureSetpointTemperatures,215,210,60
;   temperatureStabilizeAtStartup,1,1
;   temperatureHeatedBed,0,1
;   fanLayers,1,2
;   fanSpeeds,0,100
;   blipFanToFullPower,1
;   adjustSpeedForCooling,1
;   minSpeedLayerTime,15
;   minCoolingSpeedSlowdown,20
;   increaseFanForCooling,0
;   minFanLayerTime,45
;   maxCoolingFanSpeed,100
;   increaseFanForBridging,1
;   bridgingFanSpeed,100
;   use5D,1
;   relativeEdistances,0
;   allowEaxisZeroing,1
;   independentExtruderAxes,0
;   includeM10123,0
;   stickySupport,1
;   applyToolheadOffsets,0
;   gcodeXoffset,24
;   gcodeYoffset,22
;   gcodeZoffset,0
;   overrideMachineDefinition,1
;   machineTypeOverride,0
;   strokeXoverride,310
;   strokeYoverride,310
;   strokeZoverride,334
;   originOffsetXoverride,0
;   originOffsetYoverride,0
;   originOffsetZoverride,0
;   homeXdirOverride,-1
;   homeYdirOverride,-1
;   homeZdirOverride,-1
;   flipXoverride,1
;   flipYoverride,-1
;   flipZoverride,1
;   toolheadOffsets,0,0|0,0|0,0|0,0|0,0|0,0
;   overrideFirmwareConfiguration,1
;   firmwareTypeOverride,RepRap (Marlin/Repetier/Sprinter)
;   GPXconfigOverride,r2
;   baudRateOverride,115200
;   overridePrinterModels,1
;   printerModelsOverride,Blvfull.stl
;   startingGcode,M291 P"Homing all axis" R"Printing.." S1 T2,G21		; metric values,G28		; home all,M98 P"/macros/load_meshbed"	; load mesh bed corresponding to the temp,M98 P"/macros/set_baby_step"	; set baby step,M98 P"/macros/purge_and_prime"; purge and do the prime line,,G92 E0 F100		; reset extruder,G1 Z10 F3000 		; move z up little to prevent scratching of surface,G92 E0 		; reset extruder,M291 P"Printing started !" R"Printing.." S1 T3
;   layerChangeGcode,
;   retractionGcode,
;   toolChangeGcode,
;   endingGcode,M104 S0 ; turn off extruder,M140 S0 ; turn off bed,M98 P"/macros/remove_baby_step"	; unset baby step,M98 P"/macros/rise30mm",G1 X0 Y300 F1000 ; prepare for part removal,M84 ; disable motors,M106 S0 ;turn off part cooling fan,;M81 ; shutdown,; play song,M300 S294 P200 ;D4: 294,M300 S588 P200 ;D5: 588,M300 S440 P200 ;A4: 440,M300 S392 P200 ;G4: 392,M300 S784 P200 ;G5: 784,M300 S440 P200 ;A4: 440,M300 S740 P200 ;F#5: 740,M300 S440 P200 ;A4: 440,M291 P"Printing finished !" R"Printing.." S1 T0,
;   exportFileFormat,gcode
;   celebration,0
;   celebrationSong,Star Wars
;   postProcessing,
;   defaultSpeed,6000
;   outlineUnderspeed,0.66
;   solidInfillUnderspeed,0.8
;   supportUnderspeed,0.8
;   rapidXYspeed,7200
;   rapidZspeed,1002
;   minBridgingArea,50
;   bridgingExtraInflation,0
;   bridgingExtrusionMultiplier,1
;   bridgingSpeedMultiplier,1
;   useFixedBridgingAngle,0
;   fixedBridgingAngle,0
;   applyBridgingToPerimeters,1
;   filamentDiameters,1.75|1.75|1.75|1.75|1.75|1.75
;   filamentPricesPerKg,30|110|110|110|110|110
;   filamentDensities,1.25|1.25|1.25|1.25|1.25|1.25
;   useMinPrintHeight,0
;   minPrintHeight,0
;   useMaxPrintHeight,0
;   maxPrintHeight,0
;   useDiaphragm,0
;   diaphragmLayerInterval,20
;   robustSlicing,1
;   mergeAllIntoSolid,0
;   onlyRetractWhenCrossingOutline,0
;   retractBetweenLayers,1
;   useRetractionMinTravel,1
;   retractionMinTravel,3
;   retractWhileWiping,1
;   onlyWipeOutlines,1
;   avoidCrossingOutline,1
;   maxMovementDetourFactor,3
;   toolChangeRetractionDistance,12
;   toolChangeExtraRestartDistance,-0.5
;   toolChangeRetractionSpeed,600
;   externalThinWallType,1
;   internalThinWallType,2
;   thinWallAllowedOverlapPercentage,15
;   singleExtrusionMinLength,1
;   singleExtrusionMinPrintingWidthPercentage,50
;   singleExtrusionMaxPrintingWidthPercentage,200
;   singleExtrusionEndpointExtension,0.2
;   horizontalSizeCompensation,0
G90
M82
M106 S0
M140 S60
M190 S60
M104 S215 T0
M109 S215 T0
M291 P"Homing all axis" R"Printing.." S1 T2
G21		; metric values
G28		; home all
M98 P"/macros/load_meshbed"	; load mesh bed corresponding to the temp
M98 P"/macros/set_baby_step"	; set baby step
M98 P"/macros/purge_and_prime"; purge and do the prime line
G92 E0 F100		; reset extruder
G1 Z10 F3000 		; move z up little to prevent scratching of surface
G92 E0 		; reset extruder
M291 P"Printing started !" R"Printing.." S1 T3
; process Process1
; layer 1, Z = 0.300
T0
G92 E0.0000
G1 E-1.5000 F5100
; feature skirt
; tool H0.300 W0.480
G1 Z0.300 F1002
G1 X132.117 Y133.860 F7200
G1 E0.0000 F5100
G92 E0.0000
G1 X128.180 Y129.923 E0.3333 F2400
G1 X128.180 Y84.916 E3.0278
G1 X129.180 Y83.916 E3.1124
G1 X129.180 Y82.916 E3.1723
G1 X133.117 Y78.980 E3.5056
G1 X146.124 Y78.980 E4.2843
G1 X149.000 Y81.856 E4.5278
G1 X151.876 Y78.980 E4.7714
G1 X164.883 Y78.980 E5.5501
G1 X168.820 Y82.916 E5.8834
G1 X168.820 Y83.916 E5.9432
G1 X169.820 Y84.916 E6.0279
G1 X169.820 Y129.923 E8.7224
G1 X165.883 Y133.860 E9.0557
G1 X157.876 Y133.860 E9.5350
G1 X150.940 Y126.924 E10.1223
G1 X150.940 Y125.860 E10.1860
G1 X149.876 Y125.860 E10.2497
G1 X149.000 Y124.984 E10.3239
G1 X148.124 Y125.860 E10.3981
G1 X147.060 Y125.860 E10.4617
G1 X147.060 Y126.924 E10.5254
G1 X140.124 Y133.860 E11.1127
G1 X132.117 Y133.860 E11.5921
G1 X132.315 Y133.380 F7200
G92 E0.0000
G1 X128.660 Y129.725 E0.3095 F2400
G1 X128.660 Y85.115 E2.9802
G1 X129.660 Y84.115 E3.0648
G1 X129.660 Y83.115 E3.1247
G1 X133.315 Y79.460 E3.4342
G1 X145.925 Y79.460 E4.1891
G1 X149.000 Y82.535 E4.4494
G1 X152.075 Y79.460 E4.7098
G1 X164.685 Y79.460 E5.4647
G1 X168.340 Y83.115 E5.7742
G1 X168.340 Y84.115 E5.8341
G1 X169.340 Y85.115 E5.9187
G1 X169.340 Y129.725 E8.5894
G1 X165.685 Y133.380 E8.8989
G1 X158.075 Y133.380 E9.3545
G1 X151.420 Y126.725 E9.9179
G1 X151.420 Y125.401 E9.9972
G1 X151.394 Y125.380 E9.9992
G1 X150.075 Y125.380 E10.0781
G1 X149.000 Y124.305 E10.1692
G1 X147.925 Y125.380 E10.2602
G1 X146.606 Y125.380 E10.3392
G1 X146.580 Y125.401 E10.3412
G1 X146.580 Y126.725 E10.4204
G1 X139.925 Y133.380 E10.9839
G1 X132.315 Y133.380 E11.4394
G92 E0.0000
G1 E-1.5000 F5100
; feature outer perimeter
G1 X142.013 Y120.775 F7200
G1 E0.0000 F5100
G92 E0.0000
G1 X142.013 Y94.565 E1.5691 F1584
G1 X142.474 Y94.952 E1.6052
G1 X142.474 Y120.388 E3.1280
G1 X142.166 Y120.646 E3.1520
G1 X142.013 Y120.775 F1584
G92 E0.0000
G1 X142.013 Y120.309 E-1.5000 F1584
G1 X142.013 Y116.775 F1584
G1 X142.474 Y116.907 F7200
G1 X142.474 Y120.388
G1 X155.526 Y120.388
G1 X155.987 Y120.775
G1 E0.0000 F5100
G92 E0.0000
G1 X155.526 Y120.388 E0.0360 F1584
G1 X155.526 Y94.952 E1.5588
G1 X155.987 Y94.565 E1.5949
G1 X155.987 Y120.575 E3.1520
G1 X155.987 Y120.775 F1584
G1 X155.526 Y120.388 F1584
G1 X155.526 Y116.990
; feature support
G1 X152.910 Y117.118 F7200
G92 E0.0000
G1 X154.485 Y118.693 E0.1333 F1920
G1 X154.485 Y116.430 E0.2688
G1 X152.910 Y114.855 E0.4021
G1 X152.910 Y112.593 E0.5376
G1 X154.485 Y114.167 E0.6709
G1 X154.485 Y111.950 E0.8037
G1 X153.850 Y111.950 E0.8417
G1 X153.850 Y111.270 E0.8824
G1 X152.910 Y110.330 E0.9620
G1 X152.910 Y108.067 E1.0974
G1 X154.485 Y109.642 E1.2308
G1 X154.485 Y107.379 E1.3662
G1 X153.197 Y106.091 E1.4752
G1 X153.056 Y105.950 F1920
G1 X152.910 Y103.542 F7200
G92 E0.0000
G1 X154.258 Y104.890 E0.1142 F1920
G1 X154.485 Y104.890 E0.1277
G1 X154.485 Y102.854 E0.2496
G1 X152.910 Y101.279 E0.3830
G1 X152.910 Y99.016 E0.5184
G1 X154.485 Y100.591 E0.6517
G1 X154.485 Y98.328 E0.7872
G1 X154.248 Y98.091 E0.8073
G1 X154.106 Y97.950 F1920
G92 E0.0000
G1 E-1.5000 F5100
G1 X156.097 Y90.890 F7200
G1 E0.0000 F5100
G92 E0.0000
G1 X154.910 Y89.702 E0.1005 F1920
G1 X154.910 Y87.440 E0.2360
G1 X157.360 Y89.890 E0.4435
G1 X157.850 Y89.890 E0.4728
G1 X157.850 Y88.890 E0.5327
G1 X158.623 Y88.890 E0.5789
G1 X155.683 Y85.950 E0.8279
G1 X157.946 Y85.950 E0.9633
G1 X159.850 Y87.854 E1.1245
G1 X159.850 Y86.890 E1.1823
G1 X161.148 Y86.890 E1.2600
G1 X160.350 Y86.091 E1.3276
G1 X160.208 Y85.950 F1920
G92 E0.0000
G1 E-1.5000 F5100
G1 X157.910 Y122.118 F7200
G1 E0.0000 F5100
G92 E0.0000
G1 X162.682 Y126.890 E0.4040 F1920
G1 X162.850 Y126.890 E0.4141
G1 X162.850 Y124.795 E0.5395
G1 X157.910 Y119.855 E0.9577
G1 X157.910 Y117.593 E1.0932
G1 X162.850 Y122.533 E1.5115
G1 X162.850 Y120.270 E1.6469
G1 X157.910 Y115.330 E2.0652
G1 X157.910 Y113.067 E2.2006
G1 X162.850 Y118.007 E2.6189
G1 X162.850 Y115.744 E2.7544
G1 X157.910 Y110.804 E3.1726
G1 X157.910 Y108.542 E3.3081
G1 X162.850 Y113.482 E3.7263
G1 X162.850 Y111.219 E3.8618
G1 X157.910 Y106.279 E4.2801
G1 X157.910 Y104.016 E4.4155
G1 X162.850 Y108.956 E4.8338
G1 X162.850 Y106.693 E4.9692
G1 X157.910 Y101.753 E5.3875
G1 X157.910 Y99.491 E5.5230
G1 X162.850 Y104.431 E5.9412
G1 X162.850 Y102.168 E6.0767
G1 X157.910 Y97.228 E6.4949
G1 X157.910 Y94.965 E6.6304
G1 X162.850 Y99.905 E7.0486
G1 X162.850 Y97.642 E7.1841
G1 X157.910 Y92.702 E7.6024
G1 X157.910 Y91.950 E7.6474
G1 X158.910 Y91.950 E7.7073
G1 X158.910 Y91.440 E7.7378
G1 X162.850 Y95.380 E8.0714
G1 X162.850 Y93.117 E8.2069
G1 X159.910 Y90.177 E8.4558
G1 X159.910 Y89.950 E8.4694
G1 X160.910 Y89.950 E8.5293
G1 X160.910 Y88.950 E8.5891
G1 X160.946 Y88.950 E8.5913
G1 X162.850 Y90.854 E8.7525
G1 X162.850 Y88.591 E8.8880
G1 X162.350 Y88.091 E8.9303
G1 X162.208 Y87.950 F1920
G92 E0.0000
G1 E-1.5000 F5100
G1 X136.150 Y86.782 F7200
G1 E0.0000 F5100
G92 E0.0000
G1 X136.258 Y86.890 E0.0092 F1920
G1 X138.150 Y86.890 E0.1224
G1 X138.150 Y87.890 E0.1823
G1 X139.150 Y87.890 E0.2422
G1 X139.150 Y88.890 E0.3020
G1 X140.150 Y88.890 E0.3619
G1 X140.150 Y89.890 E0.4218
G1 X141.150 Y89.890 E0.4816
G1 X141.150 Y90.890 E0.5415
G1 X142.150 Y90.890 E0.6014
G1 X142.150 Y91.890 E0.6612
G1 X143.090 Y91.890 E0.7175
G1 X143.090 Y91.459 E0.7433
G1 X137.581 Y85.950 E1.2097
G1 X139.844 Y85.950 E1.3452
G1 X143.090 Y89.196 E1.6201
G1 X143.090 Y86.934 E1.7555
G1 X142.248 Y86.091 E1.8269
G1 X142.106 Y85.950 F1920
G92 E0.0000
G1 E-1.5000 F5100
G1 X135.150 Y126.511 F7200
G1 E0.0000 F5100
G92 E0.0000
G1 X135.529 Y126.890 E0.0321 F1920
G1 X137.090 Y126.890 E0.1255
G1 X137.090 Y126.189 E0.1675
G1 X135.150 Y124.249 E0.3318
G1 X135.150 Y121.986 E0.4673
G1 X138.090 Y124.926 E0.7162
G1 X138.090 Y124.890 E0.7183
G1 X139.090 Y124.890 E0.7782
G1 X139.090 Y123.890 E0.8380
G1 X139.317 Y123.890 E0.8516
G1 X135.150 Y119.723 E1.2044
G1 X135.150 Y117.460 E1.3399
G1 X140.090 Y122.400 E1.7582
G1 X140.090 Y120.138 E1.8936
G1 X135.150 Y115.198 E2.3119
G1 X135.150 Y112.935 E2.4473
G1 X140.090 Y117.875 E2.8656
G1 X140.090 Y115.612 E3.0011
G1 X135.150 Y110.672 E3.4193
G1 X135.150 Y108.409 E3.5548
G1 X140.090 Y113.349 E3.9730
G1 X140.090 Y111.087 E4.1085
G1 X135.150 Y106.147 E4.5268
G1 X135.150 Y103.884 E4.6622
G1 X140.090 Y108.824 E5.0805
G1 X140.090 Y106.561 E5.2159
G1 X135.150 Y101.621 E5.6342
G1 X135.150 Y99.358 E5.7697
G1 X140.090 Y104.298 E6.1879
G1 X140.090 Y102.036 E6.3234
G1 X135.150 Y97.096 E6.7416
G1 X135.150 Y94.833 E6.8771
G1 X140.090 Y99.773 E7.2953
G1 X140.090 Y97.510 E7.4308
G1 X135.150 Y92.570 E7.8491
G1 X135.150 Y90.307 E7.9845
G1 X140.090 Y95.247 E8.4028
G1 X140.090 Y92.985 E8.5382
G1 X135.292 Y88.186 E8.9445
G1 X135.150 Y88.045 F1920
G92 E0.0000
G1 E-1.5000 F5100
G1 X142.013 Y94.565 F7200
G1 X142.013 Y99.594
G1 X145.090 Y104.773
G1 E0.0000 F5100
G92 E0.0000
G1 X143.515 Y103.198 E0.1333 F1920
G1 X143.515 Y100.935 E0.2688
G1 X145.090 Y102.510 E0.4021
G1 X145.090 Y100.247 E0.5376
G1 X143.657 Y98.814 E0.6590
G1 X143.515 Y98.673 F1920
G92 E0.0000
G1 E-1.5000 F5100
G1 X143.515 Y116.775 F7200
G1 E0.0000 F5100
G92 E0.0000
G1 X145.090 Y118.349 E0.1333 F1920
G1 X145.090 Y116.087 E0.2688
G1 X143.515 Y114.512 E0.4021
G1 X143.515 Y112.249 E0.5376
G1 X145.090 Y113.824 E0.6709
G1 X145.090 Y111.561 E0.8064
G1 X143.515 Y109.986 E0.9397
G1 X143.515 Y107.724 E1.0752
G1 X145.090 Y109.298 E1.2085
G1 X145.090 Y107.036 E1.3440
G1 X144.146 Y106.091 E1.4239
G1 X144.005 Y105.950 F1920
G92 E0.0000
G1 E-1.5000 F5100
; layer 2, Z = 0.500
M106 S255
M104 S210 T0
; feature outer perimeter
; tool H0.200 W0.480
G1 Z0.500 F1002
G1 X142.013 Y116.881 F7200
G1 X142.013 Y120.775
G1 X141.146 Y121.638
G1 E0.0000 F5100
G92 E0.0000
G1 X141.146 Y93.702 E1.1150 F2084
G1 X142.635 Y94.952 E1.1926
G1 X142.635 Y119.749 E2.1823
G1 X142.635 Y120.388 E2.2078
G1 X141.299 Y121.510 E2.2775
G1 X141.146 Y121.638 F2084
G1 X141.146 Y117.638 F2084
; feature inner perimeter
G1 X142.155 Y119.749 F7200
G92 E0.0000
G1 X142.155 Y120.164 E0.0166 F2621
G1 X141.626 Y120.609 E0.0442
G1 X141.626 Y94.731 E1.0770
G1 X142.155 Y95.176 E1.1046
G1 X142.155 Y119.549 E2.0774
G1 X142.155 Y119.749 F2621
G92 E0.0000
G1 E-1.5000 F5100
; feature outer perimeter
G1 X142.635 Y119.810 F7200
G1 X142.635 Y120.388
G1 X155.365 Y120.388
G1 X156.854 Y121.638
G1 E0.0000 F5100
G92 E0.0000
G1 X155.365 Y120.388 E0.0776 F2084
G1 X155.365 Y94.952 E1.0928
G1 X156.854 Y93.702 E1.1704
G1 X156.854 Y121.438 E2.2775
G1 X156.854 Y121.638 F2084
G1 X155.365 Y120.388 F2084
G1 X155.365 Y118.333
; feature inner perimeter
G1 X155.845 Y120.164 F7200
G92 E0.0000
G1 X155.845 Y95.176 E0.9974 F2621
G1 X156.374 Y94.731 E1.0249
