; G-Code generated by Simplify3D(R) Version 4.1.2
; Mar 4, 2021 at 9:50:17 PM
; Settings Summary
;   processName,Process1
;   applyToModels,bearing support,frame bearing junction
;   profileName,BLV mgn Cube-  Simplify3D Profile
;   profileVersion,2021-03-03 00:10:34
;   baseProfile,Anet A8
;   printMaterial,PLA
;   printQuality,Medium
;   printExtruders,
;   extruderName,Primary Extruder
;   extruderToolheadNumber,0
;   extruderDiameter,0.4
;   extruderAutoWidth,1
;   extruderWidth,0.48
;   extrusionMultiplier,1
;   extruderUseRetract,1
;   extruderRetractionDistance,1.5
;   extruderExtraRestartDistance,0
;   extruderRetractionZLift,0
;   extruderRetractionSpeed,5100
;   extruderUseCoasting,1
;   extruderCoastingDistance,0.2
;   extruderUseWipe,1
;   extruderWipeDistance,4
;   primaryExtruder,0
;   layerHeight,0.2
;   topSolidLayers,4
;   bottomSolidLayers,4
;   perimeterOutlines,4
;   printPerimetersInsideOut,0
;   startPointOption,3
;   startPointOriginX,0
;   startPointOriginY,500
;   sequentialIslands,0
;   spiralVaseMode,0
;   firstLayerHeightPercentage,150
;   firstLayerWidthPercentage,100
;   firstLayerUnderspeed,0.5
;   useRaft,0
;   raftExtruder,0
;   raftTopLayers,3
;   raftBaseLayers,2
;   raftOffset,3
;   raftSeparationDistance,0.14
;   raftTopInfill,100
;   aboveRaftSpeedMultiplier,0.3
;   useSkirt,1
;   skirtExtruder,0
;   skirtLayers,1
;   skirtOutlines,2
;   skirtOffset,6
;   usePrimePillar,0
;   primePillarExtruder,999
;   primePillarWidth,12
;   primePillarLocation,7
;   primePillarSpeedMultiplier,1
;   useOozeShield,0
;   oozeShieldExtruder,999
;   oozeShieldOffset,2
;   oozeShieldOutlines,1
;   oozeShieldSidewallShape,1
;   oozeShieldSidewallAngle,30
;   oozeShieldSpeedMultiplier,1
;   infillExtruder,0
;   internalInfillPattern,Rectilinear
;   externalInfillPattern,Rectilinear
;   infillPercentage,15
;   outlineOverlapPercentage,15
;   infillExtrusionWidthPercentage,100
;   minInfillLength,5
;   infillLayerInterval,1
;   internalInfillAngles,45,-45
;   overlapInternalInfillAngles,0
;   externalInfillAngles,45,-45
;   generateSupport,1
;   supportExtruder,0
;   supportInfillPercentage,30
;   supportExtraInflation,0
;   supportBaseLayers,0
;   denseSupportExtruder,0
;   denseSupportLayers,0
;   denseSupportInfillPercentage,70
;   supportLayerInterval,1
;   supportHorizontalPartOffset,0.4
;   supportUpperSeparationLayers,1
;   supportLowerSeparationLayers,1
;   supportType,0
;   supportGridSpacing,4.5
;   maxOverhangAngle,45
;   supportAngles,45,-45
;   temperatureName,Primary Extruder,Heated Bed
;   temperatureNumber,0,0
;   temperatureSetpointCount,2,1
;   temperatureSetpointLayers,1,2,1
;   temperatureSetpointTemperatures,215,210,70
;   temperatureStabilizeAtStartup,1,1
;   temperatureHeatedBed,0,1
;   fanLayers,1,2
;   fanSpeeds,0,100
;   blipFanToFullPower,1
;   adjustSpeedForCooling,1
;   minSpeedLayerTime,15
;   minCoolingSpeedSlowdown,20
;   increaseFanForCooling,0
;   minFanLayerTime,45
;   maxCoolingFanSpeed,100
;   increaseFanForBridging,1
;   bridgingFanSpeed,100
;   use5D,1
;   relativeEdistances,0
;   allowEaxisZeroing,1
;   independentExtruderAxes,0
;   includeM10123,0
;   stickySupport,1
;   applyToolheadOffsets,0
;   gcodeXoffset,24
;   gcodeYoffset,22
;   gcodeZoffset,0
;   overrideMachineDefinition,1
;   machineTypeOverride,0
;   strokeXoverride,310
;   strokeYoverride,310
;   strokeZoverride,334
;   originOffsetXoverride,0
;   originOffsetYoverride,0
;   originOffsetZoverride,0
;   homeXdirOverride,-1
;   homeYdirOverride,-1
;   homeZdirOverride,-1
;   flipXoverride,1
;   flipYoverride,-1
;   flipZoverride,1
;   toolheadOffsets,0,0|0,0|0,0|0,0|0,0|0,0
;   overrideFirmwareConfiguration,1
;   firmwareTypeOverride,RepRap (Marlin/Repetier/Sprinter)
;   GPXconfigOverride,r2
;   baudRateOverride,115200
;   overridePrinterModels,1
;   printerModelsOverride,Blvfull.stl
;   startingGcode,M291 P"Homing all axis" R"Printing.." S1 T2,G21		; metric values,G28		; home all,M98 P"/macros/load_meshbed"	; load mesh bed corresponding to the temp,M98 P"/macros/set_baby_step"	; set baby step,M98 P"/macros/purge_and_prime"; purge and do the prime line,,G92 E0 F100		; reset extruder,G1 Z10 F3000 		; move z up little to prevent scratching of surface,G92 E0 		; reset extruder,M291 P"Printing started !" R"Printing.." S1 T3
;   layerChangeGcode,
;   retractionGcode,
;   toolChangeGcode,
;   endingGcode,M104 S0 ; turn off extruder,M140 S0 ; turn off bed,M98 P"/macros/remove_baby_step"	; unset baby step,M98 P"/macros/rise30mm",G1 X0 Y300 F1000 ; prepare for part removal,M84 ; disable motors,M106 S0 ;turn off part cooling fan,;M81 ; shutdown,; play song,M300 S294 P200 ;D4: 294,M300 S588 P200 ;D5: 588,M300 S440 P200 ;A4: 440,M300 S392 P200 ;G4: 392,M300 S784 P200 ;G5: 784,M300 S440 P200 ;A4: 440,M300 S740 P200 ;F#5: 740,M300 S440 P200 ;A4: 440,M291 P"Printing finished !" R"Printing.." S1 T0,
;   exportFileFormat,gcode
;   celebration,0
;   celebrationSong,Star Wars
;   postProcessing,
;   defaultSpeed,2400
;   outlineUnderspeed,0.66
;   solidInfillUnderspeed,0.8
;   supportUnderspeed,0.8
;   rapidXYspeed,7200
;   rapidZspeed,1002
;   minBridgingArea,50
;   bridgingExtraInflation,0
;   bridgingExtrusionMultiplier,1
;   bridgingSpeedMultiplier,1
;   useFixedBridgingAngle,0
;   fixedBridgingAngle,0
;   applyBridgingToPerimeters,1
;   filamentDiameters,1.75|1.75|1.75|1.75|1.75|1.75
;   filamentPricesPerKg,110|110|110|110|110|110
;   filamentDensities,1.25|1.25|1.25|1.25|1.25|1.25
;   useMinPrintHeight,0
;   minPrintHeight,0
;   useMaxPrintHeight,0
;   maxPrintHeight,0
;   useDiaphragm,0
;   diaphragmLayerInterval,20
;   robustSlicing,1
;   mergeAllIntoSolid,0
;   onlyRetractWhenCrossingOutline,0
;   retractBetweenLayers,1
;   useRetractionMinTravel,1
;   retractionMinTravel,3
;   retractWhileWiping,1
;   onlyWipeOutlines,1
;   avoidCrossingOutline,1
;   maxMovementDetourFactor,3
;   toolChangeRetractionDistance,12
;   toolChangeExtraRestartDistance,-0.5
;   toolChangeRetractionSpeed,600
;   externalThinWallType,0
;   internalThinWallType,2
;   thinWallAllowedOverlapPercentage,15
;   singleExtrusionMinLength,1
;   singleExtrusionMinPrintingWidthPercentage,50
;   singleExtrusionMaxPrintingWidthPercentage,200
;   singleExtrusionEndpointExtension,0.2
;   horizontalSizeCompensation,0
G90
M82
M106 S0
M140 S70
M190 S70
M104 S215 T0
M109 S215 T0
M291 P"Homing all axis" R"Printing.." S1 T2
G21		; metric values
G28		; home all
M98 P"/macros/load_meshbed"	; load mesh bed corresponding to the temp
M98 P"/macros/set_baby_step"	; set baby step
M98 P"/macros/purge_and_prime"; purge and do the prime line
G92 E0 F100		; reset extruder
G1 Z10 F3000 		; move z up little to prevent scratching of surface
G92 E0 		; reset extruder
M291 P"Printing started !" R"Printing.." S1 T3
; process Process1
; layer 1, Z = 0.300
T0
G92 E0.0000
G1 E-1.5000 F5100
; feature skirt
; tool H0.300 W0.480
G1 Z0.300 F1002
G1 X148.380 Y207.126 F7200
G1 E0.0000 F5100
G92 E0.0000
G1 X148.068 Y206.992 E0.0203 F1200
G1 X147.032 Y206.479 E0.0896
G1 X146.735 Y206.314 E0.1099
G1 X145.755 Y205.699 E0.1791
G1 X145.477 Y205.505 E0.1994
G1 X144.564 Y204.794 E0.2687
G1 X144.307 Y204.573 E0.2890
G1 X143.470 Y203.775 E0.3582
G1 X143.237 Y203.528 E0.3786
G1 X142.485 Y202.650 E0.4478
G1 X142.278 Y202.381 E0.4681
G1 X141.618 Y201.431 E0.5374
G1 X141.439 Y201.143 E0.5577
G1 X140.878 Y200.131 E0.6269
G1 X140.729 Y199.826 E0.6473
G1 X140.273 Y198.763 E0.7165
G1 X140.155 Y198.445 E0.7368
G1 X139.809 Y197.341 E0.8061
G1 X139.724 Y197.013 E0.8264
G1 X139.490 Y195.880 E0.8956
G1 X139.439 Y195.545 E0.9159
G1 X139.321 Y194.394 E0.9852
G1 X139.303 Y194.055 E1.0055
G1 X139.302 Y192.898 E1.0748
G1 X139.318 Y192.560 E1.0951
G1 X139.434 Y191.409 E1.1643
G1 X139.484 Y191.073 E1.1846
G1 X139.715 Y189.940 E1.2539
G1 X139.799 Y189.611 E1.2742
G1 X140.118 Y188.588 E1.3384
G1 X140.172 Y188.427 E1.3485
G1 X152.165 Y155.790 E3.4302
G1 X152.426 Y154.996 E3.4802
G1 X152.551 Y154.672 E3.5010
G1 X153.011 Y153.644 E3.5684
G1 X153.169 Y153.335 E3.5892
G1 X153.733 Y152.360 E3.6566
G1 X153.922 Y152.068 E3.6774
G1 X154.583 Y151.156 E3.7449
G1 X154.801 Y150.886 E3.7657
G1 X155.553 Y150.047 E3.8331
G1 X155.798 Y149.801 E3.8539
G1 X156.632 Y149.044 E3.9213
G1 X156.901 Y148.825 E3.9421
G1 X157.809 Y148.158 E4.0095
G1 X158.099 Y147.967 E4.0303
G1 X159.071 Y147.398 E4.0978
G1 X159.379 Y147.238 E4.1185
G1 X160.404 Y146.771 E4.1860
G1 X160.728 Y146.644 E4.2068
G1 X161.796 Y146.286 E4.2742
G1 X162.130 Y146.193 E4.2950
G1 X163.229 Y145.947 E4.3624
G1 X163.572 Y145.889 E4.3832
G1 X164.690 Y145.757 E4.4507
G1 X165.037 Y145.735 E4.4714
G1 X166.163 Y145.719 E4.5389
G1 X166.510 Y145.733 E4.5596
G1 X167.631 Y145.834 E4.6271
G1 X167.976 Y145.883 E4.6479
G1 X169.081 Y146.099 E4.7153
G1 X169.418 Y146.183 E4.7361
G1 X170.495 Y146.512 E4.8036
G1 X170.822 Y146.630 E4.8243
G1 X171.859 Y147.069 E4.8918
G1 X172.171 Y147.220 E4.9125
G1 X173.158 Y147.763 E4.9800
G1 X173.453 Y147.946 E5.0008
G1 X174.379 Y148.588 E5.0682
G1 X174.654 Y148.800 E5.0890
G1 X175.508 Y149.534 E5.1564
G1 X175.760 Y149.774 E5.1772
G1 X176.534 Y150.592 E5.2447
G1 X176.759 Y150.856 E5.2654
G1 X177.445 Y151.750 E5.3329
G1 X177.642 Y152.036 E5.3537
G1 X178.186 Y152.921 E5.4159
G1 X178.273 Y153.071 E5.4263
G1 X186.059 Y167.340 E6.3994
G1 X186.059 Y151.188 E7.3664
G1 X189.996 Y147.251 E7.6997
G1 X203.910 Y147.251 E8.5327
G1 X205.169 Y145.943 E8.6414
G1 X210.818 Y145.724 E8.9799
G1 X210.948 Y145.721 E8.9877
G1 X214.756 Y145.721 E9.2157
G1 X218.693 Y149.656 E9.5489
G1 X218.699 Y172.223 E10.9000
G1 X214.762 Y176.161 E11.2333
G1 X205.351 Y176.161 E11.7967
G1 X203.821 Y174.631 E11.9263
G1 X190.038 Y174.631 E12.7514
G1 X194.752 Y183.270 E13.3406
G1 X190.846 Y189.850 E13.7987
G1 X183.272 Y189.850 E14.2522
G1 X180.583 Y191.950 E14.4565
G1 X171.357 Y191.950 E15.0088
G1 X170.126 Y190.989 E15.1023
G1 X168.400 Y197.395 E15.4995
G1 X168.352 Y197.558 E15.5097
G1 X168.021 Y198.577 E15.5739
G1 X167.901 Y198.894 E15.5942
G1 X167.435 Y199.953 E15.6634
G1 X167.282 Y200.256 E15.6837
G1 X166.712 Y201.263 E15.7530
G1 X166.530 Y201.549 E15.7733
G1 X165.862 Y202.493 E15.8425
G1 X165.652 Y202.760 E15.8629
G1 X164.891 Y203.631 E15.9321
G1 X164.656 Y203.875 E15.9524
G1 X163.811 Y204.665 E16.0217
G1 X163.552 Y204.885 E16.0420
G1 X162.632 Y205.586 E16.1112
G1 X162.352 Y205.778 E16.1316
G1 X161.367 Y206.383 E16.2008
G1 X161.069 Y206.546 E16.2211
G1 X160.027 Y207.048 E16.2904
G1 X159.714 Y207.180 E16.3107
G1 X158.627 Y207.575 E16.3799
G1 X158.303 Y207.675 E16.4002
G1 X157.182 Y207.958 E16.4695
G1 X156.849 Y208.025 E16.4898
G1 X155.705 Y208.194 E16.5590
G1 X155.367 Y208.227 E16.5794
G1 X154.211 Y208.280 E16.6486
G1 X153.872 Y208.278 E16.6689
G1 X152.717 Y208.214 E16.7382
G1 X152.380 Y208.178 E16.7585
G1 X151.237 Y207.998 E16.8277
G1 X150.905 Y207.929 E16.8480
G1 X149.786 Y207.635 E16.9173
G1 X149.463 Y207.532 E16.9376
G1 X148.380 Y207.126 E17.0069
G1 X148.559 Y206.681 F7200
G92 E0.0000
G1 X148.270 Y206.556 E0.0189 F1200
G1 X147.255 Y206.054 E0.0867
G1 X146.980 Y205.901 E0.1055
G1 X146.020 Y205.299 E0.1733
G1 X145.762 Y205.118 E0.1922
G1 X144.868 Y204.423 E0.2600
G1 X144.630 Y204.217 E0.2788
G1 X143.811 Y203.436 E0.3466
G1 X143.594 Y203.207 E0.3655
G1 X142.857 Y202.347 E0.4333
G1 X142.665 Y202.097 E0.4522
G1 X142.019 Y201.167 E0.5200
G1 X141.853 Y200.900 E0.5388
G1 X141.304 Y199.909 E0.6066
G1 X141.165 Y199.626 E0.6255
G1 X140.719 Y198.585 E0.6933
G1 X140.609 Y198.290 E0.7121
G1 X140.270 Y197.209 E0.7799
G1 X140.191 Y196.904 E0.7988
G1 X139.963 Y195.795 E0.8666
G1 X139.915 Y195.484 E0.8855
G1 X139.799 Y194.357 E0.9533
G1 X139.783 Y194.042 E0.9721
G1 X139.782 Y192.910 E1.0399
G1 X139.797 Y192.595 E1.0588
G1 X139.910 Y191.469 E1.1266
G1 X139.957 Y191.157 E1.1454
G1 X140.183 Y190.047 E1.2133
G1 X140.261 Y189.742 E1.2321
G1 X140.574 Y188.736 E1.2952
G1 X140.625 Y188.587 E1.3046
G1 X152.618 Y155.948 E3.3864
G1 X152.878 Y155.157 E3.4362
G1 X152.995 Y154.857 E3.4555
G1 X153.445 Y153.851 E3.5215
G1 X153.591 Y153.564 E3.5408
G1 X154.142 Y152.611 E3.6067
G1 X154.318 Y152.340 E3.6260
G1 X154.965 Y151.448 E3.6920
G1 X155.167 Y151.197 E3.7113
G1 X155.902 Y150.377 E3.7772
G1 X156.130 Y150.148 E3.7965
G1 X156.946 Y149.408 E3.8625
G1 X157.195 Y149.204 E3.8818
G1 X158.083 Y148.552 E3.9477
G1 X158.352 Y148.375 E3.9670
G1 X159.303 Y147.818 E4.0330
G1 X159.589 Y147.670 E4.0523
G1 X160.592 Y147.213 E4.1182
G1 X160.892 Y147.095 E4.1375
G1 X161.936 Y146.745 E4.2035
G1 X162.247 Y146.659 E4.2228
G1 X163.322 Y146.418 E4.2887
G1 X163.640 Y146.364 E4.3081
G1 X164.734 Y146.235 E4.3740
G1 X165.056 Y146.214 E4.3933
G1 X166.157 Y146.200 E4.4592
G1 X166.479 Y146.212 E4.4785
G1 X167.576 Y146.311 E4.5445
G1 X167.896 Y146.356 E4.5638
G1 X168.977 Y146.567 E4.6298
G1 X169.290 Y146.646 E4.6491
G1 X170.343 Y146.967 E4.7150
G1 X170.646 Y147.077 E4.7343
G1 X171.661 Y147.506 E4.8003
G1 X171.951 Y147.647 E4.8196
G1 X172.916 Y148.178 E4.8855
G1 X173.190 Y148.347 E4.9048
G1 X174.095 Y148.975 E4.9708
G1 X174.350 Y149.172 E4.9901
G1 X175.186 Y149.890 E5.0560
G1 X175.419 Y150.113 E5.0753
G1 X176.177 Y150.913 E5.1413
G1 X176.386 Y151.158 E5.1606
G1 X177.056 Y152.032 E5.2265
G1 X177.239 Y152.298 E5.2458
G1 X177.774 Y153.167 E5.3069
G1 X177.855 Y153.307 E5.3166
G1 X186.539 Y169.222 E6.4020
G1 X186.539 Y151.386 E7.4698
G1 X190.194 Y147.731 E7.7792
G1 X204.114 Y147.731 E8.6126
G1 X205.381 Y146.415 E8.7219
G1 X210.832 Y146.204 E9.0485
G1 X210.953 Y146.201 E9.0558
G1 X214.558 Y146.201 E9.2716
G1 X218.213 Y149.855 E9.5810
G1 X218.219 Y172.025 E10.9083
G1 X214.563 Y175.681 E11.2178
G1 X205.550 Y175.681 E11.7574
G1 X204.020 Y174.151 E11.8870
G1 X190.194 Y174.151 E12.7147
G1 X188.070 Y172.026 E12.8946
G1 X194.200 Y183.260 E13.6607
G1 X190.573 Y189.370 E14.0861
G1 X183.107 Y189.370 E14.5331
G1 X180.417 Y191.470 E14.7374
G1 X171.522 Y191.470 E15.2699
G1 X169.850 Y190.165 E15.3969
G1 X167.938 Y197.264 E15.8371
G1 X167.893 Y197.415 E15.8465
G1 X167.568 Y198.418 E15.9096
G1 X167.456 Y198.712 E15.9284
G1 X167.000 Y199.748 E15.9962
G1 X166.859 Y200.030 E16.0151
G1 X166.301 Y201.015 E16.0829
G1 X166.132 Y201.281 E16.1018
G1 X165.477 Y202.205 E16.1696
G1 X165.282 Y202.453 E16.1884
G1 X164.537 Y203.306 E16.2562
G1 X164.319 Y203.533 E16.2751
G1 X163.492 Y204.307 E16.3429
G1 X163.252 Y204.510 E16.3617
G1 X162.351 Y205.197 E16.4295
G1 X162.091 Y205.375 E16.4484
G1 X161.126 Y205.968 E16.5162
G1 X160.849 Y206.119 E16.5351
G1 X159.829 Y206.611 E16.6029
G1 X159.539 Y206.733 E16.6217
G1 X158.475 Y207.120 E16.6895
G1 X158.174 Y207.213 E16.7084
G1 X157.076 Y207.490 E16.7762
G1 X156.767 Y207.552 E16.7950
G1 X155.647 Y207.717 E16.8628
G1 X155.333 Y207.748 E16.8817
G1 X154.202 Y207.800 E16.9495
G1 X153.887 Y207.798 E16.9684
G1 X152.756 Y207.736 E17.0362
G1 X152.443 Y207.702 E17.0550
G1 X151.324 Y207.526 E17.1228
G1 X151.015 Y207.461 E17.1417
G1 X149.920 Y207.173 E17.2095
G1 X149.620 Y207.078 E17.2284
G1 X148.559 Y206.681 E17.2961
G92 E0.0000
G1 E-1.5000 F5100
; feature outer perimeter
G1 X150.989 Y200.672 F7200
G1 E0.0000 F5100
G92 E0.0000
G1 X150.278 Y200.320 E0.0475 F792
G1 X149.606 Y199.899 E0.0950
G1 X148.980 Y199.412 E0.1425
G1 X148.406 Y198.864 E0.1899
G1 X147.891 Y198.262 E0.2374
G1 X147.438 Y197.610 E0.2849
G1 X147.054 Y196.917 E0.3324
G1 X146.741 Y196.188 E0.3799
G1 X146.504 Y195.431 E0.4274
G1 X146.344 Y194.654 E0.4748
G1 X146.263 Y193.865 E0.5223
G1 X146.262 Y193.072 E0.5698
G1 X146.341 Y192.283 E0.6173
G1 X146.499 Y191.505 E0.6648
G1 X146.737 Y190.742 E0.7126
G1 X158.740 Y158.078 E2.7961
G1 X158.980 Y157.345 E2.8422
