; G-Code generated by Simplify3D(R) Version 4.1.2
; Mar 27, 2021 at 1:19:20 PM
; Settings Summary
;   processName,Process1
;   applyToModels,silicone brush and purge holder
;   profileName,BLV mgn Cube-  Simplify3D Profile
;   profileVersion,2021-03-16 20:26:39
;   baseProfile,Anet A8
;   printMaterial,PLA
;   printQuality,Medium
;   printExtruders,
;   extruderName,Primary Extruder
;   extruderToolheadNumber,0
;   extruderDiameter,0.4
;   extruderAutoWidth,1
;   extruderWidth,0.48
;   extrusionMultiplier,1
;   extruderUseRetract,1
;   extruderRetractionDistance,1.5
;   extruderExtraRestartDistance,0
;   extruderRetractionZLift,0
;   extruderRetractionSpeed,5100
;   extruderUseCoasting,1
;   extruderCoastingDistance,0.2
;   extruderUseWipe,1
;   extruderWipeDistance,4
;   primaryExtruder,0
;   layerHeight,0.2
;   topSolidLayers,3
;   bottomSolidLayers,3
;   perimeterOutlines,3
;   printPerimetersInsideOut,0
;   startPointOption,3
;   startPointOriginX,0
;   startPointOriginY,500
;   sequentialIslands,0
;   spiralVaseMode,0
;   firstLayerHeightPercentage,150
;   firstLayerWidthPercentage,100
;   firstLayerUnderspeed,0.4
;   useRaft,0
;   raftExtruder,0
;   raftTopLayers,3
;   raftBaseLayers,2
;   raftOffset,3
;   raftSeparationDistance,0.14
;   raftTopInfill,100
;   aboveRaftSpeedMultiplier,0.3
;   useSkirt,1
;   skirtExtruder,0
;   skirtLayers,1
;   skirtOutlines,2
;   skirtOffset,6
;   usePrimePillar,0
;   primePillarExtruder,999
;   primePillarWidth,12
;   primePillarLocation,7
;   primePillarSpeedMultiplier,1
;   useOozeShield,0
;   oozeShieldExtruder,999
;   oozeShieldOffset,2
;   oozeShieldOutlines,1
;   oozeShieldSidewallShape,1
;   oozeShieldSidewallAngle,30
;   oozeShieldSpeedMultiplier,1
;   infillExtruder,0
;   internalInfillPattern,Rectilinear
;   externalInfillPattern,Rectilinear
;   infillPercentage,15
;   outlineOverlapPercentage,15
;   infillExtrusionWidthPercentage,100
;   minInfillLength,5
;   infillLayerInterval,1
;   internalInfillAngles,45,-45
;   overlapInternalInfillAngles,0
;   externalInfillAngles,45,-45
;   generateSupport,0
;   supportExtruder,0
;   supportInfillPercentage,30
;   supportExtraInflation,0
;   supportBaseLayers,0
;   denseSupportExtruder,0
;   denseSupportLayers,0
;   denseSupportInfillPercentage,70
;   supportLayerInterval,1
;   supportHorizontalPartOffset,0.4
;   supportUpperSeparationLayers,1
;   supportLowerSeparationLayers,1
;   supportType,0
;   supportGridSpacing,4.5
;   maxOverhangAngle,45
;   supportAngles,45,-45
;   temperatureName,Primary Extruder,Heated Bed
;   temperatureNumber,0,0
;   temperatureSetpointCount,2,1
;   temperatureSetpointLayers,1,2,1
;   temperatureSetpointTemperatures,215,210,60
;   temperatureStabilizeAtStartup,1,1
;   temperatureHeatedBed,0,1
;   fanLayers,1,2
;   fanSpeeds,0,100
;   blipFanToFullPower,1
;   adjustSpeedForCooling,1
;   minSpeedLayerTime,15
;   minCoolingSpeedSlowdown,20
;   increaseFanForCooling,0
;   minFanLayerTime,45
;   maxCoolingFanSpeed,100
;   increaseFanForBridging,1
;   bridgingFanSpeed,100
;   use5D,1
;   relativeEdistances,0
;   allowEaxisZeroing,1
;   independentExtruderAxes,0
;   includeM10123,0
;   stickySupport,1
;   applyToolheadOffsets,0
;   gcodeXoffset,24
;   gcodeYoffset,22
;   gcodeZoffset,0
;   overrideMachineDefinition,1
;   machineTypeOverride,0
;   strokeXoverride,310
;   strokeYoverride,310
;   strokeZoverride,334
;   originOffsetXoverride,0
;   originOffsetYoverride,0
;   originOffsetZoverride,0
;   homeXdirOverride,-1
;   homeYdirOverride,-1
;   homeZdirOverride,-1
;   flipXoverride,1
;   flipYoverride,-1
;   flipZoverride,1
;   toolheadOffsets,0,0|0,0|0,0|0,0|0,0|0,0
;   overrideFirmwareConfiguration,1
;   firmwareTypeOverride,RepRap (Marlin/Repetier/Sprinter)
;   GPXconfigOverride,r2
;   baudRateOverride,115200
;   overridePrinterModels,1
;   printerModelsOverride,Blvfull.stl
;   startingGcode,M291 P"Homing all axis" R"Printing.." S1 T2,G21		; metric values,G28		; home all,M98 P"/macros/load_meshbed"	; load mesh bed corresponding to the temp,M98 P"/macros/set_baby_step"	; set baby step,M98 P"/macros/purge_and_prime"; purge and do the prime line,,G92 E0 F100		; reset extruder,G1 Z10 F3000 		; move z up little to prevent scratching of surface,G92 E0 		; reset extruder,M291 P"Printing started !" R"Printing.." S1 T3
;   layerChangeGcode,
;   retractionGcode,
;   toolChangeGcode,
;   endingGcode,M104 S0 ; turn off extruder,M140 S0 ; turn off bed,M98 P"/macros/remove_baby_step"	; unset baby step,M98 P"/macros/rise30mm",G1 X0 Y300 F1000 ; prepare for part removal,M84 ; disable motors,M106 S0 ;turn off part cooling fan,;M81 ; shutdown,; play song,M300 S294 P200 ;D4: 294,M300 S588 P200 ;D5: 588,M300 S440 P200 ;A4: 440,M300 S392 P200 ;G4: 392,M300 S784 P200 ;G5: 784,M300 S440 P200 ;A4: 440,M300 S740 P200 ;F#5: 740,M300 S440 P200 ;A4: 440,M291 P"Printing finished !" R"Printing.." S1 T0,
;   exportFileFormat,gcode
;   celebration,0
;   celebrationSong,Star Wars
;   postProcessing,
;   defaultSpeed,6000
;   outlineUnderspeed,0.66
;   solidInfillUnderspeed,0.8
;   supportUnderspeed,0.8
;   rapidXYspeed,7200
;   rapidZspeed,1002
;   minBridgingArea,50
;   bridgingExtraInflation,0
;   bridgingExtrusionMultiplier,1
;   bridgingSpeedMultiplier,1
;   useFixedBridgingAngle,0
;   fixedBridgingAngle,0
;   applyBridgingToPerimeters,1
;   filamentDiameters,1.75|1.75|1.75|1.75|1.75|1.75
;   filamentPricesPerKg,30|110|110|110|110|110
;   filamentDensities,1.25|1.25|1.25|1.25|1.25|1.25
;   useMinPrintHeight,0
;   minPrintHeight,0
;   useMaxPrintHeight,0
;   maxPrintHeight,0
;   useDiaphragm,0
;   diaphragmLayerInterval,20
;   robustSlicing,1
;   mergeAllIntoSolid,0
;   onlyRetractWhenCrossingOutline,0
;   retractBetweenLayers,1
;   useRetractionMinTravel,1
;   retractionMinTravel,3
;   retractWhileWiping,1
;   onlyWipeOutlines,1
;   avoidCrossingOutline,1
;   maxMovementDetourFactor,3
;   toolChangeRetractionDistance,12
;   toolChangeExtraRestartDistance,-0.5
;   toolChangeRetractionSpeed,600
;   externalThinWallType,1
;   internalThinWallType,2
;   thinWallAllowedOverlapPercentage,15
;   singleExtrusionMinLength,1
;   singleExtrusionMinPrintingWidthPercentage,50
;   singleExtrusionMaxPrintingWidthPercentage,200
;   singleExtrusionEndpointExtension,0.2
;   horizontalSizeCompensation,0
G90
M82
M106 S0
M140 S60
M190 S60
M104 S215 T0
M109 S215 T0
M291 P"Homing all axis" R"Printing.." S1 T2
G21		; metric values
G28		; home all
M98 P"/macros/load_meshbed"	; load mesh bed corresponding to the temp
M98 P"/macros/set_baby_step"	; set baby step
M98 P"/macros/purge_and_prime"; purge and do the prime line
G92 E0 F100		; reset extruder
G1 Z10 F3000 		; move z up little to prevent scratching of surface
G92 E0 		; reset extruder
M291 P"Printing started !" R"Printing.." S1 T3
; process Process1
; layer 1, Z = 0.300
T0
G92 E0.0000
G1 E-1.5000 F5100
; feature skirt
; tool H0.300 W0.480
G1 Z0.300 F1002
G1 X89.086 Y151.782 F7200
G1 E0.0000 F5100
G92 E0.0000
G1 X85.149 Y147.846 E0.3333 F2400
G1 X85.149 Y122.779 E1.8340
G1 X89.086 Y118.843 E2.1673
G1 X129.911 Y118.843 E4.6114
G1 X129.911 Y116.431 E4.7558
G1 X129.921 Y116.167 E4.7716
G1 X130.028 Y114.814 E4.8529
G1 X130.110 Y114.292 E4.8845
G1 X130.458 Y112.844 E4.9736
G1 X130.621 Y112.342 E5.0053
G1 X131.191 Y110.966 E5.0944
G1 X131.431 Y110.496 E5.1260
G1 X132.209 Y109.226 E5.2152
G1 X132.519 Y108.799 E5.2468
G1 X133.486 Y107.666 E5.3360
G1 X133.860 Y107.293 E5.3676
G1 X134.992 Y106.326 E5.4567
G1 X135.419 Y106.015 E5.4883
G1 X136.689 Y105.237 E5.5775
G1 X137.160 Y104.998 E5.6091
G1 X138.535 Y104.428 E5.6983
G1 X139.038 Y104.265 E5.7299
G1 X140.486 Y103.917 E5.8190
G1 X141.007 Y103.834 E5.8506
G1 X142.492 Y103.718 E5.9398
G1 X143.020 Y103.718 E5.9714
G1 X144.504 Y103.834 E6.0606
G1 X145.026 Y103.917 E6.0922
G1 X146.474 Y104.265 E6.1813
G1 X146.976 Y104.428 E6.2129
G1 X148.352 Y104.998 E6.3021
G1 X148.823 Y105.237 E6.3337
G1 X150.092 Y106.015 E6.4229
G1 X150.519 Y106.326 E6.4545
G1 X151.652 Y107.293 E6.5436
G1 X152.025 Y107.666 E6.5753
G1 X152.992 Y108.799 E6.6644
G1 X153.303 Y109.226 E6.6960
G1 X153.881 Y110.169 E6.7622
G1 X154.459 Y109.226 E6.8285
G1 X154.769 Y108.799 E6.8601
G1 X155.736 Y107.666 E6.9492
G1 X156.110 Y107.293 E6.9809
G1 X157.242 Y106.326 E7.0700
G1 X157.669 Y106.015 E7.1016
G1 X158.939 Y105.237 E7.1908
G1 X159.410 Y104.998 E7.2224
G1 X160.785 Y104.428 E7.3115
G1 X161.288 Y104.265 E7.3432
G1 X162.736 Y103.917 E7.4323
G1 X163.257 Y103.834 E7.4639
G1 X164.610 Y103.728 E7.5452
G1 X164.874 Y103.718 E7.5610
G1 X182.710 Y103.718 E8.6288
G1 X182.785 Y103.642 E8.6351
G1 X193.352 Y103.642 E9.2678
G1 X193.427 Y103.718 E9.2741
G1 X208.914 Y103.718 E10.2013
G1 X212.851 Y107.654 E10.5346
G1 X212.851 Y145.346 E12.7912
G1 X208.914 Y149.282 E13.1245
G1 X193.427 Y149.282 E14.0517
G1 X193.352 Y149.358 E14.0580
G1 X182.785 Y149.358 E14.6906
G1 X182.710 Y149.282 E14.6970
G1 X163.874 Y149.282 E15.8247
G1 X161.149 Y147.996 E16.0051
G1 X153.881 Y139.163 E16.6899
G1 X147.167 Y147.322 E17.3225
G1 X146.192 Y148.133 E17.3984
G1 X140.379 Y151.355 E17.7963
G1 X138.724 Y151.782 E17.8986
G1 X89.086 Y151.782 E20.8704
G1 X89.284 Y151.303 F7200
G92 E0.0000
G1 X85.629 Y147.647 E0.3095 F2400
G1 X85.629 Y122.978 E1.7864
G1 X89.284 Y119.323 E2.0959
G1 X130.391 Y119.323 E4.5568
G1 X130.391 Y116.440 E4.7294
G1 X130.400 Y116.195 E4.7441
G1 X130.505 Y114.870 E4.8236
G1 X130.581 Y114.386 E4.8530
G1 X130.920 Y112.975 E4.9399
G1 X131.072 Y112.508 E4.9693
G1 X131.627 Y111.167 E5.0561
G1 X131.850 Y110.730 E5.0855
G1 X132.608 Y109.493 E5.1724
G1 X132.896 Y109.096 E5.2018
G1 X133.839 Y107.992 E5.2887
G1 X134.186 Y107.646 E5.3180
G1 X135.289 Y106.703 E5.4049
G1 X135.686 Y106.415 E5.4343
G1 X136.924 Y105.656 E5.5212
G1 X137.361 Y105.434 E5.5505
G1 X138.702 Y104.878 E5.6374
G1 X139.168 Y104.727 E5.6668
G1 X140.579 Y104.388 E5.7537
G1 X141.064 Y104.311 E5.7830
G1 X142.511 Y104.198 E5.8699
G1 X143.001 Y104.198 E5.8993
G1 X144.448 Y104.311 E5.9862
G1 X144.932 Y104.388 E6.0155
G1 X146.344 Y104.727 E6.1024
G1 X146.810 Y104.878 E6.1318
G1 X148.151 Y105.434 E6.2187
G1 X148.588 Y105.656 E6.2480
G1 X149.825 Y106.415 E6.3349
G1 X150.222 Y106.703 E6.3643
G1 X151.326 Y107.646 E6.4512
G1 X151.673 Y107.992 E6.4805
G1 X152.615 Y109.096 E6.5674
G1 X152.903 Y109.493 E6.5968
G1 X153.662 Y110.730 E6.6837
G1 X153.881 Y111.160 E6.7126
G1 X154.100 Y110.730 E6.7414
G1 X154.858 Y109.493 E6.8283
G1 X155.146 Y109.096 E6.8577
G1 X156.089 Y107.992 E6.9446
G1 X156.436 Y107.646 E6.9739
G1 X157.540 Y106.703 E7.0608
G1 X157.936 Y106.415 E7.0902
G1 X159.174 Y105.656 E7.1771
G1 X159.611 Y105.434 E7.2065
G1 X160.952 Y104.878 E7.2933
G1 X161.418 Y104.727 E7.3227
G1 X162.829 Y104.388 E7.4096
G1 X163.314 Y104.311 E7.4390
G1 X164.638 Y104.207 E7.5185
G1 X164.883 Y104.198 E7.5332
G1 X182.909 Y104.198 E8.6123
G1 X182.984 Y104.122 E8.6187
G1 X193.153 Y104.122 E9.2275
G1 X193.228 Y104.198 E9.2339
G1 X208.716 Y104.198 E10.1611
G1 X212.371 Y107.853 E10.4705
G1 X212.371 Y145.147 E12.7033
G1 X208.716 Y148.803 E13.0128
G1 X193.228 Y148.803 E13.9400
G1 X193.153 Y148.877 E13.9463
G1 X182.984 Y148.877 E14.5552
G1 X182.909 Y148.803 E14.5615
G1 X163.982 Y148.803 E15.6946
G1 X161.451 Y147.608 E15.8621
G1 X153.881 Y138.408 E16.5754
G1 X146.825 Y146.982 E17.2402
G1 X145.920 Y147.735 E17.3107
G1 X140.199 Y150.905 E17.7023
G1 X138.663 Y151.303 E17.7973
G1 X89.284 Y151.303 E20.7535
G92 E0.0000
G1 E-1.5000 F5100
; feature outer perimeter
G1 X92.109 Y144.822 F7200
G1 E0.0000 F5100
G92 E0.0000
G1 X92.109 Y125.802 E1.1387 F1584
G1 X136.871 Y125.802 E3.8185
G1 X136.871 Y116.572 E4.3711
G1 X136.944 Y115.642 E4.4270
G1 X137.160 Y114.744 E4.4822
G1 X137.513 Y113.891 E4.5375
G1 X137.995 Y113.104 E4.5928
G1 X138.595 Y112.402 E4.6481
G1 X139.297 Y111.802 E4.7034
G1 X140.084 Y111.320 E4.7586
G1 X140.937 Y110.966 E4.8139
G1 X141.835 Y110.751 E4.8692
G1 X142.756 Y110.678 E4.9245
G1 X143.676 Y110.751 E4.9797
G1 X144.574 Y110.966 E5.0350
G1 X145.427 Y111.320 E5.0903
G1 X146.215 Y111.802 E5.1456
G1 X146.917 Y112.402 E5.2009
G1 X147.516 Y113.104 E5.2561
G1 X147.999 Y113.891 E5.3114
G1 X148.352 Y114.744 E5.3667
G1 X148.568 Y115.642 E5.4220
G1 X148.641 Y116.572 E5.4778
G1 X148.641 Y123.802 E5.9107
G1 X159.121 Y123.802 E6.5381
G1 X159.121 Y116.572 E6.9710
G1 X159.194 Y115.642 E7.0269
G1 X159.410 Y114.744 E7.0821
G1 X159.763 Y113.891 E7.1374
G1 X160.245 Y113.104 E7.1927
G1 X160.845 Y112.402 E7.2480
G1 X161.547 Y111.802 E7.3033
G1 X162.334 Y111.320 E7.3585
G1 X163.187 Y110.966 E7.4138
G1 X164.085 Y110.751 E7.4691
G1 X165.015 Y110.677 E7.5249
G1 X185.808 Y110.677 E8.7698
G1 X185.808 Y110.602 E8.7743
G1 X190.328 Y110.602 E9.0449
G1 X190.328 Y110.677 E9.0494
G1 X205.891 Y110.677 E9.9811
G1 X205.891 Y142.322 E11.8756
G1 X190.328 Y142.322 E12.8073
G1 X190.328 Y142.397 E12.8118
G1 X185.808 Y142.397 E13.0824
G1 X185.808 Y142.322 E13.0869
G1 X165.494 Y142.322 E14.3031
G1 X158.468 Y133.784 E14.9650
G1 X157.785 Y133.147 E15.0210
G1 X157.013 Y132.617 E15.0770
G1 X156.170 Y132.209 E15.1331
G1 X155.275 Y131.932 E15.1892
G1 X154.349 Y131.792 E15.2452
G1 X153.413 Y131.792 E15.3013
G1 X152.487 Y131.932 E15.3574
G1 X151.592 Y132.209 E15.4135
G1 X150.749 Y132.617 E15.4695
G1 X149.976 Y133.147 E15.5256
G1 X149.294 Y133.784 E15.5815
G1 X142.225 Y142.375 E16.2476
G1 X137.807 Y144.822 E16.5499
G1 X92.309 Y144.822 E19.2738
G1 X92.109 Y144.822 F1584
G92 E0.0000
G1 X92.109 Y144.357 E-1.5000 F1584
G1 X92.109 Y140.822 F1584
; feature inner perimeter
G1 X92.589 Y144.343 F7200
G1 E0.0000 F5100
G92 E0.0000
G1 X92.589 Y126.282 E1.0812 F1992
G1 X137.351 Y126.282 E3.7610
G1 X137.351 Y116.591 E4.3412
G1 X137.420 Y115.717 E4.3937
G1 X137.617 Y114.893 E4.4445
G1 X137.942 Y114.110 E4.4952
G1 X138.385 Y113.387 E4.5460
G1 X138.935 Y112.742 E4.5967
G1 X139.580 Y112.192 E4.6475
G1 X140.303 Y111.749 E4.6982
G1 X141.086 Y111.424 E4.7490
G1 X141.911 Y111.226 E4.7998
G1 X142.756 Y111.160 E4.8505
G1 X143.601 Y111.226 E4.9013
G1 X144.425 Y111.424 E4.9520
G1 X145.209 Y111.749 E5.0028
G1 X145.932 Y112.192 E5.0535
G1 X146.576 Y112.742 E5.1043
G1 X147.127 Y113.387 E5.1550
G1 X147.570 Y114.110 E5.2058
G1 X147.894 Y114.893 E5.2566
G1 X148.092 Y115.717 E5.3073
G1 X148.161 Y116.591 E5.3598
G1 X148.161 Y124.282 E5.8203
G1 X159.601 Y124.282 E6.5051
G1 X159.601 Y116.591 E6.9656
G1 X159.670 Y115.717 E7.0181
G1 X159.867 Y114.893 E7.0688
G1 X160.192 Y114.110 E7.1196
G1 X160.635 Y113.387 E7.1704
G1 X161.186 Y112.742 E7.2211
G1 X161.830 Y112.192 E7.2719
G1 X162.553 Y111.749 E7.3226
G1 X163.336 Y111.424 E7.3734
G1 X164.161 Y111.226 E7.4241
G1 X165.034 Y111.157 E7.4766
G1 X174.067 Y111.157 E8.0173
G1 X174.144 Y111.466 E8.0364
G1 X173.284 Y111.926 E8.0948
G1 X172.644 Y112.451 E8.1443
G1 X172.119 Y113.091 E8.1939
G1 X171.729 Y113.821 E8.2435
G1 X171.488 Y114.614 E8.2930
G1 X171.411 Y115.402 E8.3405
G1 X171.411 Y137.598 E9.6693
G1 X171.488 Y138.386 E9.7167
G1 X171.729 Y139.179 E9.7663
G1 X172.119 Y139.909 E9.8159
G1 X172.644 Y140.549 E9.8654
G1 X173.284 Y141.074 E9.9150
G1 X174.144 Y141.534 E9.9734
G1 X174.067 Y141.843 E9.9924
G1 X165.721 Y141.843 E10.4921
G1 X158.819 Y133.455 E11.1424
G1 X158.086 Y132.771 E11.2024
G1 X157.254 Y132.201 E11.2627
G1 X156.346 Y131.762 E11.3231
G1 X155.383 Y131.463 E11.3835
G1 X154.385 Y131.312 E11.4439
G1 X153.376 Y131.312 E11.5043
G1 X152.379 Y131.463 E11.5647
G1 X151.416 Y131.762 E11.6251
G1 X150.507 Y132.201 E11.6855
G1 X149.675 Y132.771 E11.7459
G1 X148.943 Y133.455 E11.8059
G1 X141.912 Y141.999 E12.4683
G1 X137.683 Y144.343 E12.7578
G1 X92.789 Y144.343 E15.4455
G1 X92.589 Y144.343 F1992
G92 E0.0000
