; G-Code generated by Simplify3D(R) Version 4.1.2
; Mar 2, 2021 at 12:28:23 AM
; Settings Summary
;   processName,Process1
;   applyToModels,support micrometre
;   profileName,BLV mgn Cube-  Simplify3D Profile
;   profileVersion,2019-01-29 15:16:26
;   baseProfile,Anet A8
;   printMaterial,PLA
;   printQuality,Medium
;   printExtruders,
;   extruderName,Primary Extruder
;   extruderToolheadNumber,0
;   extruderDiameter,0.4
;   extruderAutoWidth,1
;   extruderWidth,0.48
;   extrusionMultiplier,1
;   extruderUseRetract,1
;   extruderRetractionDistance,5.5
;   extruderExtraRestartDistance,-0.1
;   extruderRetractionZLift,0
;   extruderRetractionSpeed,5100
;   extruderUseCoasting,1
;   extruderCoastingDistance,0.2
;   extruderUseWipe,1
;   extruderWipeDistance,4
;   primaryExtruder,0
;   layerHeight,0.2
;   topSolidLayers,3
;   bottomSolidLayers,3
;   perimeterOutlines,3
;   printPerimetersInsideOut,0
;   startPointOption,3
;   startPointOriginX,0
;   startPointOriginY,500
;   sequentialIslands,0
;   spiralVaseMode,0
;   firstLayerHeightPercentage,150
;   firstLayerWidthPercentage,100
;   firstLayerUnderspeed,0.5
;   useRaft,0
;   raftExtruder,0
;   raftTopLayers,3
;   raftBaseLayers,2
;   raftOffset,3
;   raftSeparationDistance,0.14
;   raftTopInfill,100
;   aboveRaftSpeedMultiplier,0.3
;   useSkirt,1
;   skirtExtruder,0
;   skirtLayers,1
;   skirtOutlines,2
;   skirtOffset,6
;   usePrimePillar,0
;   primePillarExtruder,999
;   primePillarWidth,12
;   primePillarLocation,7
;   primePillarSpeedMultiplier,1
;   useOozeShield,0
;   oozeShieldExtruder,999
;   oozeShieldOffset,2
;   oozeShieldOutlines,1
;   oozeShieldSidewallShape,1
;   oozeShieldSidewallAngle,30
;   oozeShieldSpeedMultiplier,1
;   infillExtruder,0
;   internalInfillPattern,Rectilinear
;   externalInfillPattern,Rectilinear
;   infillPercentage,15
;   outlineOverlapPercentage,15
;   infillExtrusionWidthPercentage,100
;   minInfillLength,5
;   infillLayerInterval,1
;   internalInfillAngles,45,-45
;   overlapInternalInfillAngles,0
;   externalInfillAngles,45,-45
;   generateSupport,1
;   supportExtruder,0
;   supportInfillPercentage,30
;   supportExtraInflation,0
;   supportBaseLayers,0
;   denseSupportExtruder,0
;   denseSupportLayers,0
;   denseSupportInfillPercentage,70
;   supportLayerInterval,1
;   supportHorizontalPartOffset,0.4
;   supportUpperSeparationLayers,1
;   supportLowerSeparationLayers,1
;   supportType,0
;   supportGridSpacing,4.5
;   maxOverhangAngle,45
;   supportAngles,45,-45
;   temperatureName,Primary Extruder,Heated Bed
;   temperatureNumber,0,0
;   temperatureSetpointCount,2,1
;   temperatureSetpointLayers,1,2,1
;   temperatureSetpointTemperatures,215,210,70
;   temperatureStabilizeAtStartup,1,1
;   temperatureHeatedBed,0,1
;   fanLayers,1,2
;   fanSpeeds,0,100
;   blipFanToFullPower,1
;   adjustSpeedForCooling,1
;   minSpeedLayerTime,15
;   minCoolingSpeedSlowdown,20
;   increaseFanForCooling,0
;   minFanLayerTime,45
;   maxCoolingFanSpeed,100
;   increaseFanForBridging,1
;   bridgingFanSpeed,100
;   use5D,1
;   relativeEdistances,0
;   allowEaxisZeroing,1
;   independentExtruderAxes,0
;   includeM10123,0
;   stickySupport,1
;   applyToolheadOffsets,0
;   gcodeXoffset,24
;   gcodeYoffset,22
;   gcodeZoffset,0
;   overrideMachineDefinition,1
;   machineTypeOverride,0
;   strokeXoverride,310
;   strokeYoverride,310
;   strokeZoverride,334
;   originOffsetXoverride,0
;   originOffsetYoverride,0
;   originOffsetZoverride,0
;   homeXdirOverride,-1
;   homeYdirOverride,-1
;   homeZdirOverride,-1
;   flipXoverride,1
;   flipYoverride,-1
;   flipZoverride,1
;   toolheadOffsets,0,0|0,0|0,0|0,0|0,0|0,0
;   overrideFirmwareConfiguration,1
;   firmwareTypeOverride,RepRap (Marlin/Repetier/Sprinter)
;   GPXconfigOverride,r2
;   baudRateOverride,115200
;   overridePrinterModels,1
;   printerModelsOverride,Blvfull.stl
;   startingGcode,M291 P"Homing all axis" R"Printing.." S1 T2,G21		; metric values,G28		; home all,M98 P"/macros/load_meshbed"	; load mesh bed corresponding to the temp,M98 P"/macros/set_baby_step"	; set baby step,M98 P"/macros/purge_and_prime"; purge and do the prime line,,G92 E0 F100		; reset extruder,G1 Z10 F3000 		; move z up little to prevent scratching of surface,G92 E0 		; reset extruder,M291 P"Printing started !" R"Printing.." S1 T3
;   layerChangeGcode,
;   retractionGcode,
;   toolChangeGcode,
;   endingGcode,M104 S0 ; turn off extruder,M140 S0 ; turn off bed,M98 P"/macros/remove_baby_step"	; unset baby step,M98 P"/macros/rise30mm",G1 X0 Y300 F1000 ; prepare for part removal,M84 ; disable motors,M106 S0 ;turn off part cooling fan,;M81 ; shutdown,; play song,M300 S294 P200 ;D4: 294,M300 S588 P200 ;D5: 588,M300 S440 P200 ;A4: 440,M300 S392 P200 ;G4: 392,M300 S784 P200 ;G5: 784,M300 S440 P200 ;A4: 440,M300 S740 P200 ;F#5: 740,M300 S440 P200 ;A4: 440,M291 P"Printing finished !" R"Printing.." S1 T0,
;   exportFileFormat,gcode
;   celebration,0
;   celebrationSong,Star Wars
;   postProcessing,
;   defaultSpeed,2400
;   outlineUnderspeed,0.66
;   solidInfillUnderspeed,0.8
;   supportUnderspeed,0.8
;   rapidXYspeed,7200
;   rapidZspeed,1002
;   minBridgingArea,50
;   bridgingExtraInflation,0
;   bridgingExtrusionMultiplier,1
;   bridgingSpeedMultiplier,1
;   useFixedBridgingAngle,0
;   fixedBridgingAngle,0
;   applyBridgingToPerimeters,1
;   filamentDiameters,1.75|1.75|1.75|1.75|1.75|1.75
;   filamentPricesPerKg,110|110|110|110|110|110
;   filamentDensities,1.25|1.25|1.25|1.25|1.25|1.25
;   useMinPrintHeight,0
;   minPrintHeight,0
;   useMaxPrintHeight,0
;   maxPrintHeight,0
;   useDiaphragm,0
;   diaphragmLayerInterval,20
;   robustSlicing,1
;   mergeAllIntoSolid,0
;   onlyRetractWhenCrossingOutline,0
;   retractBetweenLayers,1
;   useRetractionMinTravel,1
;   retractionMinTravel,3
;   retractWhileWiping,1
;   onlyWipeOutlines,1
;   avoidCrossingOutline,1
;   maxMovementDetourFactor,3
;   toolChangeRetractionDistance,12
;   toolChangeExtraRestartDistance,-0.5
;   toolChangeRetractionSpeed,600
;   externalThinWallType,0
;   internalThinWallType,2
;   thinWallAllowedOverlapPercentage,15
;   singleExtrusionMinLength,1
;   singleExtrusionMinPrintingWidthPercentage,50
;   singleExtrusionMaxPrintingWidthPercentage,200
;   singleExtrusionEndpointExtension,0.2
;   horizontalSizeCompensation,0
G90
M82
M106 S0
M140 S70
M190 S70
M104 S215 T0
M109 S215 T0
M291 P"Homing all axis" R"Printing.." S1 T2
G21		; metric values
G28		; home all
M98 P"/macros/load_meshbed"	; load mesh bed corresponding to the temp
M98 P"/macros/set_baby_step"	; set baby step
M98 P"/macros/purge_and_prime"; purge and do the prime line
G92 E0 F100		; reset extruder
G1 Z10 F3000 		; move z up little to prevent scratching of surface
G92 E0 		; reset extruder
M291 P"Printing started !" R"Printing.." S1 T3
; process Process1
; layer 1, Z = 0.300
T0
G92 E0.0000
G1 E-5.5000 F5100
; feature skirt
; tool H0.300 W0.480
G1 Z0.300 F1002
G1 X156.716 Y212.068 F7200
G1 E-0.1000 F5100
G92 E0.0000
G1 X152.780 Y208.132 E0.3333 F1200
G1 X152.780 Y188.440 E1.5122
G1 X143.147 Y188.440 E2.0889
G1 X139.210 Y184.503 E2.4222
G1 X139.210 Y160.496 E3.8595
G1 X143.147 Y156.560 E4.1928
G1 X152.780 Y156.560 E4.7695
G1 X152.780 Y145.868 E5.4096
G1 X156.716 Y141.932 E5.7429
G1 X166.784 Y141.932 E6.3456
G1 X170.720 Y145.868 E6.6789
G1 X170.720 Y193.164 E9.5104
G1 X181.784 Y193.164 E10.1727
G1 X185.720 Y197.100 E10.5060
G1 X185.720 Y208.132 E11.1664
G1 X181.784 Y212.068 E11.4997
G1 X156.716 Y212.068 E13.0004
G1 X156.915 Y211.588 F7200
G92 E0.0000
G1 X153.260 Y207.933 E0.3095 F1200
G1 X153.260 Y187.960 E1.5052
G1 X143.345 Y187.960 E2.0988
G1 X139.690 Y184.305 E2.4083
G1 X139.690 Y160.695 E3.8217
G1 X143.345 Y157.040 E4.1312
G1 X153.260 Y157.040 E4.7248
G1 X153.260 Y146.067 E5.3817
G1 X156.915 Y142.412 E5.6912
G1 X166.585 Y142.412 E6.2701
G1 X170.240 Y146.067 E6.5796
G1 X170.240 Y193.644 E9.4279
G1 X181.585 Y193.644 E10.1071
G1 X185.240 Y197.299 E10.4166
G1 X185.240 Y207.933 E11.0532
G1 X181.585 Y211.588 E11.3627
G1 X156.915 Y211.588 E12.8396
G92 E0.0000
G1 E-5.5000 F5100
; feature outer perimeter
G1 X159.740 Y205.108 F7200
G1 E-0.1000 F5100
G92 E0.0000
G1 X159.740 Y148.892 E3.3656 F792
G1 X163.760 Y148.892 E3.6062
G1 X163.760 Y200.124 E6.6734
G1 X178.760 Y200.124 E7.5714
G1 X178.760 Y205.108 E7.8698
G1 X159.940 Y205.108 E8.9965
G1 X159.740 Y205.108 F792
G92 E0.0000
G1 X159.740 Y204.254 E-5.5000 F792
G1 X159.740 Y201.108 F792
; feature inner perimeter
G1 X160.220 Y204.628 F7200
G1 E-0.1000 F5100
G92 E0.0000
G1 X160.220 Y149.372 E3.3081 F996
G1 X163.280 Y149.372 E3.4913
G1 X163.280 Y200.604 E6.5585
G1 X178.280 Y200.604 E7.4565
G1 X178.280 Y204.628 E7.6974
G1 X160.420 Y204.628 E8.7667
G1 X160.220 Y204.628 F996
G1 X160.700 Y204.148 F7200
G92 E0.0000
G1 X160.700 Y149.852 E3.2506 F996
G1 X162.800 Y149.852 E3.3763
G1 X162.800 Y201.084 E6.4435
G1 X177.800 Y201.084 E7.3415
G1 X177.800 Y204.148 E7.5250
G1 X160.900 Y204.148 E8.5368
G1 X160.700 Y204.148 F996
; feature solid layer
G1 X161.487 Y203.740 F7200
G92 E0.0000
G1 X161.108 Y203.361 E0.0321 F960
G1 X161.108 Y202.682 E0.0727
G1 X162.166 Y203.740 E0.1623
G1 X162.845 Y203.740 E0.2030
G1 X161.108 Y202.003 E0.3500
G1 X161.108 Y201.324 E0.3907
G1 X163.524 Y203.740 E0.5952
G1 X164.203 Y203.740 E0.6358
G1 X161.108 Y200.646 E0.8978
G1 X161.108 Y199.967 E0.9385
G1 X162.392 Y201.251 E1.0472
G1 X162.392 Y200.572 E1.0878
G1 X161.108 Y199.288 E1.1965
G1 X161.108 Y198.609 E1.2372
G1 X162.392 Y199.893 E1.3459
G1 X162.392 Y199.214 E1.3865
G1 X161.108 Y197.930 E1.4952
G1 X161.108 Y197.251 E1.5359
G1 X162.392 Y198.535 E1.6446
G1 X162.392 Y197.857 E1.6852
G1 X161.108 Y196.573 E1.7939
G1 X161.108 Y195.894 E1.8346
G1 X162.392 Y197.178 E1.9433
G1 X162.392 Y196.499 E1.9839
G1 X161.108 Y195.215 E2.0926
G1 X161.108 Y194.536 E2.1333
G1 X162.392 Y195.820 E2.2420
G1 X162.392 Y195.141 E2.2826
G1 X161.108 Y193.857 E2.3913
G1 X161.108 Y193.179 E2.4320
G1 X162.392 Y194.463 E2.5407
G1 X162.392 Y193.784 E2.5813
G1 X161.108 Y192.500 E2.6900
G1 X161.108 Y191.821 E2.7307
G1 X162.392 Y193.105 E2.8394
G1 X162.392 Y192.426 E2.8800
G1 X161.108 Y191.142 E2.9888
G1 X161.108 Y190.463 E3.0294
G1 X162.392 Y191.747 E3.1381
G1 X162.392 Y191.068 E3.1787
G1 X161.108 Y189.784 E3.2875
G1 X161.108 Y189.106 E3.3281
G1 X162.392 Y190.390 E3.4368
G1 X162.392 Y189.711 E3.4774
G1 X161.108 Y188.427 E3.5862
G1 X161.108 Y187.748 E3.6268
G1 X162.392 Y189.032 E3.7355
G1 X162.392 Y188.353 E3.7762
G1 X161.108 Y187.069 E3.8849
G1 X161.108 Y186.390 E3.9255
G1 X162.392 Y187.674 E4.0342
G1 X162.392 Y186.996 E4.0749
G1 X161.108 Y185.712 E4.1836
G1 X161.108 Y185.033 E4.2242
G1 X162.392 Y186.317 E4.3329
G1 X162.392 Y185.638 E4.3736
G1 X161.108 Y184.354 E4.4823
G1 X161.108 Y183.675 E4.5229
G1 X162.392 Y184.959 E4.6316
G1 X162.392 Y184.280 E4.6723
G1 X161.108 Y182.996 E4.7810
G1 X161.108 Y182.317 E4.8216
G1 X162.392 Y183.601 E4.9303
G1 X162.392 Y182.923 E4.9710
G1 X161.108 Y181.639 E5.0797
G1 X161.108 Y180.960 E5.1203
G1 X162.392 Y182.244 E5.2290
G1 X162.392 Y181.565 E5.2697
G1 X161.108 Y180.281 E5.3784
G1 X161.108 Y179.602 E5.4190
G1 X162.392 Y180.886 E5.5277
G1 X162.392 Y180.207 E5.5684
G1 X161.108 Y178.923 E5.6771
G1 X161.108 Y178.244 E5.7177
G1 X162.392 Y179.528 E5.8264
G1 X162.392 Y178.850 E5.8671
G1 X161.108 Y177.566 E5.9758
G1 X161.108 Y176.887 E6.0164
G1 X162.392 Y178.171 E6.1251
G1 X162.392 Y177.492 E6.1658
G1 X161.108 Y176.208 E6.2745
G1 X161.108 Y175.529 E6.3151
G1 X162.392 Y176.813 E6.4238
G1 X162.392 Y176.134 E6.4645
G1 X161.108 Y174.850 E6.5732
G1 X161.108 Y174.172 E6.6138
G1 X162.392 Y175.456 E6.7225
G1 X162.392 Y174.777 E6.7632
G1 X161.108 Y173.493 E6.8719
G1 X161.108 Y172.814 E6.9125
G1 X162.392 Y174.098 E7.0212
G1 X162.392 Y173.419 E7.0619
G1 X161.108 Y172.135 E7.1706
G1 X161.108 Y171.456 E7.2112
G1 X162.392 Y172.740 E7.3200
G1 X162.392 Y172.061 E7.3606
G1 X161.108 Y170.777 E7.4693
G1 X161.108 Y170.099 E7.5099
G1 X162.392 Y171.383 E7.6187
G1 X162.392 Y170.704 E7.6593
G1 X161.108 Y169.420 E7.7680
G1 X161.108 Y168.741 E7.8086
G1 X162.392 Y170.025 E7.9174
G1 X162.392 Y169.346 E7.9580
G1 X161.108 Y168.062 E8.0667
G1 X161.108 Y167.383 E8.1073
G1 X162.392 Y168.667 E8.2161
G1 X162.392 Y167.988 E8.2567
G1 X161.108 Y166.704 E8.3654
G1 X161.108 Y166.026 E8.4061
G1 X162.392 Y167.310 E8.5148
G1 X162.392 Y166.631 E8.5554
G1 X161.108 Y165.347 E8.6641
G1 X161.108 Y164.668 E8.7048
G1 X162.392 Y165.952 E8.8135
G1 X162.392 Y165.273 E8.8541
G1 X161.108 Y163.989 E8.9628
G1 X161.108 Y163.310 E9.0035
G1 X162.392 Y164.594 E9.1122
G1 X162.392 Y163.916 E9.1528
G1 X161.108 Y162.632 E9.2615
G1 X161.108 Y161.953 E9.3022
G1 X162.392 Y163.237 E9.4109
G1 X162.392 Y162.558 E9.4515
G1 X161.108 Y161.274 E9.5602
G1 X161.108 Y160.595 E9.6009
G1 X162.392 Y161.879 E9.7096
G1 X162.392 Y161.200 E9.7502
G1 X161.108 Y159.916 E9.8589
G1 X161.108 Y159.237 E9.8996
G1 X162.392 Y160.521 E10.0083
G1 X162.392 Y159.843 E10.0489
G1 X161.108 Y158.559 E10.1576
G1 X161.108 Y157.880 E10.1983
G1 X162.392 Y159.164 E10.3070
G1 X162.392 Y158.485 E10.3476
G1 X161.108 Y157.201 E10.4563
G1 X161.108 Y156.522 E10.4970
G1 X162.392 Y157.806 E10.6057
G1 X162.392 Y157.127 E10.6463
G1 X161.108 Y155.843 E10.7550
G1 X161.108 Y155.164 E10.7957
G1 X162.392 Y156.448 E10.9044
G1 X162.392 Y155.770 E10.9450
G1 X161.108 Y154.486 E11.0537
G1 X161.108 Y153.807 E11.0944
G1 X162.392 Y155.091 E11.2031
G1 X162.392 Y154.412 E11.2437
G1 X161.108 Y153.128 E11.3524
G1 X161.108 Y152.449 E11.3931
G1 X162.392 Y153.733 E11.5018
G1 X162.392 Y153.054 E11.5424
G1 X161.108 Y151.770 E11.6512
G1 X161.108 Y151.092 E11.6918
G1 X162.392 Y152.376 E11.8005
G1 X162.392 Y151.697 E11.8411
G1 X161.108 Y150.413 E11.9499
G1 X161.108 Y150.260 E11.9590
G1 X161.634 Y150.260 E11.9905
G1 X162.392 Y151.018 E12.0547
G1 X162.392 Y150.427 E12.0900
G1 X162.392 Y150.339 F960
G1 X162.313 Y150.260
G92 E0.0000
G1 E-5.5000 F5100
G1 X162.633 Y201.492 F7200
G1 E-0.1000 F5100
G92 E0.0000
G1 X164.881 Y203.740 E0.1903 F960
G1 X165.560 Y203.740 E0.2310
G1 X163.312 Y201.492 E0.4213
G1 X163.991 Y201.492 E0.4620
G1 X166.239 Y203.740 E0.6523
G1 X166.918 Y203.740 E0.6930
G1 X164.670 Y201.492 E0.8833
G1 X165.348 Y201.492 E0.9240
G1 X167.597 Y203.740 E1.1143
G1 X168.275 Y203.740 E1.1549
G1 X166.027 Y201.492 E1.3453
G1 X166.706 Y201.492 E1.3859
G1 X168.954 Y203.740 E1.5763
G1 X169.633 Y203.740 E1.6169
G1 X167.385 Y201.492 E1.8073
G1 X168.064 Y201.492 E1.8479
G1 X170.312 Y203.740 E2.0383
G1 X170.991 Y203.740 E2.0789
G1 X168.743 Y201.492 E2.2693
G1 X169.421 Y201.492 E2.3099
G1 X171.670 Y203.740 E2.5002
G1 X172.348 Y203.740 E2.5409
G1 X170.100 Y201.492 E2.7312
G1 X170.779 Y201.492 E2.7719
G1 X173.027 Y203.740 E2.9622
G1 X173.706 Y203.740 E3.0029
G1 X171.458 Y201.492 E3.1932
G1 X172.137 Y201.492 E3.2339
G1 X174.385 Y203.740 E3.4242
G1 X175.064 Y203.740 E3.4648
G1 X172.815 Y201.492 E3.6552
G1 X173.494 Y201.492 E3.6958
G1 X175.742 Y203.740 E3.8862
G1 X176.421 Y203.740 E3.9268
G1 X174.173 Y201.492 E4.1172
G1 X174.852 Y201.492 E4.1578
G1 X177.100 Y203.740 E4.3482
G1 X177.392 Y203.740 E4.3656
G1 X177.392 Y203.353 E4.3888
G1 X175.531 Y201.492 E4.5464
G1 X176.210 Y201.492 E4.5870
G1 X177.392 Y202.674 E4.6871
G1 X177.392 Y201.996 E4.7278
G1 X177.030 Y201.633 E4.7585
G1 X176.888 Y201.492 F960
G92 E0.0000
G1 E-5.5000 F5100
; feature support
G1 X174.935 Y200.124 F7200
G1 X163.760 Y200.124
G1 X163.760 Y192.299
G1 X148.294 Y181.470
G1 E-0.1000 F5100
G92 E0.0000
G1 X146.180 Y179.356 E0.1789 F960
G1 X146.180 Y177.094 E0.3144
G1 X150.556 Y181.470 E0.6849
G1 X152.819 Y181.470 E0.8204
G1 X146.180 Y174.831 E1.3825
