; G-Code generated by Simplify3D(R) Version 4.1.2
; Mar 13, 2021 at 7:03:17 PM
; Settings Summary
;   processName,Process1
;   applyToModels,3DBenchy
;   profileName,BLV mgn Cube-  Simplify3D Profile (modified)
;   profileVersion,2021-03-08 23:49:49
;   baseProfile,Anet A8
;   printMaterial,PLA
;   printQuality,Medium
;   printExtruders,
;   extruderName,Primary Extruder
;   extruderToolheadNumber,0
;   extruderDiameter,0.4
;   extruderAutoWidth,1
;   extruderWidth,0.48
;   extrusionMultiplier,1
;   extruderUseRetract,1
;   extruderRetractionDistance,1.5
;   extruderExtraRestartDistance,0
;   extruderRetractionZLift,0
;   extruderRetractionSpeed,5100
;   extruderUseCoasting,1
;   extruderCoastingDistance,0.2
;   extruderUseWipe,1
;   extruderWipeDistance,4
;   primaryExtruder,0
;   layerHeight,0.2
;   topSolidLayers,4
;   bottomSolidLayers,4
;   perimeterOutlines,4
;   printPerimetersInsideOut,0
;   startPointOption,3
;   startPointOriginX,0
;   startPointOriginY,500
;   sequentialIslands,0
;   spiralVaseMode,0
;   firstLayerHeightPercentage,150
;   firstLayerWidthPercentage,100
;   firstLayerUnderspeed,0.4
;   useRaft,0
;   raftExtruder,0
;   raftTopLayers,3
;   raftBaseLayers,2
;   raftOffset,3
;   raftSeparationDistance,0.14
;   raftTopInfill,100
;   aboveRaftSpeedMultiplier,0.3
;   useSkirt,1
;   skirtExtruder,0
;   skirtLayers,1
;   skirtOutlines,2
;   skirtOffset,6
;   usePrimePillar,0
;   primePillarExtruder,999
;   primePillarWidth,12
;   primePillarLocation,7
;   primePillarSpeedMultiplier,1
;   useOozeShield,0
;   oozeShieldExtruder,999
;   oozeShieldOffset,2
;   oozeShieldOutlines,1
;   oozeShieldSidewallShape,1
;   oozeShieldSidewallAngle,30
;   oozeShieldSpeedMultiplier,1
;   infillExtruder,0
;   internalInfillPattern,Rectilinear
;   externalInfillPattern,Rectilinear
;   infillPercentage,15
;   outlineOverlapPercentage,15
;   infillExtrusionWidthPercentage,100
;   minInfillLength,5
;   infillLayerInterval,1
;   internalInfillAngles,45,-45
;   overlapInternalInfillAngles,0
;   externalInfillAngles,45,-45
;   generateSupport,0
;   supportExtruder,0
;   supportInfillPercentage,30
;   supportExtraInflation,0
;   supportBaseLayers,0
;   denseSupportExtruder,0
;   denseSupportLayers,0
;   denseSupportInfillPercentage,70
;   supportLayerInterval,1
;   supportHorizontalPartOffset,0.4
;   supportUpperSeparationLayers,1
;   supportLowerSeparationLayers,1
;   supportType,0
;   supportGridSpacing,4.5
;   maxOverhangAngle,45
;   supportAngles,45,-45
;   temperatureName,Primary Extruder,Heated Bed
;   temperatureNumber,0,0
;   temperatureSetpointCount,2,1
;   temperatureSetpointLayers,1,2,1
;   temperatureSetpointTemperatures,215,210,60
;   temperatureStabilizeAtStartup,1,1
;   temperatureHeatedBed,0,1
;   fanLayers,1,2
;   fanSpeeds,0,100
;   blipFanToFullPower,1
;   adjustSpeedForCooling,1
;   minSpeedLayerTime,15
;   minCoolingSpeedSlowdown,20
;   increaseFanForCooling,0
;   minFanLayerTime,45
;   maxCoolingFanSpeed,100
;   increaseFanForBridging,1
;   bridgingFanSpeed,100
;   use5D,1
;   relativeEdistances,0
;   allowEaxisZeroing,1
;   independentExtruderAxes,0
;   includeM10123,0
;   stickySupport,1
;   applyToolheadOffsets,0
;   gcodeXoffset,24
;   gcodeYoffset,22
;   gcodeZoffset,0
;   overrideMachineDefinition,1
;   machineTypeOverride,0
;   strokeXoverride,310
;   strokeYoverride,310
;   strokeZoverride,334
;   originOffsetXoverride,0
;   originOffsetYoverride,0
;   originOffsetZoverride,0
;   homeXdirOverride,-1
;   homeYdirOverride,-1
;   homeZdirOverride,-1
;   flipXoverride,1
;   flipYoverride,-1
;   flipZoverride,1
;   toolheadOffsets,0,0|0,0|0,0|0,0|0,0|0,0
;   overrideFirmwareConfiguration,1
;   firmwareTypeOverride,RepRap (Marlin/Repetier/Sprinter)
;   GPXconfigOverride,r2
;   baudRateOverride,115200
;   overridePrinterModels,1
;   printerModelsOverride,Blvfull.stl
;   startingGcode,M291 P"Homing all axis" R"Printing.." S1 T2,G21		; metric values,G28		; home all,M98 P"/macros/load_meshbed"	; load mesh bed corresponding to the temp,M98 P"/macros/set_baby_step"	; set baby step,M98 P"/macros/purge_and_prime"; purge and do the prime line,,G92 E0 F100		; reset extruder,G1 Z10 F3000 		; move z up little to prevent scratching of surface,G92 E0 		; reset extruder,M291 P"Printing started !" R"Printing.." S1 T3
;   layerChangeGcode,
;   retractionGcode,
;   toolChangeGcode,
;   endingGcode,M104 S0 ; turn off extruder,M140 S0 ; turn off bed,M98 P"/macros/remove_baby_step"	; unset baby step,M98 P"/macros/rise30mm",G1 X0 Y300 F1000 ; prepare for part removal,M84 ; disable motors,M106 S0 ;turn off part cooling fan,;M81 ; shutdown,; play song,M300 S294 P200 ;D4: 294,M300 S588 P200 ;D5: 588,M300 S440 P200 ;A4: 440,M300 S392 P200 ;G4: 392,M300 S784 P200 ;G5: 784,M300 S440 P200 ;A4: 440,M300 S740 P200 ;F#5: 740,M300 S440 P200 ;A4: 440,M291 P"Printing finished !" R"Printing.." S1 T0,
;   exportFileFormat,gcode
;   celebration,0
;   celebrationSong,Star Wars
;   postProcessing,
;   defaultSpeed,6000
;   outlineUnderspeed,0.66
;   solidInfillUnderspeed,0.8
;   supportUnderspeed,0.8
;   rapidXYspeed,7200
;   rapidZspeed,1002
;   minBridgingArea,50
;   bridgingExtraInflation,0
;   bridgingExtrusionMultiplier,1
;   bridgingSpeedMultiplier,1
;   useFixedBridgingAngle,0
;   fixedBridgingAngle,0
;   applyBridgingToPerimeters,1
;   filamentDiameters,1.75|1.75|1.75|1.75|1.75|1.75
;   filamentPricesPerKg,30|110|110|110|110|110
;   filamentDensities,1.25|1.25|1.25|1.25|1.25|1.25
;   useMinPrintHeight,0
;   minPrintHeight,0
;   useMaxPrintHeight,0
;   maxPrintHeight,0
;   useDiaphragm,0
;   diaphragmLayerInterval,20
;   robustSlicing,1
;   mergeAllIntoSolid,0
;   onlyRetractWhenCrossingOutline,0
;   retractBetweenLayers,1
;   useRetractionMinTravel,1
;   retractionMinTravel,3
;   retractWhileWiping,1
;   onlyWipeOutlines,1
;   avoidCrossingOutline,1
;   maxMovementDetourFactor,3
;   toolChangeRetractionDistance,12
;   toolChangeExtraRestartDistance,-0.5
;   toolChangeRetractionSpeed,600
;   externalThinWallType,1
;   internalThinWallType,2
;   thinWallAllowedOverlapPercentage,15
;   singleExtrusionMinLength,1
;   singleExtrusionMinPrintingWidthPercentage,50
;   singleExtrusionMaxPrintingWidthPercentage,200
;   singleExtrusionEndpointExtension,0.2
;   horizontalSizeCompensation,0
G90
M82
M106 S0
M140 S60
M190 S60
M104 S215 T2
M109 S215 T2
M291 P"Homing all axis" R"Printing.." S1 T2
G21		; metric values
G28		; home all
G1 Z5 F5000 ; lift nozzle
M98 P"/sys/load_meshbed.g"	; load mesh bed corresponding to the temp
G92 E0 F100		; reset extruder
G1 Z10 F3000 		; move z up little to prevent scratching of surface
G92 E0 		; reset extruder
M291 P"Printing started !" R"Printing.." S1 T3
; process Process1
; layer 1, Z = 0.300
T2
M98 P"/macros/purge_and_wipe"; purge and wipe residu
; Filament gcode
M98 P"/macros/set_baby_step"	; set baby step
M98 P"/macros/prime_line"                  ; do the prime line
G92 E0.0000
G1 E-1.5000 F5100
; feature skirt
; tool H0.300 W0.480
G1 Z0.300 F1002
G1 X151.922 Y189.887 F7200
G1 E0.0000 F5100
G92 E0.0000
G1 X151.375 Y189.668 E0.0353 F2400
G1 X150.569 Y189.259 E0.0894
G1 X149.957 Y188.861 E0.1331
G1 X148.971 Y188.054 E0.2094
G1 X148.382 Y187.431 E0.2607
G1 X147.745 Y186.558 E0.3254
G1 X147.439 Y186.048 E0.3610
G1 X147.076 Y185.304 E0.4106
G1 X146.870 Y184.768 E0.4449
G1 X146.597 Y183.826 E0.5037
G1 X146.477 Y183.197 E0.5420
G1 X146.398 Y182.337 E0.5937
G1 X146.384 Y182.027 E0.6123
G1 X146.388 Y171.688 E1.2313
G1 X146.445 Y171.070 E1.2684
G1 X146.679 Y169.818 E1.3447
G1 X146.962 Y168.961 E1.3987
G1 X147.580 Y167.690 E1.4833
G1 X148.113 Y166.902 E1.5403
G1 X148.990 Y165.934 E1.6185
G1 X149.542 Y165.444 E1.6626
G1 X150.303 Y164.905 E1.7185
G1 X150.837 Y164.597 E1.7554
G1 X151.812 Y164.147 E1.8197
G1 X152.584 Y163.898 E1.8683
G1 X153.689 Y163.684 E1.9356
G1 X154.123 Y163.629 E1.9619
G1 X177.832 Y162.179 E3.3839
G1 X177.994 Y162.173 E3.3936
G1 X179.657 Y162.152 E3.4932
G1 X179.996 Y162.165 E3.5135
G1 X181.890 Y162.332 E3.6273
G1 X182.172 Y162.369 E3.6444
G1 X183.337 Y162.573 E3.7152
G1 X183.552 Y162.618 E3.7283
G1 X184.764 Y162.912 E3.8030
G1 X184.975 Y162.971 E3.8161
G1 X186.111 Y163.327 E3.8874
G1 X186.311 Y163.396 E3.9001
G1 X187.349 Y163.795 E3.9666
G1 X187.558 Y163.883 E3.9802
G1 X188.768 Y164.445 E4.0601
G1 X188.963 Y164.543 E4.0731
G1 X189.895 Y165.051 E4.1366
G1 X190.081 Y165.160 E4.1496
G1 X191.176 Y165.852 E4.2271
G1 X191.360 Y165.977 E4.2404
G1 X192.300 Y166.663 E4.3101
G1 X192.487 Y166.809 E4.3243
G1 X193.534 Y167.692 E4.4063
G1 X193.701 Y167.842 E4.4198
G1 X194.486 Y168.600 E4.4851
G1 X194.645 Y168.763 E4.4987
G1 X195.575 Y169.791 E4.5817
G1 X195.714 Y169.955 E4.5946
G1 X196.300 Y170.692 E4.6509
G1 X196.394 Y170.816 E4.6602
G1 X196.871 Y171.477 E4.7091
G1 X196.988 Y171.650 E4.7216
G1 X197.788 Y172.917 E4.8112
G1 X197.978 Y173.261 E4.8348
G1 X198.305 Y173.945 E4.8802
G1 X198.544 Y174.623 E4.9232
G1 X198.829 Y175.826 E4.9972
G1 X198.914 Y176.809 E5.0563
G1 X198.838 Y178.045 E5.1304
G1 X198.707 Y178.794 E5.1760
G1 X198.432 Y179.723 E5.2340
G1 X198.154 Y180.393 E5.2774
G1 X197.629 Y181.346 E5.3426
G1 X197.494 Y181.571 E5.3583
G1 X196.838 Y182.571 E5.4299
G1 X196.698 Y182.769 E5.4444
G1 X195.839 Y183.891 E5.5290
G1 X195.700 Y184.061 E5.5421
G1 X195.048 Y184.809 E5.6015
G1 X194.911 Y184.956 E5.6136
G1 X194.052 Y185.828 E5.6868
G1 X193.899 Y185.973 E5.6994
G1 X193.096 Y186.692 E5.7640
G1 X192.935 Y186.827 E5.7766
G1 X192.000 Y187.563 E5.8478
G1 X191.832 Y187.688 E5.8603
G1 X190.931 Y188.311 E5.9259
G1 X190.762 Y188.421 E5.9380
G1 X189.838 Y188.980 E6.0027
G1 X189.670 Y189.076 E6.0142
G1 X188.710 Y189.585 E6.0793
G1 X188.536 Y189.670 E6.0909
G1 X187.620 Y190.091 E6.1512
G1 X187.434 Y190.169 E6.1633
G1 X186.337 Y190.595 E6.2338
G1 X186.145 Y190.662 E6.2459
G1 X185.175 Y190.973 E6.3069
G1 X184.991 Y191.026 E6.3184
G1 X183.983 Y191.286 E6.3807
G1 X183.808 Y191.326 E6.3914
G1 X182.838 Y191.522 E6.4507
G1 X182.653 Y191.554 E6.4619
G1 X181.647 Y191.699 E6.5228
G1 X181.463 Y191.721 E6.5339
G1 X180.451 Y191.810 E6.5947
G1 X180.266 Y191.822 E6.6058
G1 X179.273 Y191.855 E6.6652
G1 X179.085 Y191.856 E6.6766
G1 X178.080 Y191.833 E6.7367
G1 X177.952 Y191.827 E6.7444
G1 X154.239 Y190.379 E8.1667
G1 X154.032 Y190.360 E8.1791
G1 X153.392 Y190.281 E8.2177
G1 X152.830 Y190.162 E8.2521
G1 X151.922 Y189.887 E8.3089
G1 X152.081 Y189.434 F7200
G92 E0.0000
G1 X151.573 Y189.230 E0.0328 F2400
G1 X150.809 Y188.843 E0.0841
G1 X150.241 Y188.473 E0.1246
G1 X149.299 Y187.702 E0.1976
G1 X148.752 Y187.123 E0.2452
G1 X148.146 Y186.292 E0.3068
G1 X147.861 Y185.819 E0.3399
G1 X147.517 Y185.112 E0.3869
G1 X147.325 Y184.615 E0.4188
G1 X147.064 Y183.714 E0.4750
G1 X146.953 Y183.130 E0.5106
G1 X146.877 Y182.304 E0.5602
G1 X146.864 Y182.016 E0.5775
G1 X146.868 Y171.710 E1.1945
G1 X146.921 Y171.137 E1.2289
G1 X147.145 Y169.938 E1.3020
G1 X147.408 Y169.142 E1.3521
G1 X147.997 Y167.931 E1.4328
G1 X148.492 Y167.199 E1.4857
G1 X149.328 Y166.275 E1.5603
G1 X149.840 Y165.821 E1.6013
G1 X150.562 Y165.310 E1.6542
G1 X151.058 Y165.024 E1.6885
G1 X151.987 Y164.595 E1.7498
G1 X152.704 Y164.363 E1.7949
G1 X153.765 Y164.158 E1.8595
G1 X154.168 Y164.107 E1.8839
G1 X177.855 Y162.659 E3.3047
G1 X178.006 Y162.653 E3.3137
G1 X179.651 Y162.632 E3.4121
G1 X179.965 Y162.644 E3.4310
G1 X181.837 Y162.809 E3.5435
G1 X182.100 Y162.844 E3.5593
G1 X183.247 Y163.044 E3.6291
G1 X183.447 Y163.086 E3.6413
G1 X184.643 Y163.377 E3.7150
G1 X184.839 Y163.431 E3.7272
G1 X185.960 Y163.782 E3.7975
G1 X186.146 Y163.847 E3.8093
G1 X187.169 Y164.240 E3.8749
G1 X187.364 Y164.322 E3.8876
G1 X188.559 Y164.877 E3.9665
G1 X188.740 Y164.968 E3.9786
G1 X189.658 Y165.469 E4.0412
G1 X189.831 Y165.570 E4.0532
G1 X190.912 Y166.254 E4.1298
G1 X191.084 Y166.370 E4.1422
G1 X192.011 Y167.046 E4.2109
G1 X192.184 Y167.182 E4.2240
G1 X193.218 Y168.054 E4.3050
G1 X193.374 Y168.194 E4.3175
G1 X194.147 Y168.940 E4.3819
G1 X194.294 Y169.091 E4.3945
G1 X195.214 Y170.108 E4.4766
G1 X195.343 Y170.260 E4.4886
G1 X195.921 Y170.986 E4.5441
G1 X196.008 Y171.101 E4.5527
G1 X196.478 Y171.752 E4.6008
G1 X196.587 Y171.913 E4.6124
G1 X197.375 Y173.161 E4.7008
G1 X197.551 Y173.481 E4.7227
G1 X197.861 Y174.129 E4.7657
G1 X198.083 Y174.758 E4.8056
G1 X198.354 Y175.902 E4.8760
G1 X198.432 Y176.815 E4.9308
G1 X198.361 Y177.989 E5.0012
G1 X198.239 Y178.685 E5.0436
G1 X197.979 Y179.563 E5.0984
G1 X197.720 Y180.184 E5.1387
G1 X197.213 Y181.107 E5.2017
G1 X197.088 Y181.316 E5.2163
G1 X196.441 Y182.301 E5.2868
G1 X196.311 Y182.484 E5.3003
G1 X195.463 Y183.594 E5.3839
G1 X195.334 Y183.751 E5.3961
G1 X194.691 Y184.487 E5.4546
G1 X194.564 Y184.624 E5.4658
G1 X193.715 Y185.485 E5.5382
G1 X193.574 Y185.620 E5.5499
G1 X192.782 Y186.329 E5.6135
G1 X192.632 Y186.455 E5.6252
G1 X191.709 Y187.182 E5.6955
G1 X191.553 Y187.297 E5.7072
G1 X190.664 Y187.912 E5.7719
G1 X190.507 Y188.014 E5.7831
G1 X189.595 Y188.566 E5.8469
G1 X189.439 Y188.655 E5.8577
G1 X188.491 Y189.158 E5.9219
G1 X188.330 Y189.237 E5.9327
G1 X187.426 Y189.651 E5.9922
G1 X187.254 Y189.724 E6.0034
G1 X186.170 Y190.145 E6.0730
G1 X185.992 Y190.207 E6.0843
G1 X185.035 Y190.514 E6.1444
G1 X184.865 Y190.563 E6.1550
G1 X183.870 Y190.820 E6.2166
G1 X183.707 Y190.857 E6.2266
G1 X182.750 Y191.050 E6.2850
G1 X182.578 Y191.080 E6.2955
G1 X181.585 Y191.223 E6.3555
G1 X181.414 Y191.243 E6.3658
G1 X180.415 Y191.332 E6.4259
G1 X180.244 Y191.342 E6.4362
G1 X179.264 Y191.375 E6.4948
G1 X179.089 Y191.376 E6.5053
G1 X178.096 Y191.353 E6.5648
G1 X177.977 Y191.348 E6.5719
G1 X154.275 Y189.900 E7.9935
G1 X154.084 Y189.882 E8.0050
G1 X153.472 Y189.807 E8.0420
G1 X152.949 Y189.696 E8.0739
G1 X152.081 Y189.434 E8.1282
G92 E0.0000
G1 E-1.5000 F5100
; feature outer perimeter
G1 X154.239 Y183.317 F7200
G1 E0.0000 F5100
G92 E0.0000
G1 X154.055 Y183.224 E0.0123 F1584
G1 X153.879 Y183.099 E0.0252
G1 X153.741 Y182.967 E0.0367
G1 X153.557 Y182.715 E0.0554
G1 X153.469 Y182.533 E0.0675
G1 X153.376 Y182.215 E0.0873
G1 X153.344 Y181.863 E0.1085
G1 X153.348 Y172.015 E0.6980
G1 X153.376 Y171.784 E0.7120
G1 X153.430 Y171.571 E0.7251
G1 X153.510 Y171.374 E0.7379
G1 X153.614 Y171.194 E0.7503
G1 X153.738 Y171.035 E0.7624
G1 X153.877 Y170.902 E0.7739
G1 X154.058 Y170.775 E0.7871
G1 X154.218 Y170.692 E0.7979
G1 X154.335 Y170.646 E0.8055
G1 X154.546 Y170.590 E0.8185
G1 X154.774 Y170.562 E0.8323
G1 X178.172 Y169.131 E2.2357
G1 X179.002 Y169.105 E2.2854
G1 X179.565 Y169.114 E2.3191
G1 X180.122 Y169.143 E2.3525
G1 X181.122 Y169.251 E2.4127
G1 X182.023 Y169.409 E2.4675
G1 X183.007 Y169.648 E2.5281
G1 X183.923 Y169.935 E2.5856
G1 X184.742 Y170.249 E2.6381
G1 X185.221 Y170.460 E2.6694
G1 X185.731 Y170.708 E2.7034
G1 X186.460 Y171.106 E2.7531
G1 X187.357 Y171.672 E2.8166
G1 X188.100 Y172.214 E2.8716
G1 X188.545 Y172.575 E2.9060
G1 X188.954 Y172.934 E2.9386
G1 X189.568 Y173.526 E2.9896
G1 X189.947 Y173.928 E3.0227
G1 X190.337 Y174.375 E3.0582
G1 X190.800 Y174.958 E3.1027
G1 X191.164 Y175.462 E3.1400
G1 X191.512 Y175.990 E3.1778
G1 X191.789 Y176.451 E3.2101
G1 X191.864 Y176.608 E3.2205
G1 X191.908 Y176.749 E3.2293
G1 X191.936 Y176.914 E3.2393
G1 X191.937 Y177.068 E3.2485
G1 X191.918 Y177.207 E3.2569
G1 X191.865 Y177.387 E3.2682
G1 X191.787 Y177.553 E3.2791
G1 X191.600 Y177.867 E3.3011
G1 X191.088 Y178.647 E3.3569
G1 X190.796 Y179.048 E3.3866
G1 X190.383 Y179.569 E3.4264
G1 X190.026 Y179.978 E3.4589
G1 X189.746 Y179.842 E3.4775
G1 X189.778 Y179.668 E3.4881
G1 X189.773 Y179.466 E3.5002
G1 X189.711 Y179.257 E3.5132
G1 X189.593 Y179.093 E3.5254
G1 X189.467 Y178.997 E3.5349
G1 X189.194 Y178.894 E3.5523
