; generated by PrusaSlicer 2.3.0+win64 on 2021-06-13 at 18:42:40 UTC

; 

; external perimeters extrusion width = 0.45mm
; perimeters extrusion width = 0.45mm
; infill extrusion width = 0.45mm
; solid infill extrusion width = 0.45mm
; top infill extrusion width = 0.40mm
; first layer extrusion width = 0.42mm

M107
M190 S60 ; set bed temperature and wait for it to be reached
G10 S215 P2 ; set temperature
;TYPE:Custom
G28 ; home all axes
G1 Z5 F5000 ; lift nozzle
M98 P"/sys/load_meshbed.g"	; load mesh bed corresponding to the temp
G10 S215 P2 ; set temperature
M116 ; wait for temperature to be reached
G21 ; set units to millimeters
G90 ; use absolute coordinates
M82 ; use absolute distances for extrusion
G92 E0
T2
M98 P"/macros/purge_and_wipe"; purge and wipe residu
; Filament gcode
M98 P"/macros/set_baby_step"	; set baby step
M98 P"/macros/prime_line"                  ; do the prime line
;LAYER_CHANGE
;Z:0.24
;HEIGHT:0.24
G1 Z0.240 F7800.000
G1 E-2.00000 F2400.000
G92 E0
G1 X124.563 Y144.955 F7800.000
G1 E2.00000 F2400.000
;TYPE:Skirt
;WIDTH:0.42
G1 F1440.000
G1 X125.753 Y143.764 E2.06189
G1 X126.692 Y143.111 E2.10395
G1 X127.714 Y142.597 E2.14599
G1 X128.796 Y142.233 E2.18798
G1 X129.939 Y142.021 E2.23072
G1 X155.011 Y140.518 E3.15426
G1 X157.786 Y140.694 E3.25648
G1 X160.546 Y141.240 E3.35993
G1 X163.223 Y142.149 E3.46389
G1 X165.757 Y143.406 E3.56789
G1 X168.116 Y144.998 E3.67253
G1 X170.234 Y146.885 E3.77682
G1 X172.040 Y148.981 E3.87856
G1 X173.537 Y151.256 E3.97868
G1 X174.179 Y152.772 E4.03922
G1 X174.490 Y154.426 E4.10110
G1 X174.435 Y156.080 E4.16195
G1 X174.014 Y157.714 E4.22399
G1 X173.197 Y159.321 E4.29030
G1 X171.746 Y161.402 E4.38357
G1 X170.200 Y163.149 E4.46934
G1 X168.475 Y164.717 E4.55506
G1 X167.075 Y165.762 E4.61929
G1 X165.560 Y166.707 E4.68494
G1 X164.021 Y167.501 E4.74862
G1 X162.293 Y168.213 E4.81731
G1 X160.562 Y168.756 E4.88402
G1 X158.718 Y169.164 E4.95347
G1 X157.035 Y169.390 E5.01591
G1 X155.194 Y169.482 E5.08367
G1 X129.724 Y167.952 E6.02188
G1 X128.247 Y167.603 E6.07766
G1 X126.824 Y166.966 E6.13500
G1 X125.608 Y166.115 E6.18955
G1 X124.551 Y165.030 E6.24527
G1 X123.903 Y164.097 E6.28703
G1 X123.382 Y163.059 E6.32972
G1 X123.018 Y161.975 E6.37179
G1 X122.809 Y160.863 E6.41339
G1 X122.750 Y159.910 E6.44848
G1 X122.763 Y149.665 E6.82517
G1 X123.028 Y147.987 E6.88764
G1 X123.644 Y146.373 E6.95115
G1 X124.531 Y145.005 E7.01109
G1 E5.01109 F2400.000
G92 E0
G1 X154.249 Y153.089 F7800.000
G1 E2.00000 F2400.000
;TYPE:External perimeter
G1 F480.000
G1 X154.418 Y153.148 E2.00659
G1 X154.572 Y153.237 E2.01311
G1 X154.703 Y153.366 E2.01986
G1 X154.810 Y153.514 E2.02660
G1 X154.907 Y153.710 E2.03462
G1 X154.955 Y153.933 E2.04300
G1 X155.113 Y154.286 E2.05723
G1 X155.227 Y154.011 E2.06815
G1 X155.359 Y154.099 E2.07399
G1 X155.465 Y153.666 E2.09040
G1 X155.584 Y153.455 E2.09930
G1 X155.846 Y153.208 E2.11253
G1 X156.096 Y153.092 E2.12267
G1 X156.372 Y153.100 E2.13283
G1 X156.544 Y153.167 E2.13959
G1 X156.688 Y153.259 E2.14588
G1 X156.819 Y153.379 E2.15242
G1 X156.918 Y153.518 E2.15870
G1 X156.994 Y153.859 E2.17156
G1 X156.950 Y154.286 E2.18733
G1 X156.639 Y154.877 E2.21189
G1 X156.267 Y155.490 E2.23822
G1 X156.194 Y155.710 E2.24676
G1 X156.230 Y155.852 E2.25216
G1 X156.955 Y157.063 E2.30405
G1 X157.086 Y157.423 E2.31815
G1 X157.103 Y157.726 E2.32929
G1 X157.036 Y158.014 E2.34017
G1 X156.878 Y158.250 E2.35063
G1 X156.655 Y158.411 E2.36072
G1 X156.386 Y158.495 E2.37110
G1 X156.100 Y158.498 E2.38160
G1 X155.901 Y158.441 E2.38922
G1 X155.688 Y158.296 E2.39870
G1 X155.570 Y158.158 E2.40537
G1 X155.476 Y157.994 E2.41234
G1 X155.362 Y157.653 E2.42556
G1 X155.338 Y157.477 E2.43210
G1 X155.304 Y157.409 E2.43488
G1 X155.061 Y157.316 E2.44445
G1 X154.952 Y157.364 E2.44883
G1 X154.904 Y157.460 E2.45276
G1 X154.893 Y157.573 E2.45693
G1 X154.784 Y157.892 E2.46932
G1 X154.670 Y158.100 E2.47806
G1 X154.491 Y158.312 E2.48828
G1 X154.252 Y158.438 E2.49821
G1 X153.974 Y158.452 E2.50844
G1 X153.798 Y158.403 E2.51513
G1 X153.633 Y158.318 E2.52197
G1 X153.437 Y158.114 E2.53239
G1 X153.359 Y157.873 E2.54169
G1 X153.352 Y157.674 E2.54902
G1 X153.472 Y157.064 E2.57185
G1 X153.785 Y156.354 E2.60039
G1 X153.911 Y156.133 E2.60975
G1 X154.179 Y155.769 E2.62638
G1 X153.947 Y155.419 E2.64180
G1 X153.423 Y154.491 E2.68099
G1 X153.308 Y154.205 E2.69233
G1 X153.266 Y154.019 E2.69933
G1 X153.258 Y153.844 E2.70577
G1 X153.284 Y153.673 E2.71214
G1 X153.359 Y153.495 E2.71921
G1 X153.467 Y153.353 E2.72579
G1 X153.613 Y153.232 E2.73275
G1 X153.782 Y153.144 E2.73978
G1 X154.053 Y153.080 E2.75000
G1 X154.189 Y153.086 E2.75503
G1 X154.366 Y152.953 F7800.000
G1 E0.75503 F2400.000
G92 E0
G1 X150.498 Y157.657 F7800.000
G1 E2.00000 F2400.000
G1 F480.000
G1 X150.600 Y157.048 E2.02271
G1 X150.674 Y156.846 E2.03063
G1 X150.784 Y156.658 E2.03862
G1 X151.197 Y156.209 E2.06105
G1 X151.522 Y156.035 E2.07463
G1 X151.778 Y155.990 E2.08417
G1 X152.031 Y155.995 E2.09347
G1 X152.278 Y156.059 E2.10288
G1 X152.509 Y156.175 E2.11238
G1 X152.705 Y156.336 E2.12171
G1 X152.864 Y156.534 E2.13102
G1 X152.973 Y156.762 E2.14034
G1 X153.031 Y157.004 E2.14949
G1 X153.028 Y157.240 E2.15816
G1 X152.930 Y157.924 E2.18357
G1 X152.842 Y158.153 E2.19257
G1 X152.713 Y158.352 E2.20130
G1 X152.511 Y158.533 E2.21127
G1 X152.293 Y158.665 E2.22064
G1 X152.045 Y158.744 E2.23021
G1 X151.675 Y158.772 E2.24386
G1 X151.312 Y158.698 E2.25748
G1 X151.078 Y158.590 E2.26694
G1 X150.872 Y158.439 E2.27632
G1 X150.707 Y158.248 E2.28562
G1 X150.578 Y158.023 E2.29516
G1 X150.511 Y157.716 E2.30671
G1 X150.151 Y157.459 F7800.000
G1 E0.30671 F2400.000
G92 E0
G1 X145.906 Y151.905 F7800.000
G1 E2.00000 F2400.000
G1 F480.000
G1 X146.055 Y151.789 E2.00691
G1 X146.387 Y151.660 E2.02002
G1 X146.724 Y151.624 E2.03249
G1 X148.355 Y151.661 E2.09246
G1 X148.963 Y151.750 E2.11506
G1 X149.435 Y151.897 E2.13325
G1 X149.840 Y152.122 E2.15027
G1 X150.170 Y152.407 E2.16631
G1 X150.484 Y152.805 E2.18496
G1 X150.734 Y153.281 E2.20473
G1 X150.910 Y153.823 E2.22565
G1 X151.010 Y154.457 E2.24926
G1 X151.026 Y154.991 E2.26893
G1 X150.955 Y155.544 E2.28940
G1 X150.837 Y155.883 E2.30260
G1 X150.640 Y156.275 E2.31875
G1 X150.501 Y156.636 E2.33295
G1 X150.378 Y156.871 E2.34272
G1 X150.186 Y157.153 E2.35526
G1 X150.018 Y157.476 E2.36864
G1 X149.752 Y157.779 E2.38348
G1 X149.538 Y157.935 E2.39322
G1 X149.309 Y158.058 E2.40277
G1 X148.830 Y158.202 E2.42115
G1 X148.388 Y158.266 E2.43757
G1 X147.853 Y158.294 E2.45730
G1 X147.042 Y158.286 E2.48710
G1 X146.504 Y158.329 E2.50693
G1 X146.248 Y158.280 E2.51652
G1 X146.079 Y158.189 E2.52357
G1 X145.945 Y158.067 E2.53024
G1 X145.810 Y157.846 E2.53979
G1 X145.729 Y157.576 E2.55012
G1 X145.702 Y157.270 E2.56143
G1 X145.719 Y156.664 E2.58371
G1 X145.724 Y153.056 E2.71639
G1 X145.686 Y152.600 E2.73321
G1 X145.691 Y152.328 E2.74322
G1 X145.787 Y152.054 E2.75387
G1 X145.869 Y151.952 E2.75870
G1 X145.854 Y151.724 F7800.000
G1 X145.355 Y153.708
;TYPE:Perimeter
G1 F480.000
G1 X145.353 Y155.004 E2.80636
G1 X145.181 Y155.042 E2.81286
G1 X145.086 Y154.841 E2.82104
G1 X144.838 Y154.599 E2.83378
G1 X144.648 Y154.485 E2.84190
G1 X144.904 Y154.281 E2.85395
G1 X145.090 Y153.983 E2.86683
G1 X145.159 Y153.685 E2.87810
G1 X145.295 Y153.701 E2.88315
G1 X144.022 Y154.509 F7800.000
;TYPE:External perimeter
G1 F480.000
G1 X144.302 Y154.651 E2.89469
G1 X144.482 Y154.815 E2.90366
G1 X144.611 Y154.893 E2.90920
G1 X144.781 Y155.059 E2.91792
G1 X144.984 Y155.488 E2.93541
G1 X145.087 Y155.881 E2.95032
G1 X145.118 Y156.115 E2.95901
G1 X145.095 Y156.565 E2.97559
G1 X144.967 Y157.027 E2.99321
G1 X144.801 Y157.372 E3.00730
G1 X144.513 Y157.762 E3.02511
G1 X144.337 Y157.931 E3.03409
G1 X144.148 Y158.075 E3.04282
G1 X143.942 Y158.200 E3.05167
G1 X143.718 Y158.302 E3.06072
G1 X143.268 Y158.425 E3.07790
G1 X142.867 Y158.465 E3.09272
G1 X142.432 Y158.458 E3.10870
G1 X142.038 Y158.404 E3.12333
G1 X141.709 Y158.312 E3.13590
G1 X141.417 Y158.181 E3.14766
G1 X141.171 Y158.007 E3.15871
G1 X140.975 Y157.781 E3.16974
G1 X140.855 Y157.534 E3.17984
G1 X140.793 Y157.244 E3.19073
G1 X140.810 Y156.948 E3.20165
G1 X140.915 Y156.680 E3.21222
G1 X141.097 Y156.475 E3.22229
G1 X141.257 Y156.376 E3.22921
G1 X141.429 Y156.311 E3.23600
G1 X141.713 Y156.273 E3.24650
G1 X142.059 Y156.322 E3.25937
G1 X142.319 Y156.438 E3.26982
G1 X142.731 Y156.738 E3.28858
G1 X142.810 Y156.758 E3.29156
G1 X142.927 Y156.732 E3.29596
G1 X143.053 Y156.659 E3.30133
G1 X143.144 Y156.556 E3.30639
G1 X143.201 Y156.425 E3.31165
G1 X143.216 Y156.280 E3.31700
G1 X143.183 Y156.130 E3.32263
G1 X143.087 Y155.951 E3.33010
G1 X142.975 Y155.822 E3.33638
G1 X142.839 Y155.714 E3.34277
G1 X142.689 Y155.638 E3.34895
G1 X142.504 Y155.585 E3.35603
G1 X142.080 Y155.510 E3.37186
G1 X141.844 Y155.417 E3.38119
G1 X141.696 Y155.309 E3.38792
G1 X141.577 Y155.158 E3.39498
G1 X141.507 Y154.993 E3.40159
G1 X141.475 Y154.807 E3.40850
G1 X141.488 Y154.611 E3.41571
G1 X141.564 Y154.349 E3.42577
G1 X141.653 Y154.163 E3.43336
G1 X141.804 Y154.006 E3.44135
G1 X142.148 Y153.837 E3.45546
G1 X142.679 Y153.691 E3.47570
G1 X142.769 Y153.640 E3.47950
G1 X142.895 Y153.498 E3.48647
G1 X142.919 Y153.413 E3.48972
G1 X142.887 Y153.268 E3.49520
G1 X142.805 Y153.198 E3.49914
G1 X142.656 Y153.191 E3.50463
G1 X142.481 Y153.243 E3.51136
G1 X142.264 Y153.370 E3.52056
G1 X141.927 Y153.529 E3.53429
G1 X141.716 Y153.589 E3.54235
G1 X141.512 Y153.594 E3.54986
G1 X141.267 Y153.475 E3.55985
G1 X141.050 Y153.263 E3.57101
G1 X140.927 Y153.094 E3.57870
G1 X140.869 Y152.886 E3.58663
G1 X140.864 Y152.570 E3.59825
G1 X140.938 Y152.266 E3.60978
G1 X141.050 Y152.090 E3.61744
G1 X141.341 Y151.839 E3.63156
G1 X141.545 Y151.715 E3.64035
G1 X141.874 Y151.582 E3.65338
G1 X142.232 Y151.501 E3.66688
G1 X142.618 Y151.463 E3.68114
G1 X143.000 Y151.466 E3.69518
G1 X143.299 Y151.499 E3.70626
G1 X143.652 Y151.575 E3.71951
G1 X143.878 Y151.655 E3.72833
G1 X144.176 Y151.816 E3.74079
G1 X144.431 Y152.026 E3.75292
G1 X144.636 Y152.278 E3.76489
G1 X144.745 Y152.473 E3.77310
G1 X144.840 Y152.765 E3.78439
G1 X144.871 Y153.077 E3.79590
G1 X144.865 Y153.323 E3.80496
G1 X144.745 Y153.840 E3.82448
G1 X144.625 Y154.032 E3.83281
G1 X144.446 Y154.176 E3.84124
G1 X144.317 Y154.317 E3.84830
G1 X144.072 Y154.476 E3.85902
G1 X144.334 Y154.537 F7800.000
G1 E1.85902 F2400.000
G92 E0
G1 X159.763 Y160.964 F7800.000
G1 E2.00000 F2400.000
;TYPE:Perimeter
G1 F480.000
G1 X160.031 Y160.621 E2.01599
G1 X160.201 Y160.334 E2.02824
G1 X160.506 Y159.663 E2.05536
G1 X161.115 Y158.046 E2.11890
G1 X161.231 Y158.356 E2.13110
G1 X161.428 Y158.673 E2.14482
G1 X161.679 Y158.923 E2.15783
G1 X161.996 Y159.118 E2.17154
G1 X162.423 Y159.236 E2.18781
G1 X162.737 Y159.251 E2.19937
G1 X162.998 Y159.236 E2.20898
G1 X163.052 Y159.395 E2.21517
G1 X162.357 Y159.868 E2.24607
G1 X161.393 Y160.418 E2.28688
G1 X160.444 Y160.867 E2.32550
G1 X159.865 Y161.099 E2.34842
G1 X159.799 Y161.011 E2.35244
G1 E0.35244 F2400.000
G92 E0
G1 X157.176 Y161.643 F7800.000
G1 E2.00000 F2400.000
G1 F1920.000
G1 X157.151 Y161.802 E2.00592
G1 X156.352 Y161.905 E2.03555
G1 X155.738 Y161.949 E2.05818
G1 X154.991 Y161.966 E2.08566
G1 X154.194 Y161.939 E2.11497
G1 X130.892 Y160.520 E2.97335
G1 X130.645 Y160.478 E2.98258
G1 X130.476 Y160.386 E2.98962
G1 X130.359 Y160.244 E2.99641
G1 X130.295 Y160.076 E3.00303
G1 X130.269 Y159.904 E3.00941
G1 X130.265 Y158.380 E3.06545
G1 X130.490 Y158.566 E3.07616
G1 X131.037 Y158.880 E3.09935
G1 X131.376 Y159.014 E3.11276
G1 X131.748 Y159.117 E3.12694
G1 X132.104 Y159.176 E3.14022
G1 X132.636 Y159.205 E3.15982
G1 X133.142 Y159.172 E3.17848
G1 X133.611 Y159.080 E3.19605
G1 X134.061 Y158.920 E3.21358
G1 X134.470 Y158.692 E3.23080
G1 X134.833 Y158.397 E3.24802
G1 X135.137 Y158.039 E3.26528
G1 X135.360 Y157.647 E3.28188
G1 X135.510 Y157.233 E3.29806
G1 X135.518 Y156.869 E3.31143
G1 X135.407 Y156.403 E3.32904
G1 X135.202 Y156.063 E3.34366
G1 X134.953 Y155.802 E3.35693
G1 X134.564 Y155.557 E3.37381
G1 X134.233 Y155.442 E3.38668
G1 X133.915 Y155.393 E3.39853
G1 X133.566 Y155.400 E3.41135
G1 X133.100 Y155.527 E3.42912
G1 X132.691 Y155.801 E3.44724
G1 X132.589 Y155.924 E3.45310
G1 X132.478 Y155.901 E3.45724
G1 X132.403 Y155.868 E3.46027
G1 X132.344 Y155.804 E3.46347
G1 X132.259 Y155.553 E3.47321
G1 X132.225 Y155.313 E3.48211
G1 X132.210 Y154.928 E3.49627
G1 X132.228 Y154.583 E3.50898
G1 X132.263 Y154.365 E3.51711
G1 X132.329 Y154.158 E3.52510
G1 X132.398 Y154.059 E3.52955
G1 X132.434 Y154.041 E3.53101
G1 X132.504 Y154.025 E3.53365
G1 X133.138 Y154.389 E3.56054
G1 X133.578 Y154.524 E3.57745
G1 X134.046 Y154.546 E3.59467
G1 X134.485 Y154.434 E3.61134
G1 X134.910 Y154.152 E3.63010
G1 X135.061 Y153.969 E3.63882
G1 X135.135 Y154.017 E3.64203
G1 X135.444 Y154.133 E3.65417
G1 X135.881 Y154.195 E3.67040
G1 X136.136 Y154.166 E3.67984
G1 X136.152 Y156.896 E3.78024
G1 X136.112 Y157.402 E3.79890
G1 X136.131 Y157.799 E3.81352
G1 X136.230 Y158.143 E3.82665
G1 X136.425 Y158.474 E3.84078
G1 X136.700 Y158.739 E3.85483
G1 X137.006 Y158.911 E3.86774
G1 X137.326 Y159.017 E3.88013
G1 X137.654 Y159.060 E3.89230
G1 X137.980 Y159.045 E3.90429
G1 X138.329 Y158.962 E3.91748
G1 X138.764 Y158.723 E3.93574
G1 X139.118 Y158.324 E3.95535
G1 X139.309 Y157.887 E3.97288
G1 X139.389 Y157.444 E3.98943
G1 X139.376 Y154.150 E4.11057
G1 X139.753 Y154.134 E4.12445
G1 X140.174 Y154.040 E4.14034
G1 X140.598 Y153.852 E4.15740
G1 X140.865 Y154.113 E4.17111
G1 X140.757 Y154.484 E4.18532
G1 X140.735 Y154.848 E4.19871
G1 X140.795 Y155.200 E4.21187
G1 X140.936 Y155.536 E4.22527
G1 X141.027 Y155.651 E4.23066
G1 X140.617 Y155.905 E4.24839
G1 X140.276 Y156.289 E4.26726
G1 X140.081 Y156.788 E4.28696
G1 X140.051 Y157.301 E4.30585
G1 X140.153 Y157.776 E4.32372
G1 X140.355 Y158.190 E4.34067
G1 X140.673 Y158.557 E4.35852
G1 X141.050 Y158.824 E4.37550
G1 X141.458 Y159.007 E4.39193
G1 X141.887 Y159.127 E4.40835
G1 X142.376 Y159.195 E4.42648
G1 X142.897 Y159.203 E4.44565
G1 X143.402 Y159.153 E4.46430
G1 X143.970 Y158.997 E4.48597
G1 X144.288 Y158.852 E4.49881
G1 X144.563 Y158.685 E4.51065
G1 X144.817 Y158.492 E4.52237
G1 X145.147 Y158.174 E4.53920
G1 X145.371 Y158.541 E4.55500
G1 X145.650 Y158.796 E4.56888
G1 X146.000 Y158.983 E4.58346
G1 X146.464 Y159.071 E4.60085
G1 X147.068 Y159.023 E4.62311
G1 X147.868 Y159.031 E4.65253
G1 X148.460 Y159.001 E4.67435
G1 X148.991 Y158.924 E4.69405
G1 X149.593 Y158.742 E4.71717
G1 X150.011 Y158.517 E4.73465
G1 X150.103 Y158.677 E4.74142
G1 X150.370 Y158.985 E4.75642
G1 X150.703 Y159.228 E4.77155
G1 X151.080 Y159.403 E4.78683
G1 X151.628 Y159.515 E4.80742
G1 X152.187 Y159.472 E4.82803
G1 X152.600 Y159.340 E4.84398
G1 X152.951 Y159.128 E4.85908
G1 X153.186 Y158.917 E4.87067
G1 X153.529 Y159.093 E4.88482
G1 X153.891 Y159.194 E4.89866
G1 X154.451 Y159.166 E4.91927
G1 X154.960 Y158.898 E4.94045
G1 X155.096 Y158.738 E4.94814
G1 X155.191 Y158.850 E4.95355
G1 X155.585 Y159.118 E4.97107
G1 X156.001 Y159.236 E4.98696
G1 X156.365 Y159.233 E5.00033
G1 X156.190 Y159.577 E5.01455
G1 X156.131 Y159.985 E5.02968
G1 X156.181 Y160.464 E5.04740
G1 X156.412 Y161.001 E5.06890
G1 X156.639 Y161.283 E5.08219
G1 X156.904 Y161.507 E5.09497
G1 X157.122 Y161.616 E5.10393
G1 E3.10393 F2400.000
G92 E0
G1 X157.763 Y158.815 F7800.000
G1 E2.00000 F2400.000
G1 F1920.000
G1 X157.252 Y158.976 E2.01971
G1 X157.023 Y159.082 E2.02901
G1 X156.729 Y159.329 E2.04312
G1 X156.546 Y159.690 E2.05798
G1 X156.503 Y159.992 E2.06921
G1 X156.542 Y160.370 E2.08318
G1 X156.731 Y160.809 E2.10076
G1 X156.904 Y161.024 E2.11091
G1 X157.109 Y161.198 E2.12077
G1 X157.368 Y161.327 E2.13142
G1 X157.726 Y161.401 E2.14488
G1 X158.082 Y161.385 E2.15797
G1 X158.349 Y161.333 E2.16796
G1 X158.741 Y161.206 E2.18313
G1 X159.103 Y161.027 E2.19797
G1 X159.489 Y160.716 E2.21620
G1 X159.726 Y160.412 E2.23037
G1 X159.874 Y160.163 E2.24101
G1 X160.166 Y159.520 E2.26701
G1 X160.551 Y158.528 E2.30614
G1 X161.513 Y155.843 E2.41100
G1 X161.846 Y154.787 E2.45168
G1 X162.119 Y155.010 E2.46465
G1 X162.477 Y155.128 E2.47848
G1 X162.798 Y155.155 E2.49033
G1 X162.461 Y155.539 E2.50909
G1 X161.824 Y156.399 E2.54844
G1 X161.573 Y156.832 E2.56684
G1 X161.478 Y157.087 E2.57686
