; G-Code generated by Simplify3D(R) Version 4.1.2
; Jun 30, 2021 at 11:03:16 PM
; Settings Summary
;   processName,Color1
;   applyToModels,2,6,7
;   profileName,blv_triple_head (modified)
;   profileVersion,2021-06-17 01:43:00
;   baseProfile,Default
;   printMaterial,PLA
;   printQuality,Medium
;   printExtruders,All Extruders
;   extruderName,Extruder 1,Extruder 2,Extruder 3
;   extruderToolheadNumber,0,1,2
;   extruderDiameter,0.4,0.4,0.4
;   extruderAutoWidth,0,0,0
;   extruderWidth,0.4,0.4,0.4
;   extrusionMultiplier,0.9,0.9,0.9
;   extruderUseRetract,1,1,1
;   extruderRetractionDistance,1,1,1
;   extruderExtraRestartDistance,0,0,0
;   extruderRetractionZLift,0,0,0
;   extruderRetractionSpeed,1800,1800,1800
;   extruderUseCoasting,0,0,0
;   extruderCoastingDistance,0.2,0.2,0.2
;   extruderUseWipe,0,0,0
;   extruderWipeDistance,5,5,5
;   primaryExtruder,2
;   layerHeight,0.2
;   topSolidLayers,3
;   bottomSolidLayers,3
;   perimeterOutlines,2
;   printPerimetersInsideOut,1
;   startPointOption,2
;   startPointOriginX,0
;   startPointOriginY,0
;   sequentialIslands,0
;   spiralVaseMode,0
;   firstLayerHeightPercentage,100
;   firstLayerWidthPercentage,100
;   firstLayerUnderspeed,0.5
;   useRaft,0
;   raftExtruder,2
;   raftTopLayers,3
;   raftBaseLayers,2
;   raftOffset,3
;   raftSeparationDistance,0.14
;   raftTopInfill,100
;   aboveRaftSpeedMultiplier,0.3
;   useSkirt,0
;   skirtExtruder,0
;   skirtLayers,1
;   skirtOutlines,2
;   skirtOffset,4
;   usePrimePillar,0
;   primePillarExtruder,999
;   primePillarWidth,12
;   primePillarLocation,7
;   primePillarSpeedMultiplier,1
;   useOozeShield,1
;   oozeShieldExtruder,999
;   oozeShieldOffset,2
;   oozeShieldOutlines,1
;   oozeShieldSidewallShape,1
;   oozeShieldSidewallAngle,30
;   oozeShieldSpeedMultiplier,1
;   infillExtruder,2
;   internalInfillPattern,Rectilinear
;   externalInfillPattern,Rectilinear
;   infillPercentage,20
;   outlineOverlapPercentage,15
;   infillExtrusionWidthPercentage,100
;   minInfillLength,5
;   infillLayerInterval,1
;   internalInfillAngles,45,-45
;   overlapInternalInfillAngles,0
;   externalInfillAngles,45,-45
;   generateSupport,0
;   supportExtruder,2
;   supportInfillPercentage,30
;   supportExtraInflation,0
;   supportBaseLayers,0
;   denseSupportExtruder,2
;   denseSupportLayers,0
;   denseSupportInfillPercentage,70
;   supportLayerInterval,1
;   supportHorizontalPartOffset,0.3
;   supportUpperSeparationLayers,1
;   supportLowerSeparationLayers,1
;   supportType,0
;   supportGridSpacing,4
;   maxOverhangAngle,45
;   supportAngles,0
;   temperatureName,Extruder 1,Extruder 2,Extruder 3,Heated Bed
;   temperatureNumber,0,1,2,0
;   temperatureSetpointCount,1,1,1,1
;   temperatureSetpointLayers,1,1,1,1
;   temperatureSetpointTemperatures,190,190,190,60
;   temperatureStabilizeAtStartup,1,1,1,1
;   temperatureHeatedBed,0,0,0,1
;   fanLayers,1,2
;   fanSpeeds,0,100
;   blipFanToFullPower,0
;   adjustSpeedForCooling,1
;   minSpeedLayerTime,15
;   minCoolingSpeedSlowdown,20
;   increaseFanForCooling,0
;   minFanLayerTime,45
;   maxCoolingFanSpeed,100
;   increaseFanForBridging,0
;   bridgingFanSpeed,100
;   use5D,1
;   relativeEdistances,0
;   allowEaxisZeroing,1
;   independentExtruderAxes,0
;   includeM10123,0
;   stickySupport,1
;   applyToolheadOffsets,0
;   gcodeXoffset,0
;   gcodeYoffset,0
;   gcodeZoffset,0
;   overrideMachineDefinition,1
;   machineTypeOverride,0
;   strokeXoverride,310
;   strokeYoverride,310
;   strokeZoverride,355
;   originOffsetXoverride,0
;   originOffsetYoverride,0
;   originOffsetZoverride,0
;   homeXdirOverride,-1
;   homeYdirOverride,-1
;   homeZdirOverride,-1
;   flipXoverride,1
;   flipYoverride,-1
;   flipZoverride,1
;   toolheadOffsets,0,0|0,0|0,0|0,0|0,0|0,0
;   overrideFirmwareConfiguration,1
;   firmwareTypeOverride,RepRap (Marlin/Repetier/Sprinter)
;   GPXconfigOverride,r2
;   baudRateOverride,115200
;   overridePrinterModels,0
;   printerModelsOverride
;   startingGcode,M291 P"Homing all axis" R"Printing.." S1 T2,G21		; metric values,;G28		; home all,,T-1,M400,M98 P"/sys/load_meshbed.g"	; load mesh bed corresponding to the temp,M400,M98 P"/macros/prime_all_active_tools.g"
;   layerChangeGcode,
;   retractionGcode,
;   toolChangeGcode,T[new_tool],M98 P"/macros/set_baby_step"	; set baby step,M98 P"/macros/purge_wipe"; purge and wipe,M98 P"/macros/restore_tool_change_start_position" ; go back to the position right before the tool change
;   endingGcode,M568 P0 S0 R0 A0                                                   ; turn off tools,M568 P1 S0 R0 A0,M568 P2 S0 R0 A0,M140 S-273                                                             ; switch off bed,M98 P"/macros/remove_baby_step"	; unset baby step,M98 P"/macros/rise30mm",M98 P"/macros/rise30mm",T-1,G1 X0 Y310 F1000 ; prepare for part removal,M84 ; disable motors,M106 S0 ;turn off part cooling fan
;   exportFileFormat,gcode
;   celebration,0
;   celebrationSong,Random Song
;   postProcessing,
;   defaultSpeed,4800
;   outlineUnderspeed,0.5
;   solidInfillUnderspeed,0.8
;   supportUnderspeed,0.8
;   rapidXYspeed,7200
;   rapidZspeed,1002
;   minBridgingArea,50
;   bridgingExtraInflation,0
;   bridgingExtrusionMultiplier,1
;   bridgingSpeedMultiplier,1
;   useFixedBridgingAngle,0
;   fixedBridgingAngle,0
;   applyBridgingToPerimeters,0
;   filamentDiameters,1.75|1.75|1.75|1.75|1.75|1.75
;   filamentPricesPerKg,46|46|46|46|46|46
;   filamentDensities,1.25|1.25|1.25|1.25|1.25|1.25
;   useMinPrintHeight,0
;   minPrintHeight,0
;   useMaxPrintHeight,0
;   maxPrintHeight,0
;   useDiaphragm,0
;   diaphragmLayerInterval,20
;   robustSlicing,1
;   mergeAllIntoSolid,0
;   onlyRetractWhenCrossingOutline,1
;   retractBetweenLayers,1
;   useRetractionMinTravel,0
;   retractionMinTravel,3
;   retractWhileWiping,0
;   onlyWipeOutlines,1
;   avoidCrossingOutline,0
;   maxMovementDetourFactor,3
;   toolChangeRetractionDistance,12
;   toolChangeExtraRestartDistance,-0.5
;   toolChangeRetractionSpeed,600
;   externalThinWallType,0
;   internalThinWallType,1
;   thinWallAllowedOverlapPercentage,10
;   singleExtrusionMinLength,1
;   singleExtrusionMinPrintingWidthPercentage,50
;   singleExtrusionMaxPrintingWidthPercentage,200
;   singleExtrusionEndpointExtension,0.2
;   horizontalSizeCompensation,0
G90
M82
M106 S0
M140 S60
M190 S60
M104 S215 T0
M104 S215 T1
M104 S215 T2
M291 P"Homing all axis" R"Printing.." S1 T2
G21		; metric values
;G28		; home all
T-1
M400
M98 P"/sys/load_meshbed.g"	; load mesh bed corresponding to the temp
M400
M98 P"/macros/prime_all_active_tools.g"
; process Color1
; layer 1, Z = 0.200
T2
M98 P"/macros/set_baby_step"	; set baby step
M98 P"/macros/purge_wipe"; purge and wipe
M98 P"/macros/restore_tool_change_start_position" ; go back to the position right before the tool change
G92 E0.0000
G1 E-1.0000 F1800
; feature ooze shield
; tool H0.200 W0.400
G1 Z0.200 F1002
G1 X119.089 Y127.800 F7200
G1 E0.0000 F1800
G92 E0.0000
G1 X180.911 Y127.800 E1.8506 F2400
G1 X182.200 Y129.089 E1.9052
G1 X182.200 Y190.911 E3.7558
G1 X180.911 Y192.200 E3.8103
G1 X119.089 Y192.200 E5.6609
G1 X117.800 Y190.911 E5.7155
G1 X117.800 Y129.089 E7.5661
G1 X119.089 Y127.800 E7.6206
G92 E0.0000
G1 E-1.0000 F1800
; feature inner perimeter
G1 X120.600 Y130.600 F7200
G1 E0.0000 F1800
G92 E0.0000
G1 X139.400 Y130.600 E0.5628 F1800
G1 X139.400 Y149.400 E1.1255
G1 X120.600 Y149.400 E1.6883
G1 X120.600 Y130.600 E2.2510
; feature outer perimeter
G1 X120.200 Y130.200 F7200
G92 E0.0000
G1 X139.800 Y130.200 E0.5867 F1200
G1 X139.800 Y149.800 E1.1734
G1 X120.200 Y149.800 E1.7601
G1 X120.200 Y130.200 E2.3468
; feature solid layer
G1 X139.042 Y130.940 F7200
G92 E0.0000
G1 X139.060 Y130.958 E0.0008 F1920
G1 X139.060 Y131.524 E0.0177
G1 X138.476 Y130.940 E0.0424
G1 X137.911 Y130.940 E0.0593
G1 X139.060 Y132.089 E0.1080
G1 X139.060 Y132.655 E0.1249
G1 X137.345 Y130.940 E0.1975
G1 X136.779 Y130.940 E0.2145
G1 X139.060 Y133.221 E0.3110
G1 X139.060 Y133.786 E0.3280
G1 X136.214 Y130.940 E0.4485
G1 X135.648 Y130.940 E0.4654
G1 X139.060 Y134.352 E0.6098
G1 X139.060 Y134.918 E0.6268
G1 X135.082 Y130.940 E0.7952
G1 X134.516 Y130.940 E0.8121
G1 X139.060 Y135.484 E1.0044
G1 X139.060 Y136.049 E1.0214
G1 X133.951 Y130.940 E1.2377
G1 X133.385 Y130.940 E1.2546
G1 X139.060 Y136.615 E1.4948
G1 X139.060 Y137.181 E1.5118
G1 X132.819 Y130.940 E1.7760
G1 X132.254 Y130.940 E1.7929
G1 X139.060 Y137.746 E2.0810
G1 X139.060 Y138.312 E2.0980
G1 X131.688 Y130.940 E2.4100
G1 X131.122 Y130.940 E2.4270
G1 X139.060 Y138.878 E2.7630
G1 X139.060 Y139.443 E2.7799
G1 X130.557 Y130.940 E3.1399
G1 X129.991 Y130.940 E3.1568
G1 X139.060 Y140.009 E3.5408
G1 X139.060 Y140.575 E3.5577
G1 X129.425 Y130.940 E3.9656
G1 X128.860 Y130.940 E3.9825
G1 X139.060 Y141.140 E4.4143
G1 X139.060 Y141.706 E4.4312
G1 X128.294 Y130.940 E4.8870
G1 X127.728 Y130.940 E4.9039
G1 X139.060 Y142.272 E5.3836
G1 X139.060 Y142.837 E5.4006
G1 X127.163 Y130.940 E5.9042
G1 X126.597 Y130.940 E5.9212
G1 X139.060 Y143.403 E6.4488
G1 X139.060 Y143.969 E6.4657
G1 X126.031 Y130.940 E7.0173
G1 X125.465 Y130.940 E7.0342
G1 X139.060 Y144.535 E7.6097
G1 X139.060 Y145.100 E7.6266
G1 X124.900 Y130.940 E8.2261
G1 X124.334 Y130.940 E8.2430
G1 X139.060 Y145.666 E8.8664
G1 X139.060 Y146.232 E8.8833
G1 X123.768 Y130.940 E9.5307
G1 X123.203 Y130.940 E9.5476
G1 X139.060 Y146.797 E10.2189
G1 X139.060 Y147.363 E10.2358
G1 X122.637 Y130.940 E10.9311
G1 X122.071 Y130.940 E10.9480
G1 X139.060 Y147.929 E11.6672
G1 X139.060 Y148.494 E11.6841
G1 X121.506 Y130.940 E12.4272
G1 X120.940 Y130.940 E12.4442
G1 X139.060 Y149.060 E13.2113
G1 X138.494 Y149.060 E13.2282
G1 X120.940 Y131.506 E13.9713
G1 X120.940 Y132.071 E13.9883
G1 X137.929 Y149.060 E14.7074
G1 X137.363 Y149.060 E14.7244
G1 X120.940 Y132.637 E15.4196
G1 X120.940 Y133.203 E15.4365
G1 X136.797 Y149.060 E16.1078
G1 X136.232 Y149.060 E16.1248
G1 X120.940 Y133.768 E16.7721
G1 X120.940 Y134.334 E16.7890
G1 X135.666 Y149.060 E17.4124
G1 X135.100 Y149.060 E17.4294
G1 X120.940 Y134.900 E18.0288
G1 X120.940 Y135.465 E18.0458
G1 X134.535 Y149.060 E18.6213
G1 X133.969 Y149.060 E18.6382
G1 X120.940 Y136.031 E19.1897
G1 X120.940 Y136.597 E19.2067
G1 X133.403 Y149.060 E19.7343
G1 X132.837 Y149.060 E19.7512
G1 X120.940 Y137.163 E20.2549
G1 X120.940 Y137.728 E20.2718
G1 X132.272 Y149.060 E20.7515
G1 X131.706 Y149.060 E20.7684
G1 X120.940 Y138.294 E21.2242
G1 X120.940 Y138.860 E21.2411
G1 X131.140 Y149.060 E21.6730
G1 X130.575 Y149.060 E21.6899
G1 X120.940 Y139.425 E22.0978
G1 X120.940 Y139.991 E22.1147
G1 X130.009 Y149.060 E22.4986
G1 X129.443 Y149.060 E22.5156
G1 X120.940 Y140.557 E22.8755
G1 X120.940 Y141.122 E22.8925
G1 X128.878 Y149.060 E23.2285
G1 X128.312 Y149.060 E23.2454
G1 X120.940 Y141.688 E23.5575
G1 X120.940 Y142.254 E23.5744
G1 X127.746 Y149.060 E23.8626
G1 X127.181 Y149.060 E23.8795
G1 X120.940 Y142.819 E24.1437
G1 X120.940 Y143.385 E24.1606
G1 X126.615 Y149.060 E24.4009
G1 X126.049 Y149.060 E24.4178
G1 X120.940 Y143.951 E24.6341
G1 X120.940 Y144.516 E24.6510
G1 X125.484 Y149.060 E24.8434
G1 X124.918 Y149.060 E24.8603
G1 X120.940 Y145.082 E25.0287
G1 X120.940 Y145.648 E25.0456
G1 X124.352 Y149.060 E25.1901
G1 X123.787 Y149.060 E25.2070
G1 X120.940 Y146.213 E25.3275
G1 X120.940 Y146.779 E25.3444
G1 X123.221 Y149.060 E25.4410
G1 X122.655 Y149.060 E25.4579
G1 X120.940 Y147.345 E25.5305
G1 X120.940 Y147.911 E25.5475
G1 X122.089 Y149.060 E25.5961
G1 X121.524 Y149.060 E25.6131
G1 X120.940 Y148.476 E25.6378
G1 X120.940 Y149.042 E25.6547
G1 X120.958 Y149.060 E25.6555
G92 E0.0000
G1 E-1.0000 F1800
; feature inner perimeter
G1 X140.600 Y170.600 F7200
G1 E0.0000 F1800
G92 E0.0000
G1 X159.400 Y170.600 E0.5628 F1800
G1 X159.400 Y189.400 E1.1255
G1 X140.600 Y189.400 E1.6883
G1 X140.600 Y170.600 E2.2510
; feature outer perimeter
G1 X140.200 Y170.200 F7200
G92 E0.0000
G1 X159.800 Y170.200 E0.5867 F1200
G1 X159.800 Y189.800 E1.1734
G1 X140.200 Y189.800 E1.7601
G1 X140.200 Y170.200 E2.3468
; feature solid layer
G1 X158.677 Y170.940 F7200
G92 E0.0000
G1 X159.060 Y171.323 E0.0162 F1920
G1 X159.060 Y171.888 E0.0331
G1 X158.112 Y170.940 E0.0733
G1 X157.546 Y170.940 E0.0902
G1 X159.060 Y172.454 E0.1543
G1 X159.060 Y173.020 E0.1712
G1 X156.980 Y170.940 E0.2593
G1 X156.415 Y170.940 E0.2762
G1 X159.060 Y173.585 E0.3882
G1 X159.060 Y174.151 E0.4052
G1 X155.849 Y170.940 E0.5411
G1 X155.283 Y170.940 E0.5580
G1 X159.060 Y174.717 E0.7179
G1 X159.060 Y175.283 E0.7348
G1 X154.717 Y170.940 E0.9187
G1 X154.152 Y170.940 E0.9356
G1 X159.060 Y175.848 E1.1434
G1 X159.060 Y176.414 E1.1603
G1 X153.586 Y170.940 E1.3920
G1 X153.020 Y170.940 E1.4090
G1 X159.060 Y176.980 E1.6647
G1 X159.060 Y177.545 E1.6816
G1 X152.455 Y170.940 E1.9612
G1 X151.889 Y170.940 E1.9781
G1 X159.060 Y178.111 E2.2817
G1 X159.060 Y178.677 E2.2987
G1 X151.323 Y170.940 E2.6262
G1 X150.758 Y170.940 E2.6431
G1 X159.060 Y179.242 E2.9946
G1 X159.060 Y179.808 E3.0115
G1 X150.192 Y170.940 E3.3869
G1 X149.626 Y170.940 E3.4038
G1 X159.060 Y180.374 E3.8032
G1 X159.060 Y180.939 E3.8201
G1 X149.061 Y170.940 E4.2434
G1 X148.495 Y170.940 E4.2604
G1 X159.060 Y181.505 E4.7076
G1 X159.060 Y182.071 E4.7246
G1 X147.929 Y170.940 E5.1958
G1 X147.364 Y170.940 E5.2127
G1 X159.060 Y182.636 E5.7078
G1 X159.060 Y183.202 E5.7248
G1 X146.798 Y170.940 E6.2439
G1 X146.232 Y170.940 E6.2608
G1 X159.060 Y183.768 E6.8038
G1 X159.060 Y184.333 E6.8208
G1 X145.667 Y170.940 E7.3878
G1 X145.101 Y170.940 E7.4047
G1 X159.060 Y184.899 E7.9956
G1 X159.060 Y185.465 E8.0126
G1 X144.535 Y170.940 E8.6275
G1 X143.969 Y170.940 E8.6444
G1 X159.060 Y186.031 E9.2832
G1 X159.060 Y186.596 E9.3002
G1 X143.404 Y170.940 E9.9629
G1 X142.838 Y170.940 E9.9799
G1 X159.060 Y187.162 E10.6666
G1 X159.060 Y187.728 E10.6835
G1 X142.272 Y170.940 E11.3942
G1 X141.707 Y170.940 E11.4111
G1 X159.060 Y188.293 E12.1458
G1 X159.060 Y188.859 E12.1627
G1 X141.141 Y170.940 E12.9213
G1 X140.940 Y170.940 E12.9273
G1 X140.940 Y171.305 E12.9382
G1 X158.695 Y189.060 E13.6898
G1 X158.130 Y189.060 E13.7068
G1 X140.940 Y171.870 E14.4345
G1 X140.940 Y172.436 E14.4514
G1 X157.564 Y189.060 E15.1551
G1 X156.998 Y189.060 E15.1721
G1 X140.940 Y173.002 E15.8519
G1 X140.940 Y173.567 E15.8688
G1 X156.433 Y189.060 E16.5247
G1 X155.867 Y189.060 E16.5416
G1 X140.940 Y174.133 E17.1735
G1 X140.940 Y174.699 E17.1904
G1 X155.301 Y189.060 E17.7984
G1 X154.736 Y189.060 E17.8153
G1 X140.940 Y175.264 E18.3993
G1 X140.940 Y175.830 E18.4163
G1 X154.170 Y189.060 E18.9763
G1 X153.604 Y189.060 E18.9933
G1 X140.940 Y176.396 E19.5294
G1 X140.940 Y176.962 E19.5463
G1 X153.038 Y189.060 E20.0585
G1 X152.473 Y189.060 E20.0754
G1 X140.940 Y177.527 E20.5636
G1 X140.940 Y178.093 E20.5806
G1 X151.907 Y189.060 E21.0448
G1 X151.341 Y189.060 E21.0618
G1 X140.940 Y178.659 E21.5021
G1 X140.940 Y179.224 E21.5190
G1 X150.776 Y189.060 E21.9354
G1 X150.210 Y189.060 E21.9523
G1 X140.940 Y179.790 E22.3448
G1 X140.940 Y180.356 E22.3617
G1 X149.644 Y189.060 E22.7302
G1 X149.079 Y189.060 E22.7471
G1 X140.940 Y180.921 E23.0917
G1 X140.940 Y181.487 E23.1086
G1 X148.513 Y189.060 E23.4292
G1 X147.947 Y189.060 E23.4461
G1 X140.940 Y182.053 E23.7428
G1 X140.940 Y182.618 E23.7597
G1 X147.382 Y189.060 E24.0324
G1 X146.816 Y189.060 E24.0493
G1 X140.940 Y183.184 E24.2981
G1 X140.940 Y183.750 E24.3150
G1 X146.250 Y189.060 E24.5398
G1 X145.685 Y189.060 E24.5567
G1 X140.940 Y184.315 E24.7576
G1 X140.940 Y184.881 E24.7745
G1 X145.119 Y189.060 E24.9514
G1 X144.553 Y189.060 E24.9684
G1 X140.940 Y185.447 E25.1213
G1 X140.940 Y186.012 E25.1383
G1 X143.988 Y189.060 E25.2673
G1 X143.422 Y189.060 E25.2842
