; G-Code generated by Simplify3D(R) Version 4.1.2
; Jun 6, 2021 at 9:41:31 PM
; Settings Summary
;   processName,profil
;   applyToModels,damier_3x3_02mm
;   profileName,BLV mgn Cube-  Simplify3D Profile (modified)
;   profileVersion,2021-04-24 19:08:02
;   baseProfile,Anet A8
;   printMaterial,PLA
;   printQuality,Medium
;   printExtruders,
;   extruderName,MGN CRaszy NF,Biqu H2,LGX FF
;   extruderToolheadNumber,0,1,2
;   extruderDiameter,0.4,0.4,0.4
;   extruderAutoWidth,1,1,1
;   extruderWidth,0.48,0.48,0.48
;   extrusionMultiplier,1,1,1
;   extruderUseRetract,1,1,1
;   extruderRetractionDistance,1.5,1,1
;   extruderExtraRestartDistance,0,0,0
;   extruderRetractionZLift,0,0,0
;   extruderRetractionSpeed,5100,1800,1800
;   extruderUseCoasting,1,0,0
;   extruderCoastingDistance,0.2,0.2,0.2
;   extruderUseWipe,1,0,0
;   extruderWipeDistance,4,5,5
;   primaryExtruder,0
;   layerHeight,0.2
;   topSolidLayers,2
;   bottomSolidLayers,2
;   perimeterOutlines,3
;   printPerimetersInsideOut,0
;   startPointOption,3
;   startPointOriginX,0
;   startPointOriginY,500
;   sequentialIslands,0
;   spiralVaseMode,0
;   firstLayerHeightPercentage,125
;   firstLayerWidthPercentage,100
;   firstLayerUnderspeed,0.4
;   useRaft,0
;   raftExtruder,0
;   raftTopLayers,2
;   raftBaseLayers,0
;   raftOffset,3
;   raftSeparationDistance,0.14
;   raftTopInfill,100
;   aboveRaftSpeedMultiplier,0.3
;   useSkirt,1
;   skirtExtruder,0
;   skirtLayers,1
;   skirtOutlines,2
;   skirtOffset,6
;   usePrimePillar,0
;   primePillarExtruder,999
;   primePillarWidth,12
;   primePillarLocation,7
;   primePillarSpeedMultiplier,1
;   useOozeShield,0
;   oozeShieldExtruder,999
;   oozeShieldOffset,2
;   oozeShieldOutlines,1
;   oozeShieldSidewallShape,1
;   oozeShieldSidewallAngle,30
;   oozeShieldSpeedMultiplier,1
;   infillExtruder,0
;   internalInfillPattern,Rectilinear
;   externalInfillPattern,Rectilinear
;   infillPercentage,15
;   outlineOverlapPercentage,15
;   infillExtrusionWidthPercentage,100
;   minInfillLength,5
;   infillLayerInterval,1
;   internalInfillAngles,45,-45
;   overlapInternalInfillAngles,0
;   externalInfillAngles,45,-45
;   generateSupport,1
;   supportExtruder,0
;   supportInfillPercentage,30
;   supportExtraInflation,0
;   supportBaseLayers,1
;   denseSupportExtruder,0
;   denseSupportLayers,3
;   denseSupportInfillPercentage,70
;   supportLayerInterval,1
;   supportHorizontalPartOffset,0.4
;   supportUpperSeparationLayers,1
;   supportLowerSeparationLayers,1
;   supportType,0
;   supportGridSpacing,1
;   maxOverhangAngle,45
;   supportAngles,0
;   temperatureName,Primary Extruder,Heated Bed
;   temperatureNumber,0,0
;   temperatureSetpointCount,2,1
;   temperatureSetpointLayers,1,2,1
;   temperatureSetpointTemperatures,215,210,60
;   temperatureStabilizeAtStartup,1,1
;   temperatureHeatedBed,0,1
;   fanLayers,1,2
;   fanSpeeds,0,100
;   blipFanToFullPower,1
;   adjustSpeedForCooling,1
;   minSpeedLayerTime,15
;   minCoolingSpeedSlowdown,20
;   increaseFanForCooling,0
;   minFanLayerTime,45
;   maxCoolingFanSpeed,100
;   increaseFanForBridging,1
;   bridgingFanSpeed,100
;   use5D,1
;   relativeEdistances,0
;   allowEaxisZeroing,1
;   independentExtruderAxes,0
;   includeM10123,0
;   stickySupport,1
;   applyToolheadOffsets,0
;   gcodeXoffset,0
;   gcodeYoffset,0
;   gcodeZoffset,0
;   overrideMachineDefinition,1
;   machineTypeOverride,0
;   strokeXoverride,310
;   strokeYoverride,310
;   strokeZoverride,334
;   originOffsetXoverride,0
;   originOffsetYoverride,0
;   originOffsetZoverride,0
;   homeXdirOverride,-1
;   homeYdirOverride,-1
;   homeZdirOverride,-1
;   flipXoverride,1
;   flipYoverride,-1
;   flipZoverride,1
;   toolheadOffsets,0,0|0,0|0,0|0,0|0,0|0,0
;   overrideFirmwareConfiguration,1
;   firmwareTypeOverride,RepRap (Marlin/Repetier/Sprinter)
;   GPXconfigOverride,r2
;   baudRateOverride,115200
;   overridePrinterModels,1
;   printerModelsOverride,Blvfull.stl
;   startingGcode,M291 P"Homing all axis" R"Printing.." S1 T2,G21		; metric values,G28		; home all,M98 P"/sys/load_meshbed.g"	; load mesh bed corresponding to the temp,M98 P"/macros/set_baby_step"	; set baby step,M98 P"/macros/purge_and_wipe"; purge and wipe residu,M98 P"/macros/prime_line"                  ; do the prime line,,G92 E0 F100		; reset extruder,G1 Z10 F3000 		; move z up little to prevent scratching of surface,G92 E0 		; reset extruder,M291 P"Printing started !" R"Printing.." S1 T3
;   layerChangeGcode,
;   retractionGcode,
;   toolChangeGcode,
;   endingGcode,M104 S0 ; turn off extruder,M140 S0 ; turn off bed,M98 P"/macros/remove_baby_step"	; unset baby step,M98 P"/macros/rise30mm",G1 X0 Y300 F1000 ; prepare for part removal,M84 ; disable motors,M106 S0 ;turn off part cooling fan,;M81 ; shutdown,; play song,M300 S294 P200 ;D4: 294,M300 S588 P200 ;D5: 588,M300 S440 P200 ;A4: 440,M300 S392 P200 ;G4: 392,M300 S784 P200 ;G5: 784,M300 S440 P200 ;A4: 440,M300 S740 P200 ;F#5: 740,M300 S440 P200 ;A4: 440,M291 P"Printing finished !" R"Printing.." S1 T0,
;   exportFileFormat,gcode
;   celebration,0
;   celebrationSong,Star Wars
;   postProcessing,
;   defaultSpeed,6000
;   outlineUnderspeed,0.66
;   solidInfillUnderspeed,0.8
;   supportUnderspeed,0.8
;   rapidXYspeed,7200
;   rapidZspeed,1002
;   minBridgingArea,50
;   bridgingExtraInflation,0
;   bridgingExtrusionMultiplier,1
;   bridgingSpeedMultiplier,1
;   useFixedBridgingAngle,0
;   fixedBridgingAngle,0
;   applyBridgingToPerimeters,1
;   filamentDiameters,1.75|1.75|1.75|1.75|1.75|1.75
;   filamentPricesPerKg,30|110|110|110|110|110
;   filamentDensities,1.25|1.25|1.25|1.25|1.25|1.25
;   useMinPrintHeight,0
;   minPrintHeight,0
;   useMaxPrintHeight,0
;   maxPrintHeight,0
;   useDiaphragm,0
;   diaphragmLayerInterval,20
;   robustSlicing,1
;   mergeAllIntoSolid,0
;   onlyRetractWhenCrossingOutline,0
;   retractBetweenLayers,1
;   useRetractionMinTravel,1
;   retractionMinTravel,3
;   retractWhileWiping,1
;   onlyWipeOutlines,1
;   avoidCrossingOutline,1
;   maxMovementDetourFactor,3
;   toolChangeRetractionDistance,12
;   toolChangeExtraRestartDistance,-0.5
;   toolChangeRetractionSpeed,600
;   externalThinWallType,1
;   internalThinWallType,1
;   thinWallAllowedOverlapPercentage,15
;   singleExtrusionMinLength,1
;   singleExtrusionMinPrintingWidthPercentage,50
;   singleExtrusionMaxPrintingWidthPercentage,200
;   singleExtrusionEndpointExtension,0.2
;   horizontalSizeCompensation,0
G90
M82
M106 S0
M140 S60
M190 S60
M104 S215 T2
M109 S215 T2
M291 P"Homing all axis" R"Printing.." S1 T2
G21		; metric values
G28		; home all
M98 P"/sys/load_meshbed.g"	; load mesh bed corresponding to the temp
M98 P"/macros/set_baby_step"	; set baby step
M98 P"/macros/purge_and_wipe"; purge and wipe residu
M98 P"/macros/prime_line"                  ; do the prime line
G92 E0 F100		; reset extruder
G1 Z10 F3000 		; move z up little to prevent scratching of surface
G92 E0 		; reset extruder
M291 P"Printing started !" R"Printing.." S1 T3
; process profil
; layer 1, Z = 0.250
T2
G92 E0.0000
G1 E-1.5000 F5100
; feature skirt
; tool H0.250 W0.480
G1 Z0.250 F1002
G1 X122.216 Y191.720 F7200
G1 E0.0000 F5100
G92 E0.0000
G1 X118.280 Y187.784 E0.2777 F2400
G1 X118.280 Y162.216 E1.5533
G1 X122.216 Y158.280 E1.8310
G1 X138.280 Y158.280 E2.6324
G1 X138.280 Y151.720 E2.9597
G1 X122.216 Y151.720 E3.7611
G1 X118.280 Y147.784 E4.0389
G1 X118.280 Y122.216 E5.3144
G1 X122.216 Y118.280 E5.5922
G1 X147.784 Y118.280 E6.8677
G1 X151.720 Y122.216 E7.1454
G1 X151.720 Y138.280 E7.9468
G1 X158.280 Y138.280 E8.2741
G1 X158.280 Y122.216 E9.0755
G1 X162.216 Y118.280 E9.3533
G1 X187.784 Y118.280 E10.6288
G1 X191.720 Y122.216 E10.9066
G1 X191.720 Y147.784 E12.1821
G1 X187.784 Y151.720 E12.4599
G1 X171.720 Y151.720 E13.2613
G1 X171.720 Y158.280 E13.5885
G1 X187.784 Y158.280 E14.3900
G1 X191.720 Y162.216 E14.6677
G1 X191.720 Y187.784 E15.9432
G1 X187.784 Y191.720 E16.2210
G1 X162.216 Y191.720 E17.4965
G1 X158.280 Y187.784 E17.7743
G1 X158.280 Y171.720 E18.5757
G1 X151.720 Y171.720 E18.9030
G1 X151.720 Y187.784 E19.7044
G1 X147.784 Y191.720 E19.9821
G1 X122.216 Y191.720 E21.2577
G1 X122.415 Y191.240 F7200
G92 E0.0000
G1 X118.760 Y187.585 E0.2579 F2400
G1 X118.760 Y162.415 E1.5136
G1 X122.415 Y158.760 E1.7715
G1 X138.760 Y158.760 E2.5869
G1 X138.760 Y151.240 E2.9621
G1 X122.415 Y151.240 E3.7776
G1 X118.760 Y147.585 E4.0355
G1 X118.760 Y122.415 E5.2912
G1 X122.415 Y118.760 E5.5491
G1 X147.585 Y118.760 E6.8048
G1 X151.240 Y122.415 E7.0627
G1 X151.240 Y138.760 E7.8781
G1 X158.760 Y138.760 E8.2533
G1 X158.760 Y122.415 E9.0687
G1 X162.415 Y118.760 E9.3266
G1 X187.585 Y118.760 E10.5823
G1 X191.240 Y122.415 E10.8402
G1 X191.240 Y147.585 E12.0959
G1 X187.585 Y151.240 E12.3539
G1 X171.240 Y151.240 E13.1693
G1 X171.240 Y158.760 E13.5445
G1 X187.585 Y158.760 E14.3599
G1 X191.240 Y162.415 E14.6178
G1 X191.240 Y187.585 E15.8735
G1 X187.585 Y191.240 E16.1314
G1 X162.415 Y191.240 E17.3871
G1 X158.760 Y187.585 E17.6450
G1 X158.760 Y171.240 E18.4605
G1 X151.240 Y171.240 E18.8356
G1 X151.240 Y187.585 E19.6511
G1 X147.585 Y191.240 E19.9090
G1 X122.415 Y191.240 E21.1647
G92 E0.0000
G1 E-1.5000 F5100
; feature outer perimeter
G1 X125.240 Y184.760 F7200
G1 E0.0000 F5100
G92 E0.0000
G1 X125.240 Y165.240 E0.9739 F1584
G1 X144.210 Y165.240 E1.9203
G1 X144.268 Y164.804 E1.9422
G1 X144.344 Y164.621 E1.9521
G1 X144.464 Y164.464 E1.9620
G1 X144.621 Y164.344 E1.9719
G1 X144.804 Y164.268 E1.9817
G1 X145.240 Y164.210 E2.0037
G1 X145.240 Y145.790 E2.9227
G1 X144.804 Y145.732 E2.9447
G1 X144.621 Y145.656 E2.9545
G1 X144.464 Y145.536 E2.9644
G1 X144.344 Y145.379 E2.9743
G1 X144.268 Y145.196 E2.9841
G1 X144.210 Y144.760 E3.0061
G1 X125.240 Y144.760 E3.9525
G1 X125.240 Y125.240 E4.9264
G1 X144.760 Y125.240 E5.9002
G1 X144.760 Y144.210 E6.8467
G1 X145.196 Y144.268 E6.8686
G1 X145.379 Y144.344 E6.8785
G1 X145.536 Y144.464 E6.8884
G1 X145.656 Y144.621 E6.8982
G1 X145.732 Y144.804 E6.9081
G1 X145.790 Y145.240 E6.9301
G1 X164.210 Y145.240 E7.8491
G1 X164.268 Y144.804 E7.8710
G1 X164.344 Y144.621 E7.8809
G1 X164.464 Y144.464 E7.8908
G1 X164.621 Y144.344 E7.9006
G1 X164.804 Y144.268 E7.9105
G1 X165.240 Y144.210 E7.9325
G1 X165.240 Y125.240 E8.8789
G1 X184.760 Y125.240 E9.8528
G1 X184.760 Y144.760 E10.8266
G1 X165.790 Y144.760 E11.7731
G1 X165.732 Y145.196 E11.7950
G1 X165.656 Y145.379 E11.8049
G1 X165.536 Y145.536 E11.8148
G1 X165.379 Y145.656 E11.8246
G1 X165.196 Y145.732 E11.8345
G1 X164.760 Y145.790 E11.8564
G1 X164.760 Y164.210 E12.7755
G1 X165.196 Y164.268 E12.7974
G1 X165.379 Y164.344 E12.8073
G1 X165.536 Y164.464 E12.8172
G1 X165.656 Y164.621 E12.8270
G1 X165.732 Y164.804 E12.8369
G1 X165.790 Y165.240 E12.8588
G1 X184.760 Y165.240 E13.8053
G1 X184.760 Y184.760 E14.7791
G1 X165.240 Y184.760 E15.7530
G1 X165.240 Y165.790 E16.6994
G1 X164.804 Y165.732 E16.7214
G1 X164.621 Y165.656 E16.7313
G1 X164.464 Y165.536 E16.7411
G1 X164.344 Y165.379 E16.7510
G1 X164.268 Y165.196 E16.7609
G1 X164.210 Y164.760 E16.7828
G1 X145.790 Y164.760 E17.7018
G1 X145.732 Y165.196 E17.7238
G1 X145.656 Y165.379 E17.7337
G1 X145.536 Y165.536 E17.7435
G1 X145.379 Y165.656 E17.7534
G1 X145.196 Y165.732 E17.7633
G1 X144.760 Y165.790 E17.7852
G1 X144.760 Y184.760 E18.7317
G1 X125.440 Y184.760 E19.6955
G1 X125.240 Y184.760 F1584
G92 E0.0000
G1 X125.240 Y184.294 E-1.5000 F1584
G1 X125.240 Y180.760 F1584
; feature inner perimeter
G1 X125.720 Y184.280 F7200
G1 E0.0000 F5100
G92 E0.0000
G1 X125.720 Y165.720 E0.9260 F1992
G1 X144.280 Y165.720 E1.8519
G1 X144.280 Y184.280 E2.7779
G1 X125.920 Y184.280 E3.6939
G1 X125.720 Y184.280 F1992
G92 E0.0000
G1 E-1.5000 F5100
G1 X144.685 Y165.315 F7200
G1 E0.0000 F5100
G92 E0.0000
G1 X144.736 Y164.929 E0.0194 F1992
G1 X144.763 Y164.863 E0.0230
G1 X144.806 Y164.806 E0.0266
G1 X144.863 Y164.763 E0.0301
G1 X144.929 Y164.736 E0.0337
G1 X145.315 Y164.685 E0.0531
G1 X145.264 Y165.071 E0.0726
G1 X145.237 Y165.137 E0.0761
G1 X145.194 Y165.194 E0.0797
G1 X145.137 Y165.237 E0.0833
G1 X145.071 Y165.264 E0.0868
G1 X144.883 Y165.289 E0.0963
G1 X144.685 Y165.315 F1992
G1 X145.720 Y164.280 F7200
G92 E0.0000
G1 X145.720 Y145.720 E0.9260 F1992
G1 X164.280 Y145.720 E1.8519
G1 X164.280 Y164.280 E2.7779
G1 X145.920 Y164.280 E3.6939
G1 X145.720 Y164.280 F1992
G92 E0.0000
G1 E-1.5000 F5100
G1 X164.685 Y164.685 F7200
G1 E0.0000 F5100
G92 E0.0000
G1 X165.071 Y164.736 E0.0194 F1992
G1 X165.137 Y164.763 E0.0230
G1 X165.194 Y164.806 E0.0266
G1 X165.237 Y164.863 E0.0301
G1 X165.264 Y164.929 E0.0337
G1 X165.315 Y165.315 E0.0531
G1 X164.929 Y165.264 E0.0726
G1 X164.863 Y165.237 E0.0761
G1 X164.806 Y165.194 E0.0797
G1 X164.763 Y165.137 E0.0833
G1 X164.736 Y165.071 E0.0868
G1 X164.711 Y164.883 E0.0963
G1 X164.685 Y164.685 F1992
G1 X165.720 Y165.720 F7200
G92 E0.0000
G1 X184.280 Y165.720 E0.9260 F1992
G1 X184.280 Y184.280 E1.8519
G1 X165.720 Y184.280 E2.7779
G1 X165.720 Y165.920 E3.6939
G1 X165.720 Y165.720 F1992
G92 E0.0000
G1 E-1.5000 F5100
G1 X165.665 Y164.643 F7200
G1 X165.656 Y164.621
G1 X165.536 Y164.464
G1 X165.379 Y164.344
G1 X165.196 Y164.268
G1 X164.760 Y164.210
G1 X164.760 Y146.799
G1 X164.685 Y145.315
G1 E0.0000 F5100
G92 E0.0000
G1 X164.736 Y144.929 E0.0194 F1992
G1 X164.763 Y144.863 E0.0230
G1 X164.806 Y144.806 E0.0266
G1 X164.863 Y144.763 E0.0301
G1 X164.929 Y144.736 E0.0337
G1 X165.315 Y144.685 E0.0531
G1 X165.264 Y145.071 E0.0726
G1 X165.237 Y145.137 E0.0761
G1 X165.194 Y145.194 E0.0797
G1 X165.137 Y145.237 E0.0833
G1 X165.071 Y145.264 E0.0868
G1 X164.883 Y145.289 E0.0963
G1 X164.685 Y145.315 F1992
G1 X165.720 Y144.280 F7200
G92 E0.0000
G1 X165.720 Y125.720 E0.9260 F1992
G1 X184.280 Y125.720 E1.8519
G1 X184.280 Y144.280 E2.7779
G1 X165.920 Y144.280 E3.6939
G1 X165.720 Y144.280 F1992
G92 E0.0000
G1 E-1.5000 F5100
G1 X164.643 Y144.335 F7200
G1 X164.621 Y144.344
G1 X164.464 Y144.464
G1 X164.344 Y144.621
G1 X164.268 Y144.804
G1 X164.210 Y145.240
G1 X146.799 Y145.240
G1 X145.315 Y145.315
G1 E0.0000 F5100
G92 E0.0000
G1 X144.929 Y145.264 E0.0194 F1992
G1 X144.863 Y145.237 E0.0230
G1 X144.806 Y145.194 E0.0266
G1 X144.763 Y145.137 E0.0301
G1 X144.736 Y145.071 E0.0337
G1 X144.685 Y144.685 E0.0531
G1 X145.071 Y144.736 E0.0726
G1 X145.137 Y144.763 E0.0761
G1 X145.194 Y144.806 E0.0797
G1 X145.237 Y144.863 E0.0833
G1 X145.264 Y144.929 E0.0868
G1 X145.289 Y145.117 E0.0963
G1 X145.315 Y145.315 F1992
G1 X144.280 Y144.280 F7200
G92 E0.0000
G1 X125.720 Y144.280 E0.9260 F1992
G1 X125.720 Y125.720 E1.8519
G1 X144.280 Y125.720 E2.7779
G1 X144.280 Y144.080 E3.6939
G1 X144.280 Y144.280 F1992
G1 X143.800 Y143.800 F7200
G92 E0.0000
G1 X126.200 Y143.800 E0.8781 F1992
G1 X126.200 Y126.200 E1.7561
G1 X143.800 Y126.200 E2.6342
G1 X143.800 Y143.600 E3.5023
G1 X143.800 Y143.800 F1992
G92 E0.0000
G1 E-1.5000 F5100
G1 X146.200 Y146.200 F7200
G1 E0.0000 F5100
G92 E0.0000
G1 X163.800 Y146.200 E0.8781 F1992
G1 X163.800 Y163.800 E1.7561
G1 X146.200 Y163.800 E2.6342
G1 X146.200 Y146.400 E3.5023
G1 X146.200 Y146.200 F1992
G92 E0.0000
G1 E-1.5000 F5100
G1 X145.240 Y154.200 F7200
G1 X145.240 Y164.210
G1 X144.804 Y164.268
G1 X144.621 Y164.344
G1 X144.464 Y164.464
G1 X144.344 Y164.621
G1 X144.268 Y164.804
G1 X144.210 Y165.240
G1 X143.915 Y165.240
G1 X143.800 Y166.200
G1 E0.0000 F5100
G92 E0.0000
G1 X143.800 Y183.800 E0.8781 F1992
G1 X126.200 Y183.800 E1.7561
G1 X126.200 Y166.200 E2.6342
G1 X143.600 Y166.200 E3.5023
G1 X143.800 Y166.200 F1992
G92 E0.0000
G1 E-1.5000 F5100
G1 X144.760 Y166.200 F7200
G1 X144.760 Y165.790
G1 X145.196 Y165.732
G1 X145.379 Y165.656
G1 X145.536 Y165.536
G1 X145.656 Y165.379
