; generated by PrusaSlicer 2.3.0+win64 on 2021-06-07 at 14:18:12 UTC

; 

; external perimeters extrusion width = 0.45mm
; perimeters extrusion width = 0.45mm
; infill extrusion width = 0.45mm
; solid infill extrusion width = 0.45mm
; top infill extrusion width = 0.40mm
; first layer extrusion width = 0.42mm

; external perimeters extrusion width = 0.45mm
; perimeters extrusion width = 0.45mm
; infill extrusion width = 0.45mm
; solid infill extrusion width = 0.45mm
; top infill extrusion width = 0.40mm
; first layer extrusion width = 0.42mm

M107
M190 S60 ; set bed temperature and wait for it to be reached
G10 S215 P1 ; set temperature
G10 S215 P2 ; set temperature
;TYPE:Custom
G28 ; home all axes
G1 Z5 F5000 ; lift nozzle
M98 P"/sys/load_meshbed.g"	; load mesh bed corresponding to the temp

G10 S215 P1 ; set temperature
M116 ; wait for temperature to be reached
G10 S215 P2 ; set temperature
M116 ; wait for temperature to be reached
G21 ; set units to millimeters
G90 ; use absolute coordinates
M82 ; use absolute distances for extrusion
G92 E0
T1
G92 E0
; Filament gcode
M98 P"/macros/set_baby_step"	; set baby step
M98 P"/macros/purge_and_wipe"; purge and wipe residu
M98 P"/macros/prime_line"                  ; do the prime line
;LAYER_CHANGE
;Z:0.24
;HEIGHT:0.24
G1 Z0.240 F7800.000
G1 E-2.00000 F2400.000
G92 E0
G1 X69.178 Y134.479 F7800.000
G1 E2.00000 F2400.000
;TYPE:Skirt
;WIDTH:0.42
G1 F1800.000
G1 X70.653 Y134.296 E2.05466
G1 X140.491 Y134.132 E4.62251
G1 X200.506 Y134.132 E6.82918
G1 X201.714 Y134.248 E6.87382
G1 X202.879 Y134.592 E6.91845
G1 X203.956 Y135.151 E6.96309
G1 X204.913 Y135.908 E7.00795
G1 X205.708 Y136.834 E7.05281
G1 X206.309 Y137.889 E7.09744
G1 X206.700 Y139.045 E7.14230
G1 X206.863 Y140.247 E7.18694
G1 X206.860 Y200.837 E9.41472
G1 X206.762 Y201.659 E9.44518
G1 X206.557 Y202.469 E9.47588
G1 X206.247 Y203.244 E9.50658
G1 X205.842 Y203.967 E9.53704
G1 X205.343 Y204.636 E9.56774
G1 X204.765 Y205.230 E9.59821
G1 X204.115 Y205.743 E9.62867
G1 X203.403 Y206.168 E9.65914
G1 X202.016 Y206.685 E9.71358
G1 X200.541 Y206.868 E9.76824
G1 X130.703 Y207.033 E12.33609
G1 X70.576 Y207.032 E14.54689
G1 X69.719 Y206.958 E14.57850
G1 X68.886 Y206.771 E14.60988
G1 X68.080 Y206.472 E14.64149
G1 X67.322 Y206.067 E14.67310
G1 X66.625 Y205.564 E14.70471
G1 X66.002 Y204.971 E14.73632
G1 X65.465 Y204.300 E14.76793
G1 X65.026 Y203.568 E14.79931
G1 X64.512 Y202.193 E14.85329
G1 X64.326 Y200.737 E14.90727
G1 X64.331 Y140.409 E17.12543
G1 X64.420 Y139.573 E17.15636
G1 X64.618 Y138.756 E17.18728
G1 X64.923 Y137.972 E17.21821
G1 X65.328 Y137.235 E17.24913
G1 X65.827 Y136.557 E17.28006
G1 X66.411 Y135.952 E17.31098
G1 X67.069 Y135.429 E17.34190
G1 X67.791 Y134.997 E17.37283
G1 X69.122 Y134.500 E17.42506
G1 E15.42506 F2400.000
G92 E0
G1 X161.647 Y161.647 F7800.000
G1 E2.00000 F2400.000
;TYPE:Perimeter
G1 F1800.000
G1 X179.353 Y161.647 E2.65103
G1 X179.353 Y179.353 E3.30205
G1 X161.647 Y179.353 E3.95308
G1 X161.647 Y161.707 E4.60190
G1 X161.278 Y161.278 F7800.000
G1 F1800.000
G1 X179.722 Y161.278 E5.28002
G1 X179.722 Y179.722 E5.95815
G1 X161.278 Y179.722 E6.63627
G1 X161.278 Y161.338 E7.31219
G1 E5.31219 F2400.000
G92 E0
G1 X180.253 Y180.253 F7800.000
G1 E2.00000 F2400.000
G1 F1800.000
G1 X180.556 Y180.293 E2.01123
G1 X180.652 Y180.348 E2.01532
G1 X180.707 Y180.444 E2.01941
G1 X180.747 Y180.747 E2.03065
G1 X180.444 Y180.707 E2.04188
G1 X180.348 Y180.652 E2.04597
G1 X180.293 Y180.556 E2.05006
G1 X180.260 Y180.312 E2.05909
G1 E0.05909 F2400.000
G92 E0
G1 X180.253 Y160.747 F7800.000
G1 E2.00000 F2400.000
G1 F1800.000
G1 X180.293 Y160.444 E2.01123
G1 X180.348 Y160.348 E2.01532
G1 X180.444 Y160.293 E2.01941
G1 X180.747 Y160.253 E2.03065
G1 X180.707 Y160.556 E2.04188
G1 X180.652 Y160.652 E2.04597
G1 X180.556 Y160.707 E2.05006
G1 X180.312 Y160.740 E2.05909
G1 X181.647 Y159.353 F7800.000
G1 F1800.000
G1 X181.647 Y141.647 E2.71011
G1 X199.353 Y141.647 E3.36114
G1 X199.353 Y159.353 E4.01216
G1 X181.707 Y159.353 E4.66098
G1 X181.278 Y159.722 F7800.000
G1 F1800.000
G1 X181.278 Y141.278 E5.33911
G1 X199.722 Y141.278 E6.01723
G1 X199.722 Y159.722 E6.69536
G1 X181.338 Y159.722 E7.37128
G1 E5.37128 F2400.000
G92 E0
G1 X159.353 Y159.353 F7800.000
G1 E2.00000 F2400.000
G1 F1800.000
G1 X141.647 Y159.353 E2.65103
G1 X141.647 Y141.647 E3.30205
G1 X159.353 Y141.647 E3.95308
G1 X159.353 Y159.293 E4.60190
G1 X159.722 Y159.722 F7800.000
G1 F1800.000
G1 X141.278 Y159.722 E5.28002
G1 X141.278 Y141.278 E5.95815
G1 X159.722 Y141.278 E6.63627
G1 X159.722 Y159.662 E7.31219
G1 X160.253 Y160.253 F7800.000
G1 F1800.000
G1 X160.556 Y160.293 E7.32342
G1 X160.652 Y160.348 E7.32751
G1 X160.707 Y160.444 E7.33160
G1 X160.747 Y160.747 E7.34284
G1 X160.444 Y160.707 E7.35407
G1 X160.348 Y160.652 E7.35816
G1 X160.293 Y160.556 E7.36225
G1 X160.260 Y160.312 E7.37128
G1 E5.37128 F2400.000
G92 E0
G1 X160.747 Y180.253 F7800.000
G1 E2.00000 F2400.000
G1 F1800.000
G1 X160.707 Y180.556 E2.01123
G1 X160.652 Y180.652 E2.01532
G1 X160.556 Y180.707 E2.01941
G1 X160.253 Y180.747 E2.03065
G1 X160.293 Y180.444 E2.04188
G1 X160.348 Y180.348 E2.04597
G1 X160.444 Y180.293 E2.05006
G1 X160.688 Y180.260 E2.05909
G1 X159.353 Y181.647 F7800.000
G1 F1800.000
G1 X159.353 Y199.353 E2.71011
G1 X141.647 Y199.353 E3.36114
G1 X141.647 Y181.647 E4.01216
G1 X159.293 Y181.647 E4.66098
G1 X159.722 Y181.278 F7800.000
G1 F1800.000
G1 X159.722 Y199.722 E5.33911
G1 X141.278 Y199.722 E6.01723
G1 X141.278 Y181.278 E6.69536
G1 X159.662 Y181.278 E7.37128
G1 E5.37128 F2400.000
G92 E0
G1 X181.647 Y181.647 F7800.000
G1 E2.00000 F2400.000
G1 F1800.000
G1 X199.353 Y181.647 E2.65103
G1 X199.353 Y199.353 E3.30205
G1 X181.647 Y199.353 E3.95308
G1 X181.647 Y181.707 E4.60190
G1 X181.278 Y181.278 F7800.000
G1 F1800.000
G1 X199.722 Y181.278 E5.28002
G1 X199.722 Y199.722 E5.95815
G1 X181.278 Y199.722 E6.63627
G1 X181.278 Y181.338 E7.31219
G1 X180.910 Y181.338 F7800.000
;TYPE:External perimeter
G1 F1800.000
G1 X180.910 Y181.140 E7.31947
G1 X180.348 Y181.066 E7.34031
G1 X180.207 Y181.008 E7.34594
G1 X180.085 Y180.915 E7.35156
G1 X179.992 Y180.793 E7.35719
G1 X179.934 Y180.652 E7.36282
G1 X179.860 Y180.090 E7.38366
G1 X161.140 Y180.090 E8.07193
G1 X161.066 Y180.652 E8.09277
G1 X161.008 Y180.793 E8.09840
G1 X160.915 Y180.915 E8.10403
G1 X160.793 Y181.008 E8.10966
G1 X160.652 Y181.066 E8.11529
G1 X160.090 Y181.140 E8.13612
G1 X160.090 Y200.090 E8.83287
G1 X140.910 Y200.090 E9.53809
G1 X140.910 Y180.910 E10.24331
G1 X159.860 Y180.910 E10.94006
G1 X159.934 Y180.348 E10.96090
G1 X159.992 Y180.207 E10.96653
G1 X160.085 Y180.085 E10.97216
G1 X160.207 Y179.992 E10.97779
G1 X160.348 Y179.934 E10.98341
G1 X160.910 Y179.860 E11.00425
G1 X160.910 Y161.140 E11.69253
G1 X160.348 Y161.066 E11.71336
G1 X160.207 Y161.008 E11.71899
G1 X160.085 Y160.915 E11.72462
G1 X159.992 Y160.793 E11.73025
G1 X159.934 Y160.652 E11.73588
G1 X159.860 Y160.090 E11.75671
G1 X140.910 Y160.090 E12.45346
G1 X140.910 Y140.910 E13.15868
G1 X160.090 Y140.910 E13.86391
G1 X160.090 Y159.860 E14.56065
G1 X160.652 Y159.934 E14.58149
G1 X160.793 Y159.992 E14.58712
G1 X160.915 Y160.085 E14.59275
G1 X161.008 Y160.207 E14.59838
G1 X161.066 Y160.348 E14.60401
G1 X161.140 Y160.910 E14.62484
G1 X179.860 Y160.910 E15.31312
G1 X179.934 Y160.348 E15.33395
G1 X179.992 Y160.207 E15.33958
G1 X180.085 Y160.085 E15.34521
G1 X180.207 Y159.992 E15.35084
G1 X180.348 Y159.934 E15.35647
G1 X180.910 Y159.860 E15.37730
G1 X180.910 Y140.910 E16.07405
G1 X200.090 Y140.910 E16.77927
G1 X200.090 Y160.090 E17.48450
G1 X181.140 Y160.090 E18.18125
G1 X181.066 Y160.652 E18.20208
G1 X181.008 Y160.793 E18.20771
G1 X180.915 Y160.915 E18.21334
G1 X180.793 Y161.008 E18.21897
G1 X180.652 Y161.066 E18.22460
G1 X180.090 Y161.140 E18.24543
G1 X180.090 Y179.860 E18.93371
G1 X180.652 Y179.934 E18.95454
G1 X180.793 Y179.992 E18.96017
G1 X180.915 Y180.085 E18.96580
G1 X181.008 Y180.207 E18.97143
G1 X181.066 Y180.348 E18.97706
G1 X181.140 Y180.910 E18.99789
G1 X200.090 Y180.910 E19.69464
G1 X200.090 Y200.090 E20.39987
G1 X180.910 Y200.090 E21.10509
G1 X180.910 Y181.398 E21.79235
G1 X181.050 Y181.198 F7800.000
G1 E19.79235 F2400.000
G92 E0
G1 X198.495 Y181.758 F7800.000
G1 E2.00000 F2400.000
;TYPE:Solid infill
;WIDTH:0.421348
G1 F1800.000
G1 X199.077 Y182.339 E2.03037
G1 X199.077 Y182.863 E2.04967
G1 X198.137 Y181.923 E2.09869
G1 X197.614 Y181.923 E2.11799
G1 X199.077 Y183.386 E2.19430
G1 X199.077 Y183.909 E2.21360
G1 X197.091 Y181.923 E2.31721
G1 X196.568 Y181.923 E2.33651
G1 X199.077 Y184.432 E2.46742
G1 X199.077 Y184.955 E2.48672
G1 X196.045 Y181.923 E2.64492
G1 X195.522 Y181.923 E2.66422
G1 X199.077 Y185.478 E2.84972
G1 X199.077 Y186.001 E2.86902
G1 X194.999 Y181.923 E3.08182
G1 X194.476 Y181.923 E3.10112
G1 X199.077 Y186.524 E3.34121
G1 X199.077 Y187.047 E3.36052
G1 X193.953 Y181.923 E3.62790
G1 X193.430 Y181.923 E3.64721
G1 X199.077 Y187.570 E3.94189
G1 X199.077 Y188.093 E3.96119
G1 X192.907 Y181.923 E4.28318
G1 X192.384 Y181.923 E4.30248
G1 X199.077 Y188.616 E4.65176
G1 X199.077 Y189.139 E4.67106
G1 X191.861 Y181.923 E5.04764
G1 X191.338 Y181.923 E5.06694
G1 X199.077 Y189.662 E5.47081
G1 X199.077 Y190.185 E5.49011
G1 X190.815 Y181.923 E5.92128
G1 X190.292 Y181.923 E5.94059
G1 X199.077 Y190.708 E6.39905
G1 X199.077 Y191.231 E6.41836
G1 X189.769 Y181.923 E6.90412
G1 X189.246 Y181.923 E6.92342
G1 X199.077 Y191.754 E7.43648
G1 X199.077 Y192.277 E7.45578
G1 X188.723 Y181.923 E7.99614
G1 X188.200 Y181.923 E8.01544
G1 X199.077 Y192.800 E8.58310
G1 X199.077 Y193.323 E8.60240
G1 X187.677 Y181.923 E9.19735
G1 X187.154 Y181.923 E9.21665
G1 X199.077 Y193.846 E9.83890
G1 X199.077 Y194.369 E9.85820
G1 X186.631 Y181.923 E10.50775
G1 X186.108 Y181.923 E10.52705
G1 X199.077 Y194.892 E11.20389
G1 X199.077 Y195.415 E11.22319
G1 X185.585 Y181.923 E11.92733
G1 X185.062 Y181.923 E11.94663
G1 X199.077 Y195.938 E12.67807
G1 X199.077 Y196.462 E12.69737
G1 X184.538 Y181.923 E13.45610
G1 X184.015 Y181.923 E13.47540
G1 X199.077 Y196.985 E14.26143
G1 X199.077 Y197.508 E14.28073
G1 X183.492 Y181.923 E15.09406
G1 X182.969 Y181.923 E15.11336
G1 X199.077 Y198.031 E15.95399
G1 X199.077 Y198.554 E15.97329
G1 X182.446 Y181.923 E16.84121
G1 X181.923 Y181.923 E16.86051
G1 X199.077 Y199.077 E17.75572
G1 X198.554 Y199.077 E17.77502
G1 X181.923 Y182.446 E18.64294
G1 X181.923 Y182.969 E18.66224
G1 X198.031 Y199.077 E19.50286
G1 X197.507 Y199.077 E19.52216
G1 X181.923 Y183.492 E20.33548
G1 X181.923 Y184.016 E20.35478
G1 X196.984 Y199.077 E21.14081
G1 X196.461 Y199.077 E21.16011
G1 X181.923 Y184.539 E21.91883
G1 X181.923 Y185.062 E21.93814
G1 X195.938 Y199.077 E22.66957
G1 X195.415 Y199.077 E22.68887
G1 X181.923 Y185.585 E23.39300
G1 X181.923 Y186.108 E23.41231
G1 X194.892 Y199.077 E24.08914
G1 X194.369 Y199.077 E24.10844
G1 X181.923 Y186.631 E24.75798
G1 X181.923 Y187.154 E24.77729
G1 X193.846 Y199.077 E25.39953
G1 X193.323 Y199.077 E25.41883
G1 X181.923 Y187.677 E26.01378
G1 X181.923 Y188.200 E26.03308
G1 X192.800 Y199.077 E26.60073
G1 X192.277 Y199.077 E26.62003
G1 X181.923 Y188.723 E27.16038
G1 X181.923 Y189.246 E27.17969
G1 X191.754 Y199.077 E27.69274
G1 X191.231 Y199.077 E27.71204
G1 X181.923 Y189.769 E28.19780
G1 X181.923 Y190.292 E28.21711
G1 X190.708 Y199.077 E28.67557
G1 X190.185 Y199.077 E28.69487
G1 X181.923 Y190.815 E29.12604
G1 X181.923 Y191.338 E29.14534
G1 X189.662 Y199.077 E29.54921
G1 X189.139 Y199.077 E29.56851
G1 X181.923 Y191.861 E29.94508
G1 X181.923 Y192.384 E29.96438
G1 X188.616 Y199.077 E30.31366
G1 X188.093 Y199.077 E30.33296
G1 X181.923 Y192.907 E30.65494
G1 X181.923 Y193.430 E30.67424
G1 X187.570 Y199.077 E30.96892
G1 X187.047 Y199.077 E30.98822
G1 X181.923 Y193.953 E31.25561
G1 X181.923 Y194.476 E31.27491
G1 X186.524 Y199.077 E31.51500
G1 X186.001 Y199.077 E31.53430
G1 X181.923 Y194.999 E31.74709
G1 X181.923 Y195.522 E31.76639
G1 X185.478 Y199.077 E31.95188
G1 X184.955 Y199.077 E31.97119
G1 X181.923 Y196.045 E32.12938
G1 X181.923 Y196.568 E32.14869
G1 X184.432 Y199.077 E32.27959
G1 X183.908 Y199.077 E32.29889
G1 X181.923 Y197.091 E32.40249
G1 X181.923 Y197.615 E32.42179
G1 X183.385 Y199.077 E32.49810
G1 X182.862 Y199.077 E32.51740
G1 X181.923 Y198.138 E32.56641
G1 X181.923 Y198.661 E32.58571
G1 X182.505 Y199.242 E32.61608
G1 E30.61608 F2400.000
G92 E0
G1 X158.495 Y181.758 F7800.000
G1 E2.00000 F2400.000
G1 F1800.000
G1 X159.077 Y182.339 E2.03037
G1 X159.077 Y182.863 E2.04967
G1 X158.137 Y181.923 E2.09869
G1 X157.614 Y181.923 E2.11799
G1 X159.077 Y183.386 E2.19430
G1 X159.077 Y183.909 E2.21360
G1 X157.091 Y181.923 E2.31721
G1 X156.568 Y181.923 E2.33651
G1 X159.077 Y184.432 E2.46742
G1 X159.077 Y184.955 E2.48672
G1 X156.045 Y181.923 E2.64492
G1 X155.522 Y181.923 E2.66422
G1 X159.077 Y185.478 E2.84972
G1 X159.077 Y186.001 E2.86902
G1 X154.999 Y181.923 E3.08182
G1 X154.476 Y181.923 E3.10112
G1 X159.077 Y186.524 E3.34121
G1 X159.077 Y187.047 E3.36052
G1 X153.953 Y181.923 E3.62790
G1 X153.430 Y181.923 E3.64721
G1 X159.077 Y187.570 E3.94189
G1 X159.077 Y188.093 E3.96119
G1 X152.907 Y181.923 E4.28318
G1 X152.384 Y181.923 E4.30248
G1 X159.077 Y188.616 E4.65176
G1 X159.077 Y189.139 E4.67106
G1 X151.861 Y181.923 E5.04764
G1 X151.338 Y181.923 E5.06694
G1 X159.077 Y189.662 E5.47081
G1 X159.077 Y190.185 E5.49011
G1 X150.815 Y181.923 E5.92128
G1 X150.292 Y181.923 E5.94059
G1 X159.077 Y190.708 E6.39905
G1 X159.077 Y191.231 E6.41836
G1 X149.769 Y181.923 E6.90412
G1 X149.246 Y181.923 E6.92342
G1 X159.077 Y191.754 E7.43648
G1 X159.077 Y192.277 E7.45578
G1 X148.723 Y181.923 E7.99614
G1 X148.200 Y181.923 E8.01544
G1 X159.077 Y192.800 E8.58310
G1 X159.077 Y193.323 E8.60240
G1 X147.677 Y181.923 E9.19735
G1 X147.154 Y181.923 E9.21665
G1 X159.077 Y193.846 E9.83890
G1 X159.077 Y194.369 E9.85820
G1 X146.631 Y181.923 E10.50775
G1 X146.108 Y181.923 E10.52705
G1 X159.077 Y194.892 E11.20389
G1 X159.077 Y195.415 E11.22319
G1 X145.585 Y181.923 E11.92733
G1 X145.062 Y181.923 E11.94663
G1 X159.077 Y195.938 E12.67807
G1 X159.077 Y196.462 E12.69737
G1 X144.538 Y181.923 E13.45610
G1 X144.015 Y181.923 E13.47540
G1 X159.077 Y196.985 E14.26143
G1 X159.077 Y197.508 E14.28074
G1 X143.492 Y181.923 E15.09406
G1 X142.969 Y181.923 E15.11336
G1 X159.077 Y198.031 E15.95399
G1 X159.077 Y198.554 E15.97329
G1 X142.446 Y181.923 E16.84121
G1 X141.923 Y181.923 E16.86051
G1 X159.077 Y199.077 E17.75572
G1 X158.554 Y199.077 E17.77502
G1 X141.923 Y182.446 E18.64294
G1 X141.923 Y182.969 E18.66224
G1 X158.031 Y199.077 E19.50286
G1 X157.507 Y199.077 E19.52216
G1 X141.923 Y183.492 E20.33548
G1 X141.923 Y184.016 E20.35478
G1 X156.984 Y199.077 E21.14081
G1 X156.461 Y199.077 E21.16011
G1 X141.923 Y184.539 E21.91884
G1 X141.923 Y185.062 E21.93814
G1 X155.938 Y199.077 E22.66957
G1 X155.415 Y199.077 E22.68887
G1 X141.923 Y185.585 E23.39300
G1 X141.923 Y186.108 E23.41231
G1 X154.892 Y199.077 E24.08914
G1 X154.369 Y199.077 E24.10845
G1 X141.923 Y186.631 E24.75799
G1 X141.923 Y187.154 E24.77729
G1 X153.846 Y199.077 E25.39953
G1 X153.323 Y199.077 E25.41883
G1 X141.923 Y187.677 E26.01378
G1 X141.923 Y188.200 E26.03308
G1 X152.800 Y199.077 E26.60073
G1 X152.277 Y199.077 E26.62003
G1 X141.923 Y188.723 E27.16039
G1 X141.923 Y189.246 E27.17969
G1 X151.754 Y199.077 E27.69274
G1 X151.231 Y199.077 E27.71205
G1 X141.923 Y189.769 E28.19781
G1 X141.923 Y190.292 E28.21711
G1 X150.708 Y199.077 E28.67557
G1 X150.185 Y199.077 E28.69487
G1 X141.923 Y190.815 E29.12604
G1 X141.923 Y191.338 E29.14534
G1 X149.662 Y199.077 E29.54921
G1 X149.139 Y199.077 E29.56851
G1 X141.923 Y191.861 E29.94508
G1 X141.923 Y192.384 E29.96438
G1 X148.616 Y199.077 E30.31366
G1 X148.093 Y199.077 E30.33296
G1 X141.923 Y192.907 E30.65494
G1 X141.923 Y193.430 E30.67424
G1 X147.570 Y199.077 E30.96892
G1 X147.047 Y199.077 E30.98822
G1 X141.923 Y193.953 E31.25561
G1 X141.923 Y194.476 E31.27491
G1 X146.524 Y199.077 E31.51500
G1 X146.001 Y199.077 E31.53430
G1 X141.923 Y194.999 E31.74709
G1 X141.923 Y195.522 E31.76639
G1 X145.478 Y199.077 E31.95189
G1 X144.955 Y199.077 E31.97119
G1 X141.923 Y196.045 E32.12939
G1 X141.923 Y196.568 E32.14869
G1 X144.432 Y199.077 E32.27959
G1 X143.908 Y199.077 E32.29889
