; generated by PrusaSlicer 2.3.0+win64 on 2021-06-06 at 21:58:42 UTC

; 

; external perimeters extrusion width = 0.45mm
; perimeters extrusion width = 0.45mm
; infill extrusion width = 0.45mm
; solid infill extrusion width = 0.45mm
; top infill extrusion width = 0.40mm
; first layer extrusion width = 0.42mm

M107
M190 S60 ; set bed temperature and wait for it to be reached
G10 S215 P1 ; set temperature
;TYPE:Custom
G28 ; home all axes
G1 Z5 F5000 ; lift nozzle
M98 P"/sys/load_meshbed.g"	; load mesh bed corresponding to the temp

G10 S215 P1 ; set temperature
;M116 ; wait for temperature to be reached
G21 ; set units to millimeters
G90 ; use absolute coordinates
M82 ; use absolute distances for extrusion
G92 E0
T1
G92 E0
; Filament gcode
M98 P"/macros/set_baby_step"	; set baby step
M98 P"/macros/purge_and_wipe"; purge and wipe residu
M98 P"/macros/prime_line"                  ; do the prime line
;LAYER_CHANGE
;Z:0.24
;HEIGHT:0.24
G1 Z0.240 F7800.000
G1 E-2.00000 F2400.000
G92 E0
G1 X120.277 Y120.728 F7800.000
G1 E2.00000 F2400.000
;TYPE:Skirt
;WIDTH:0.42
G1 F1800.000
G1 X121.223 Y119.873 E2.04691
G1 X122.321 Y119.222 E2.09383
G1 X123.526 Y118.804 E2.14074
G1 X124.791 Y118.635 E2.18766
G1 X185.006 Y118.632 E4.40169
G1 X186.190 Y118.744 E4.44541
G1 X187.338 Y119.076 E4.48936
G1 X188.404 Y119.617 E4.53331
G1 X189.350 Y120.348 E4.57726
G1 X190.142 Y121.243 E4.62121
G1 X190.754 Y122.270 E4.66516
G1 X191.162 Y123.393 E4.70911
G1 X191.354 Y124.573 E4.75305
G1 X191.366 Y185.162 E6.98083
G1 X191.238 Y186.282 E7.02227
G1 X190.912 Y187.367 E7.06393
G1 X190.402 Y188.372 E7.10537
G1 X189.723 Y189.272 E7.14681
G1 X188.742 Y190.153 E7.19532
G1 X187.600 Y190.814 E7.24383
G1 X186.352 Y191.223 E7.29212
G1 X185.041 Y191.368 E7.34063
G1 X124.838 Y191.366 E9.55420
G1 X123.718 Y191.238 E9.59564
G1 X122.633 Y190.912 E9.63731
G1 X121.628 Y190.402 E9.67874
G1 X120.728 Y189.723 E9.72018
G1 X119.847 Y188.742 E9.76869
G1 X119.186 Y187.600 E9.81720
G1 X118.777 Y186.352 E9.86549
G1 X118.632 Y185.041 E9.91400
G1 X118.634 Y124.838 E12.12757
G1 X118.762 Y123.718 E12.16901
G1 X119.088 Y122.633 E12.21068
G1 X119.598 Y121.628 E12.25211
G1 X120.240 Y120.776 E12.29135
G1 E10.29135 F2400.000
G92 E0
G1 X146.147 Y146.147 F7800.000
G1 E2.00000 F2400.000
;TYPE:Perimeter
G1 F1800.000
G1 X163.853 Y146.147 E2.65103
G1 X163.853 Y163.853 E3.30205
G1 X146.147 Y163.853 E3.95308
G1 X146.147 Y146.207 E4.60190
G1 X145.778 Y145.778 F7800.000
G1 F1800.000
G1 X164.222 Y145.778 E5.28002
G1 X164.222 Y164.222 E5.95815
G1 X145.778 Y164.222 E6.63627
G1 X145.778 Y145.838 E7.31219
G1 E5.31219 F2400.000
G92 E0
G1 X164.753 Y164.753 F7800.000
G1 E2.00000 F2400.000
G1 F1800.000
G1 X165.056 Y164.793 E2.01123
G1 X165.152 Y164.848 E2.01532
G1 X165.207 Y164.944 E2.01941
G1 X165.247 Y165.247 E2.03065
G1 X164.944 Y165.207 E2.04188
G1 X164.848 Y165.152 E2.04597
G1 X164.793 Y165.056 E2.05006
G1 X164.760 Y164.812 E2.05909
G1 E0.05909 F2400.000
G92 E0
G1 X164.753 Y145.247 F7800.000
G1 E2.00000 F2400.000
G1 F1800.000
G1 X164.793 Y144.944 E2.01123
G1 X164.848 Y144.848 E2.01532
G1 X164.944 Y144.793 E2.01941
G1 X165.247 Y144.753 E2.03065
G1 X165.207 Y145.056 E2.04188
G1 X165.152 Y145.152 E2.04597
G1 X165.056 Y145.207 E2.05006
G1 X164.812 Y145.240 E2.05909
G1 X166.147 Y143.853 F7800.000
G1 F1800.000
G1 X166.147 Y126.147 E2.71011
G1 X183.853 Y126.147 E3.36114
G1 X183.853 Y143.853 E4.01216
G1 X166.207 Y143.853 E4.66098
G1 X165.778 Y144.222 F7800.000
G1 F1800.000
G1 X165.778 Y125.778 E5.33911
G1 X184.222 Y125.778 E6.01723
G1 X184.222 Y144.222 E6.69536
G1 X165.838 Y144.222 E7.37128
G1 E5.37128 F2400.000
G92 E0
G1 X143.853 Y143.853 F7800.000
G1 E2.00000 F2400.000
G1 F1800.000
G1 X126.147 Y143.853 E2.65103
G1 X126.147 Y126.147 E3.30205
G1 X143.853 Y126.147 E3.95308
G1 X143.853 Y143.793 E4.60190
G1 X144.222 Y144.222 F7800.000
G1 F1800.000
G1 X125.778 Y144.222 E5.28002
G1 X125.778 Y125.778 E5.95815
G1 X144.222 Y125.778 E6.63627
G1 X144.222 Y144.162 E7.31219
G1 X144.753 Y144.753 F7800.000
G1 F1800.000
G1 X145.056 Y144.793 E7.32342
G1 X145.152 Y144.848 E7.32751
G1 X145.207 Y144.944 E7.33160
G1 X145.247 Y145.247 E7.34284
G1 X144.944 Y145.207 E7.35407
G1 X144.848 Y145.152 E7.35816
G1 X144.793 Y145.056 E7.36225
G1 X144.760 Y144.812 E7.37128
G1 E5.37128 F2400.000
G92 E0
G1 X145.247 Y164.753 F7800.000
G1 E2.00000 F2400.000
G1 F1800.000
G1 X145.207 Y165.056 E2.01123
G1 X145.152 Y165.152 E2.01532
G1 X145.056 Y165.207 E2.01941
G1 X144.753 Y165.247 E2.03065
G1 X144.793 Y164.944 E2.04188
G1 X144.848 Y164.848 E2.04597
G1 X144.944 Y164.793 E2.05006
G1 X145.188 Y164.760 E2.05909
G1 X143.853 Y166.147 F7800.000
G1 F1800.000
G1 X143.853 Y183.853 E2.71011
G1 X126.147 Y183.853 E3.36114
G1 X126.147 Y166.147 E4.01216
G1 X143.793 Y166.147 E4.66098
G1 X144.222 Y165.778 F7800.000
G1 F1800.000
G1 X144.222 Y184.222 E5.33911
G1 X125.778 Y184.222 E6.01723
G1 X125.778 Y165.778 E6.69536
G1 X144.162 Y165.778 E7.37128
G1 E5.37128 F2400.000
G92 E0
G1 X166.147 Y166.147 F7800.000
G1 E2.00000 F2400.000
G1 F1800.000
G1 X183.853 Y166.147 E2.65103
G1 X183.853 Y183.853 E3.30205
G1 X166.147 Y183.853 E3.95308
G1 X166.147 Y166.207 E4.60190
G1 X165.778 Y165.778 F7800.000
G1 F1800.000
G1 X184.222 Y165.778 E5.28002
G1 X184.222 Y184.222 E5.95815
G1 X165.778 Y184.222 E6.63627
G1 X165.778 Y165.838 E7.31219
G1 X165.410 Y165.838 F7800.000
;TYPE:External perimeter
G1 F1800.000
G1 X165.410 Y165.640 E7.31947
G1 X164.848 Y165.566 E7.34031
G1 X164.707 Y165.508 E7.34594
G1 X164.585 Y165.415 E7.35156
G1 X164.492 Y165.293 E7.35719
G1 X164.434 Y165.152 E7.36282
G1 X164.360 Y164.590 E7.38366
G1 X145.640 Y164.590 E8.07193
G1 X145.566 Y165.152 E8.09277
G1 X145.508 Y165.293 E8.09840
G1 X145.415 Y165.415 E8.10403
G1 X145.293 Y165.508 E8.10966
G1 X145.152 Y165.566 E8.11529
G1 X144.590 Y165.640 E8.13612
G1 X144.590 Y184.590 E8.83287
G1 X125.410 Y184.590 E9.53809
G1 X125.410 Y165.410 E10.24331
G1 X144.360 Y165.410 E10.94006
G1 X144.434 Y164.848 E10.96090
G1 X144.492 Y164.707 E10.96653
G1 X144.585 Y164.585 E10.97216
G1 X144.707 Y164.492 E10.97779
G1 X144.848 Y164.434 E10.98341
G1 X145.410 Y164.360 E11.00425
G1 X145.410 Y145.640 E11.69253
G1 X144.848 Y145.566 E11.71336
G1 X144.707 Y145.508 E11.71899
G1 X144.585 Y145.415 E11.72462
G1 X144.492 Y145.293 E11.73025
G1 X144.434 Y145.152 E11.73588
G1 X144.360 Y144.590 E11.75671
G1 X125.410 Y144.590 E12.45346
G1 X125.410 Y125.410 E13.15868
G1 X144.590 Y125.410 E13.86391
G1 X144.590 Y144.360 E14.56065
G1 X145.152 Y144.434 E14.58149
G1 X145.293 Y144.492 E14.58712
G1 X145.415 Y144.585 E14.59275
G1 X145.508 Y144.707 E14.59838
G1 X145.566 Y144.848 E14.60401
G1 X145.640 Y145.410 E14.62484
G1 X164.360 Y145.410 E15.31312
G1 X164.434 Y144.848 E15.33395
G1 X164.492 Y144.707 E15.33958
G1 X164.585 Y144.585 E15.34521
G1 X164.707 Y144.492 E15.35084
G1 X164.848 Y144.434 E15.35647
G1 X165.410 Y144.360 E15.37730
G1 X165.410 Y125.410 E16.07405
G1 X184.590 Y125.410 E16.77927
G1 X184.590 Y144.590 E17.48450
G1 X165.640 Y144.590 E18.18125
G1 X165.566 Y145.152 E18.20208
G1 X165.508 Y145.293 E18.20771
G1 X165.415 Y145.415 E18.21334
G1 X165.293 Y145.508 E18.21897
G1 X165.152 Y145.566 E18.22460
G1 X164.590 Y145.640 E18.24543
G1 X164.590 Y164.360 E18.93371
G1 X165.152 Y164.434 E18.95454
G1 X165.293 Y164.492 E18.96017
G1 X165.415 Y164.585 E18.96580
G1 X165.508 Y164.707 E18.97143
G1 X165.566 Y164.848 E18.97706
G1 X165.640 Y165.410 E18.99789
G1 X184.590 Y165.410 E19.69464
G1 X184.590 Y184.590 E20.39987
G1 X165.410 Y184.590 E21.10509
G1 X165.410 Y165.898 E21.79235
G1 X165.550 Y165.698 F7800.000
G1 E19.79235 F2400.000
G92 E0
G1 X182.995 Y166.258 F7800.000
G1 E2.00000 F2400.000
;TYPE:Solid infill
;WIDTH:0.421348
G1 F1800.000
G1 X183.577 Y166.839 E2.03037
G1 X183.577 Y167.363 E2.04967
G1 X182.637 Y166.423 E2.09869
G1 X182.114 Y166.423 E2.11799
G1 X183.577 Y167.886 E2.19430
G1 X183.577 Y168.409 E2.21360
G1 X181.591 Y166.423 E2.31721
G1 X181.068 Y166.423 E2.33651
G1 X183.577 Y168.932 E2.46742
G1 X183.577 Y169.455 E2.48672
G1 X180.545 Y166.423 E2.64492
G1 X180.022 Y166.423 E2.66422
G1 X183.577 Y169.978 E2.84972
G1 X183.577 Y170.501 E2.86902
G1 X179.499 Y166.423 E3.08182
G1 X178.976 Y166.423 E3.10112
G1 X183.577 Y171.024 E3.34121
G1 X183.577 Y171.547 E3.36052
G1 X178.453 Y166.423 E3.62790
G1 X177.930 Y166.423 E3.64721
G1 X183.577 Y172.070 E3.94189
G1 X183.577 Y172.593 E3.96119
G1 X177.407 Y166.423 E4.28318
G1 X176.884 Y166.423 E4.30248
G1 X183.577 Y173.116 E4.65176
G1 X183.577 Y173.639 E4.67106
G1 X176.361 Y166.423 E5.04764
G1 X175.838 Y166.423 E5.06694
G1 X183.577 Y174.162 E5.47081
G1 X183.577 Y174.685 E5.49011
G1 X175.315 Y166.423 E5.92128
G1 X174.792 Y166.423 E5.94059
G1 X183.577 Y175.208 E6.39905
G1 X183.577 Y175.731 E6.41836
G1 X174.269 Y166.423 E6.90412
G1 X173.746 Y166.423 E6.92342
G1 X183.577 Y176.254 E7.43648
G1 X183.577 Y176.777 E7.45578
G1 X173.223 Y166.423 E7.99614
G1 X172.700 Y166.423 E8.01544
G1 X183.577 Y177.300 E8.58310
G1 X183.577 Y177.823 E8.60240
G1 X172.177 Y166.423 E9.19735
G1 X171.654 Y166.423 E9.21665
G1 X183.577 Y178.346 E9.83890
G1 X183.577 Y178.869 E9.85820
G1 X171.131 Y166.423 E10.50775
G1 X170.608 Y166.423 E10.52705
G1 X183.577 Y179.392 E11.20389
G1 X183.577 Y179.915 E11.22319
G1 X170.085 Y166.423 E11.92733
G1 X169.562 Y166.423 E11.94663
G1 X183.577 Y180.438 E12.67807
G1 X183.577 Y180.962 E12.69737
G1 X169.038 Y166.423 E13.45610
G1 X168.515 Y166.423 E13.47540
G1 X183.577 Y181.485 E14.26143
G1 X183.577 Y182.008 E14.28073
G1 X167.992 Y166.423 E15.09406
G1 X167.469 Y166.423 E15.11336
G1 X183.577 Y182.531 E15.95399
G1 X183.577 Y183.054 E15.97329
G1 X166.946 Y166.423 E16.84121
G1 X166.423 Y166.423 E16.86051
G1 X183.577 Y183.577 E17.75572
G1 X183.054 Y183.577 E17.77502
G1 X166.423 Y166.946 E18.64294
G1 X166.423 Y167.469 E18.66224
G1 X182.531 Y183.577 E19.50286
G1 X182.007 Y183.577 E19.52216
G1 X166.423 Y167.992 E20.33548
G1 X166.423 Y168.516 E20.35478
G1 X181.484 Y183.577 E21.14081
G1 X180.961 Y183.577 E21.16011
G1 X166.423 Y169.039 E21.91883
G1 X166.423 Y169.562 E21.93814
G1 X180.438 Y183.577 E22.66957
G1 X179.915 Y183.577 E22.68887
G1 X166.423 Y170.085 E23.39300
G1 X166.423 Y170.608 E23.41231
G1 X179.392 Y183.577 E24.08914
G1 X178.869 Y183.577 E24.10844
G1 X166.423 Y171.131 E24.75798
G1 X166.423 Y171.654 E24.77729
G1 X178.346 Y183.577 E25.39953
G1 X177.823 Y183.577 E25.41883
G1 X166.423 Y172.177 E26.01378
G1 X166.423 Y172.700 E26.03308
G1 X177.300 Y183.577 E26.60073
G1 X176.777 Y183.577 E26.62003
G1 X166.423 Y173.223 E27.16038
G1 X166.423 Y173.746 E27.17969
G1 X176.254 Y183.577 E27.69274
G1 X175.731 Y183.577 E27.71204
G1 X166.423 Y174.269 E28.19780
G1 X166.423 Y174.792 E28.21711
G1 X175.208 Y183.577 E28.67557
G1 X174.685 Y183.577 E28.69487
G1 X166.423 Y175.315 E29.12604
G1 X166.423 Y175.838 E29.14534
G1 X174.162 Y183.577 E29.54921
G1 X173.639 Y183.577 E29.56851
G1 X166.423 Y176.361 E29.94508
G1 X166.423 Y176.884 E29.96438
G1 X173.116 Y183.577 E30.31366
G1 X172.593 Y183.577 E30.33296
G1 X166.423 Y177.407 E30.65494
G1 X166.423 Y177.930 E30.67424
G1 X172.070 Y183.577 E30.96892
G1 X171.547 Y183.577 E30.98822
G1 X166.423 Y178.453 E31.25561
G1 X166.423 Y178.976 E31.27491
G1 X171.024 Y183.577 E31.51500
G1 X170.501 Y183.577 E31.53430
G1 X166.423 Y179.499 E31.74709
G1 X166.423 Y180.022 E31.76639
G1 X169.978 Y183.577 E31.95188
G1 X169.455 Y183.577 E31.97119
G1 X166.423 Y180.545 E32.12938
G1 X166.423 Y181.068 E32.14869
G1 X168.932 Y183.577 E32.27959
G1 X168.408 Y183.577 E32.29889
G1 X166.423 Y181.591 E32.40249
G1 X166.423 Y182.115 E32.42179
G1 X167.885 Y183.577 E32.49810
G1 X167.362 Y183.577 E32.51740
G1 X166.423 Y182.638 E32.56641
G1 X166.423 Y183.161 E32.58571
G1 X167.005 Y183.742 E32.61608
G1 E30.61608 F2400.000
G92 E0
G1 X142.995 Y166.258 F7800.000
G1 E2.00000 F2400.000
G1 F1800.000
G1 X143.577 Y166.839 E2.03037
G1 X143.577 Y167.363 E2.04967
G1 X142.637 Y166.423 E2.09869
G1 X142.114 Y166.423 E2.11799
G1 X143.577 Y167.886 E2.19430
G1 X143.577 Y168.409 E2.21360
G1 X141.591 Y166.423 E2.31721
G1 X141.068 Y166.423 E2.33651
G1 X143.577 Y168.932 E2.46742
G1 X143.577 Y169.455 E2.48672
G1 X140.545 Y166.423 E2.64492
G1 X140.022 Y166.423 E2.66422
G1 X143.577 Y169.978 E2.84972
G1 X143.577 Y170.501 E2.86902
G1 X139.499 Y166.423 E3.08182
G1 X138.976 Y166.423 E3.10112
G1 X143.577 Y171.024 E3.34121
G1 X143.577 Y171.547 E3.36052
G1 X138.453 Y166.423 E3.62790
G1 X137.930 Y166.423 E3.64721
G1 X143.577 Y172.070 E3.94189
G1 X143.577 Y172.593 E3.96119
G1 X137.407 Y166.423 E4.28318
G1 X136.884 Y166.423 E4.30248
G1 X143.577 Y173.116 E4.65176
G1 X143.577 Y173.639 E4.67106
G1 X136.361 Y166.423 E5.04764
G1 X135.838 Y166.423 E5.06694
G1 X143.577 Y174.162 E5.47081
G1 X143.577 Y174.685 E5.49011
G1 X135.315 Y166.423 E5.92128
G1 X134.792 Y166.423 E5.94059
G1 X143.577 Y175.208 E6.39905
G1 X143.577 Y175.731 E6.41836
G1 X134.269 Y166.423 E6.90412
G1 X133.746 Y166.423 E6.92342
G1 X143.577 Y176.254 E7.43648
G1 X143.577 Y176.777 E7.45578
G1 X133.223 Y166.423 E7.99614
G1 X132.700 Y166.423 E8.01544
G1 X143.577 Y177.300 E8.58310
G1 X143.577 Y177.823 E8.60240
G1 X132.177 Y166.423 E9.19735
G1 X131.654 Y166.423 E9.21665
G1 X143.577 Y178.346 E9.83890
G1 X143.577 Y178.869 E9.85820
G1 X131.131 Y166.423 E10.50775
G1 X130.608 Y166.423 E10.52705
G1 X143.577 Y179.392 E11.20389
G1 X143.577 Y179.915 E11.22319
G1 X130.085 Y166.423 E11.92733
G1 X129.562 Y166.423 E11.94663
G1 X143.577 Y180.438 E12.67807
G1 X143.577 Y180.962 E12.69737
G1 X129.038 Y166.423 E13.45610
G1 X128.515 Y166.423 E13.47540
G1 X143.577 Y181.485 E14.26143
G1 X143.577 Y182.008 E14.28074
G1 X127.992 Y166.423 E15.09406
G1 X127.469 Y166.423 E15.11336
G1 X143.577 Y182.531 E15.95399
G1 X143.577 Y183.054 E15.97329
G1 X126.946 Y166.423 E16.84121
G1 X126.423 Y166.423 E16.86051
G1 X143.577 Y183.577 E17.75572
G1 X143.054 Y183.577 E17.77502
G1 X126.423 Y166.946 E18.64294
G1 X126.423 Y167.469 E18.66224
G1 X142.531 Y183.577 E19.50286
G1 X142.007 Y183.577 E19.52216
G1 X126.423 Y167.992 E20.33548
G1 X126.423 Y168.516 E20.35478
G1 X141.484 Y183.577 E21.14081
G1 X140.961 Y183.577 E21.16011
G1 X126.423 Y169.039 E21.91884
G1 X126.423 Y169.562 E21.93814
G1 X140.438 Y183.577 E22.66957
G1 X139.915 Y183.577 E22.68887
G1 X126.423 Y170.085 E23.39300
G1 X126.423 Y170.608 E23.41231
G1 X139.392 Y183.577 E24.08914
G1 X138.869 Y183.577 E24.10845
G1 X126.423 Y171.131 E24.75799
G1 X126.423 Y171.654 E24.77729
G1 X138.346 Y183.577 E25.39953
G1 X137.823 Y183.577 E25.41883
G1 X126.423 Y172.177 E26.01378
G1 X126.423 Y172.700 E26.03308
G1 X137.300 Y183.577 E26.60073
G1 X136.777 Y183.577 E26.62003
G1 X126.423 Y173.223 E27.16039
G1 X126.423 Y173.746 E27.17969
G1 X136.254 Y183.577 E27.69274
G1 X135.731 Y183.577 E27.71205
G1 X126.423 Y174.269 E28.19781
G1 X126.423 Y174.792 E28.21711
G1 X135.208 Y183.577 E28.67557
G1 X134.685 Y183.577 E28.69487
G1 X126.423 Y175.315 E29.12604
G1 X126.423 Y175.838 E29.14534
G1 X134.162 Y183.577 E29.54921
G1 X133.639 Y183.577 E29.56851
G1 X126.423 Y176.361 E29.94508
G1 X126.423 Y176.884 E29.96438
G1 X133.116 Y183.577 E30.31366
G1 X132.593 Y183.577 E30.33296
G1 X126.423 Y177.407 E30.65494
G1 X126.423 Y177.930 E30.67424
G1 X132.070 Y183.577 E30.96892
G1 X131.547 Y183.577 E30.98822
G1 X126.423 Y178.453 E31.25561
G1 X126.423 Y178.976 E31.27491
G1 X131.024 Y183.577 E31.51500
G1 X130.501 Y183.577 E31.53430
G1 X126.423 Y179.499 E31.74709
G1 X126.423 Y180.022 E31.76639
G1 X129.978 Y183.577 E31.95189
G1 X129.455 Y183.577 E31.97119
G1 X126.423 Y180.545 E32.12939
G1 X126.423 Y181.068 E32.14869
G1 X128.932 Y183.577 E32.27959
G1 X128.408 Y183.577 E32.29889
G1 X126.423 Y181.591 E32.40249
G1 X126.423 Y182.115 E32.42180
G1 X127.885 Y183.577 E32.49810
G1 X127.362 Y183.577 E32.51740
G1 X126.423 Y182.638 E32.56641
G1 X126.423 Y183.161 E32.58572
G1 X127.005 Y183.742 E32.61608
G1 E30.61608 F2400.000
G92 E0
G1 X162.995 Y146.258 F7800.000
G1 E2.00000 F2400.000
G1 F1800.000
G1 X163.577 Y146.839 E2.03037
G1 X163.577 Y147.363 E2.04967
G1 X162.637 Y146.423 E2.09869
G1 X162.114 Y146.423 E2.11799
G1 X163.577 Y147.886 E2.19430
G1 X163.577 Y148.409 E2.21360
G1 X161.591 Y146.423 E2.31721
G1 X161.068 Y146.423 E2.33651
G1 X163.577 Y148.932 E2.46742
