; generated by PrusaSlicer 2.3.0+win64 on 2021-02-15 at 22:20:31 UTC

; 

; external perimeters extrusion width = 0.45mm
; perimeters extrusion width = 0.45mm
; infill extrusion width = 0.45mm
; solid infill extrusion width = 0.45mm
; top infill extrusion width = 0.40mm
; first layer extrusion width = 0.42mm

M107
M190 S60 ; set bed temperature and wait for it to be reached
G10 S215 ; set temperature
;TYPE:Custom
G28 ; home all axes
G1 Z5 F5000 ; lift nozzle

G10 S215 ; set temperature
M116 S3 ; wait for temperature to be reached
G21 ; set units to millimeters
G90 ; use absolute coordinates
M82 ; use absolute distances for extrusion
G92 E0
G21		; metric values
G28		; home all
M98 P"/sys/load_meshbed.g"	; load mesh bed corresponding to the temp
M98 P"/macros/set_baby_step"	; set baby step
M98 P"/macros/purge_and_wipe"; purge and wipe residu
M98 P"/macros/prime_line"                  ; do the prime line

G92 E0 F100		; reset extruder
;M900 K0.05 ; Filament gcode LA 1.5
;M900 K30 ; Filament gcode LA 1.0
;LAYER_CHANGE
;Z:0.35
;HEIGHT:0.35
G1 Z0.350 F7800.000
G1 E-2.00000 F2400.000
G92 E0
G1 X83.860 Y88.400 F7800.000
G1 E2.00000 F2400.000
;TYPE:Skirt
;WIDTH:0.42
G1 F1200.000
G1 X84.247 Y87.324 E2.05739
G1 X84.637 Y86.609 E2.09827
G1 X85.116 Y85.950 E2.13916
G1 X85.675 Y85.357 E2.18004
G1 X86.306 Y84.842 E2.22092
G1 X86.992 Y84.414 E2.26150
G1 X87.732 Y84.074 E2.30238
G1 X88.510 Y83.833 E2.34327
G1 X89.313 Y83.692 E2.38415
G1 X159.911 Y78.703 E5.93603
G1 X165.008 Y78.553 E6.19195
G1 X170.088 Y78.703 E6.44699
G1 X240.676 Y83.691 E9.99837
G1 X241.467 Y83.827 E10.03863
G1 X242.228 Y84.059 E10.07858
G1 X243.634 Y84.799 E10.15832
G1 X244.257 Y85.295 E10.19827
G1 X244.817 Y85.870 E10.23853
G1 X245.299 Y86.511 E10.27879
G1 X245.695 Y87.202 E10.31874
G1 X246.123 Y88.335 E10.37955
G1 X246.327 Y89.529 E10.44036
G1 X251.297 Y159.911 E13.98131
G1 X251.447 Y164.996 E14.23661
G1 X251.297 Y170.088 E14.49227
G1 X246.328 Y240.466 E18.03303
G1 X246.140 Y241.600 E18.09073
G1 X245.753 Y242.676 E18.14812
G1 X245.363 Y243.391 E18.18900
G1 X244.884 Y244.050 E18.22988
G1 X244.325 Y244.643 E18.27077
G1 X243.694 Y245.158 E18.31165
G1 X243.008 Y245.586 E18.35222
G1 X242.268 Y245.926 E18.39311
G1 X241.490 Y246.167 E18.43399
G1 X240.687 Y246.308 E18.47488
G1 X170.089 Y251.297 E22.02676
G1 X165.122 Y251.446 E22.27612
G1 X159.912 Y251.297 E22.53771
G1 X89.534 Y246.328 E26.07848
G1 X88.400 Y246.140 E26.13618
G1 X87.324 Y245.753 E26.19356
G1 X86.609 Y245.363 E26.23445
G1 X85.950 Y244.884 E26.27533
G1 X85.357 Y244.325 E26.31622
G1 X84.842 Y243.694 E26.35710
G1 X84.414 Y243.008 E26.39767
G1 X84.074 Y242.268 E26.43856
G1 X83.833 Y241.490 E26.47944
G1 X83.692 Y240.687 E26.52032
G1 X78.703 Y170.089 E30.07221
G1 X78.554 Y165.122 E30.32157
G1 X78.703 Y159.912 E30.58316
G1 X83.672 Y89.534 E34.12392
G1 X83.850 Y88.459 E34.17861
G1 E32.17861 F2400.000
G92 E0
G1 X155.124 Y155.894 F7800.000
G1 E2.00000 F2400.000
;TYPE:Perimeter
G1 F1200.000
G1 X155.894 Y155.124 E2.05459
G1 X156.184 Y155.755 E2.08941
G1 X173.816 Y155.755 E2.97434
G1 X174.106 Y155.124 E3.00916
G1 X174.876 Y155.894 E3.06375
G1 X174.245 Y156.184 E3.09858
G1 X174.245 Y173.816 E3.98350
G1 X174.865 Y174.102 E4.01777
G1 X174.466 Y174.466 E4.04490
G1 X174.102 Y174.865 E4.07203
G1 X173.816 Y174.245 E4.10629
G1 X156.184 Y174.245 E4.99122
G1 X155.898 Y174.865 E5.02548
G1 X155.534 Y174.466 E5.05261
G1 X155.135 Y174.102 E5.07974
G1 X155.755 Y173.816 E5.11400
G1 X155.755 Y156.184 E5.99893
G1 X155.179 Y155.919 E6.03074
G1 E4.03074 F2400.000
G92 E0
G1 X164.630 Y137.758 F7800.000
G1 E2.00000 F2400.000
G1 F1200.000
G1 X164.909 Y135.608 E2.10879
G1 X165.091 Y135.608 E2.11791
G1 X165.370 Y137.758 E2.22670
G1 X164.690 Y137.758 E2.26079
G1 E0.26079 F2400.000
G92 E0
G1 X164.902 Y129.206 F7800.000
G1 E2.00000 F2400.000
G1 F1200.000
G1 X164.614 Y127.246 E2.09945
G1 X165.386 Y127.246 E2.13817
G1 X165.098 Y129.206 E2.23762
G1 X164.962 Y129.206 E2.24440
G1 E0.24440 F2400.000
G92 E0
G1 X156.100 Y156.100 F7800.000
G1 E2.00000 F2400.000
G1 F1200.000
G1 X173.900 Y156.100 E2.89333
G1 X173.900 Y173.900 E3.78666
G1 X156.100 Y173.900 E4.67999
G1 X156.100 Y156.160 E5.57032
G1 E3.57032 F2400.000
G92 E0
G1 X213.315 Y226.332 F7800.000
G1 E2.00000 F2400.000
G1 F1200.000
G1 X214.734 Y225.549 E2.08135
G1 X217.285 Y223.812 E2.23623
G1 X218.834 Y222.530 E2.33716
G1 X218.966 Y222.684 E2.34736
G1 X215.811 Y225.495 E2.55945
G1 X213.773 Y227.108 E2.68989
G1 X213.345 Y226.384 E2.73208
G1 E0.73208 F2400.000
G92 E0
G1 X219.638 Y221.868 F7800.000
G1 E2.00000 F2400.000
G1 F1200.000
G1 X221.868 Y219.638 E2.15829
G1 X222.524 Y221.100 E2.23871
G1 X238.900 Y221.100 E3.06058
G1 X238.900 Y238.900 E3.95391
G1 X221.100 Y238.900 E4.84724
G1 X221.100 Y222.524 E5.66911
G1 X219.693 Y221.893 E5.74651
G1 E3.74651 F2400.000
G92 E0
G1 X222.530 Y218.834 F7800.000
G1 E2.00000 F2400.000
G1 F1200.000
G1 X223.812 Y217.285 E2.10093
G1 X225.549 Y214.734 E2.25581
G1 X226.332 Y213.315 E2.33716
G1 X227.108 Y213.773 E2.38236
G1 X225.495 Y215.811 E2.51280
G1 X222.684 Y218.966 E2.72489
G1 X222.575 Y218.873 E2.73208
G1 E0.73208 F2400.000
G92 E0
G1 X221.851 Y110.400 F7800.000
G1 E2.00000 F2400.000
G1 F1200.000
G1 X220.779 Y109.221 E2.07997
G1 X219.600 Y108.149 E2.15994
G1 X221.100 Y107.476 E2.24242
G1 X221.100 Y91.100 E3.06429
G1 X238.900 Y91.100 E3.95762
G1 X238.900 Y108.900 E4.85096
G1 X222.524 Y108.900 E5.67283
G1 X221.876 Y110.345 E5.75230
G1 X222.961 Y111.643 F7800.000
G1 F1200.000
G1 X223.114 Y111.517 E5.76226
G1 X225.495 Y114.189 E5.94188
G1 X227.108 Y116.227 E6.07232
G1 X226.367 Y116.665 E6.11552
G1 X224.711 Y113.970 E6.27426
G1 X222.997 Y111.691 E6.41740
G1 E4.41740 F2400.000
G92 E0
G1 X218.357 Y107.039 F7800.000
G1 E2.00000 F2400.000
G1 F1200.000
G1 X216.030 Y105.289 E2.14615
G1 X213.335 Y103.633 E2.30489
G1 X213.773 Y102.892 E2.34809
G1 X215.811 Y104.505 E2.47854
G1 X218.483 Y106.886 E2.65815
G1 X218.395 Y106.993 E2.66510
G1 E0.66510 F2400.000
G92 E0
G1 X213.445 Y102.770 F7800.000
G1 E2.00000 F2400.000
G1 F1200.000
G1 X212.845 Y103.785 E2.05918
G1 X213.234 Y103.976 E2.08091
G1 X215.835 Y105.575 E2.23417
G1 X218.276 Y107.410 E2.38742
G1 X220.534 Y109.466 E2.54068
G1 X222.590 Y111.724 E2.69394
G1 X224.425 Y114.165 E2.84719
G1 X226.024 Y116.766 E3.00045
G1 X226.215 Y117.155 E3.02218
G1 X227.230 Y116.555 E3.08136
G1 X230.125 Y120.534 E3.32828
G1 X232.671 Y124.513 E3.56533
G1 X234.973 Y128.637 E3.80238
G1 X237.025 Y132.892 E4.03943
G1 X238.818 Y137.261 E4.27648
G1 X240.346 Y141.731 E4.51353
G1 X241.604 Y146.284 E4.75058
G1 X242.588 Y150.904 E4.98764
G1 X243.292 Y155.574 E5.22469
G1 X243.716 Y160.279 E5.46174
G1 X243.858 Y165.000 E5.69879
G1 X243.716 Y169.721 E5.93584
G1 X243.292 Y174.426 E6.17289
G1 X242.588 Y179.096 E6.40994
G1 X241.604 Y183.716 E6.64699
G1 X240.346 Y188.269 E6.88404
G1 X238.818 Y192.739 E7.12109
G1 X237.025 Y197.108 E7.35814
G1 X234.973 Y201.363 E7.59519
G1 X232.671 Y205.487 E7.83225
G1 X230.125 Y209.466 E8.06930
G1 X227.230 Y213.445 E8.31622
G1 X226.202 Y212.837 E8.37617
G1 X225.255 Y214.553 E8.47453
G1 X223.536 Y217.077 E8.62779
G1 X221.589 Y219.429 E8.78105
G1 X219.429 Y221.589 E8.93430
G1 X217.077 Y223.536 E9.08756
G1 X214.553 Y225.255 E9.24082
G1 X212.837 Y226.202 E9.33918
G1 X213.445 Y227.230 E9.39913
G1 X209.466 Y230.125 E9.64605
G1 X205.487 Y232.671 E9.88310
G1 X201.363 Y234.973 E10.12015
G1 X197.108 Y237.025 E10.35721
G1 X192.739 Y238.818 E10.59426
G1 X188.269 Y240.346 E10.83131
G1 X183.716 Y241.604 E11.06836
G1 X179.096 Y242.588 E11.30541
G1 X174.426 Y243.292 E11.54246
G1 X169.721 Y243.716 E11.77951
G1 X165.000 Y243.858 E12.01656
G1 X160.279 Y243.716 E12.25361
G1 X155.574 Y243.292 E12.49066
G1 X150.904 Y242.588 E12.72771
G1 X146.284 Y241.604 E12.96476
G1 X141.731 Y240.346 E13.20182
G1 X137.261 Y238.818 E13.43887
G1 X132.892 Y237.025 E13.67592
G1 X128.637 Y234.973 E13.91297
G1 X124.513 Y232.671 E14.15002
G1 X120.534 Y230.125 E14.38707
G1 X116.555 Y227.230 E14.63399
G1 X117.163 Y226.202 E14.69395
G1 X115.447 Y225.255 E14.79231
G1 X112.923 Y223.536 E14.94556
G1 X110.571 Y221.589 E15.09882
G1 X108.411 Y219.429 E15.25208
G1 X106.464 Y217.077 E15.40533
G1 X104.745 Y214.553 E15.55859
G1 X103.798 Y212.837 E15.65695
G1 X102.770 Y213.445 E15.71690
G1 X99.875 Y209.466 E15.96383
G1 X97.329 Y205.487 E16.20088
G1 X95.027 Y201.363 E16.43793
G1 X92.975 Y197.108 E16.67498
G1 X91.182 Y192.739 E16.91203
G1 X89.654 Y188.269 E17.14908
G1 X88.396 Y183.716 E17.38613
G1 X87.412 Y179.096 E17.62318
G1 X86.708 Y174.426 E17.86023
G1 X86.284 Y169.721 E18.09728
G1 X86.142 Y165.000 E18.33433
G1 X86.284 Y160.279 E18.57139
G1 X86.708 Y155.574 E18.80844
G1 X87.412 Y150.904 E19.04549
G1 X88.396 Y146.284 E19.28254
G1 X89.654 Y141.731 E19.51959
G1 X91.182 Y137.261 E19.75664
G1 X92.975 Y132.892 E19.99369
G1 X95.027 Y128.637 E20.23074
G1 X97.329 Y124.513 E20.46779
G1 X99.875 Y120.534 E20.70484
G1 X102.770 Y116.555 E20.95176
G1 X103.785 Y117.155 E21.01094
G1 X103.976 Y116.766 E21.03267
G1 X105.575 Y114.165 E21.18593
G1 X107.410 Y111.724 E21.33919
G1 X109.466 Y109.466 E21.49244
G1 X111.724 Y107.410 E21.64570
G1 X114.165 Y105.575 E21.79896
G1 X116.766 Y103.976 E21.95221
G1 X117.155 Y103.785 E21.97395
G1 X116.555 Y102.770 E22.03312
G1 X120.534 Y99.875 E22.28004
G1 X124.513 Y97.329 E22.51710
G1 X128.637 Y95.027 E22.75415
G1 X132.892 Y92.975 E22.99120
G1 X137.261 Y91.182 E23.22825
G1 X141.731 Y89.654 E23.46530
G1 X146.284 Y88.396 E23.70235
G1 X150.904 Y87.412 E23.93940
G1 X155.574 Y86.708 E24.17645
G1 X160.279 Y86.284 E24.41350
G1 X165.000 Y86.142 E24.65055
G1 X169.721 Y86.284 E24.88760
G1 X174.426 Y86.708 E25.12465
G1 X179.096 Y87.412 E25.36171
G1 X183.716 Y88.396 E25.59876
G1 X188.269 Y89.654 E25.83581
G1 X192.739 Y91.182 E26.07286
G1 X197.108 Y92.975 E26.30991
G1 X201.363 Y95.027 E26.54696
G1 X205.487 Y97.329 E26.78401
G1 X209.466 Y99.875 E27.02106
G1 X213.396 Y102.734 E27.26497
G1 E25.26497 F2400.000
G92 E0
G1 X173.595 Y174.590 F7800.000
G1 E2.00000 F2400.000
;TYPE:External perimeter
G1 F1200.000
G1 X173.815 Y175.067 E2.02637
G1 X171.899 Y177.302 E2.17409
G1 X170.336 Y179.459 E2.30779
G1 X168.954 Y181.737 E2.44148
G1 X167.762 Y184.119 E2.57518
G1 X166.769 Y186.591 E2.70887
G1 X165.981 Y189.136 E2.84257
G1 X165.368 Y191.897 E2.98451
G1 X164.632 Y191.897 E3.02147
G1 X164.019 Y189.136 E3.16341
G1 X163.231 Y186.591 E3.29711
G1 X162.238 Y184.119 E3.43080
G1 X161.046 Y181.737 E3.56450
G1 X159.664 Y179.459 E3.69819
G1 X158.101 Y177.302 E3.83189
G1 X156.185 Y175.067 E3.97961
G1 X156.405 Y174.590 E4.00598
G1 X173.535 Y174.590 E4.86571
G1 X173.978 Y174.473 F7800.000
G1 E2.86571 F2400.000
G92 E0
G1 X155.410 Y173.595 F7800.000
G1 E2.00000 F2400.000
G1 F1200.000
G1 X154.933 Y173.815 E2.02637
G1 X152.698 Y171.899 E2.17409
G1 X150.541 Y170.336 E2.30779
G1 X148.263 Y168.954 E2.44148
G1 X145.881 Y167.762 E2.57518
G1 X143.409 Y166.769 E2.70887
G1 X140.864 Y165.981 E2.84257
G1 X138.103 Y165.368 E2.98451
G1 X138.103 Y164.632 E3.02147
G1 X140.864 Y164.019 E3.16341
G1 X143.409 Y163.231 E3.29711
G1 X145.881 Y162.238 E3.43080
G1 X148.263 Y161.046 E3.56450
G1 X150.541 Y159.664 E3.69819
G1 X152.698 Y158.101 E3.83189
G1 X154.933 Y156.185 E3.97961
G1 X155.410 Y156.405 E4.00598
G1 X155.410 Y173.535 E4.86571
G1 X155.527 Y173.978 F7800.000
G1 E2.86571 F2400.000
G92 E0
G1 X174.590 Y173.535 F7800.000
G1 E2.00000 F2400.000
G1 F1200.000
G1 X174.590 Y156.405 E2.85973
G1 X175.067 Y156.185 E2.88610
G1 X177.302 Y158.101 E3.03382
G1 X179.459 Y159.664 E3.16752
G1 X181.737 Y161.046 E3.30121
G1 X184.119 Y162.238 E3.43491
G1 X186.591 Y163.231 E3.56860
G1 X189.136 Y164.019 E3.70230
G1 X191.897 Y164.632 E3.84424
G1 X191.897 Y165.368 E3.88120
G1 X189.136 Y165.981 E4.02314
G1 X186.591 Y166.769 E4.15684
G1 X184.119 Y167.762 E4.29053
G1 X181.737 Y168.954 E4.42423
G1 X179.459 Y170.336 E4.55792
G1 X177.302 Y171.899 E4.69162
G1 X175.067 Y173.815 E4.83934
G1 X174.590 Y173.595 E4.86571
G1 X174.197 Y173.607 F7800.000
G1 E2.86571 F2400.000
G92 E0
G1 X173.595 Y155.410 F7800.000
G1 E2.00000 F2400.000
G1 F1200.000
G1 X156.405 Y155.410 E2.86274
G1 X156.185 Y154.933 E2.88911
G1 X158.101 Y152.698 E3.03684
G1 X159.664 Y150.541 E3.17053
G1 X161.046 Y148.263 E3.30422
G1 X162.238 Y145.881 E3.43792
G1 X163.231 Y143.409 E3.57161
G1 X164.019 Y140.864 E3.70531
G1 X164.632 Y138.103 E3.84725
G1 X165.368 Y138.103 E3.88421
G1 X165.981 Y140.864 E4.02616
G1 X166.769 Y143.409 E4.15985
G1 X167.762 Y145.881 E4.29354
G1 X168.954 Y148.263 E4.42724
G1 X170.336 Y150.541 E4.56093
G1 X171.899 Y152.698 E4.69463
G1 X173.815 Y154.933 E4.84235
G1 X173.621 Y155.355 E4.86571
G1 X173.670 Y155.803 F7800.000
G1 E2.86571 F2400.000
G92 E0
G1 X181.933 Y169.278 F7800.000
G1 E2.00000 F2400.000
G1 F1200.000
G1 X184.644 Y167.945 E2.15163
G1 X187.468 Y166.871 E2.30326
G1 X190.381 Y166.066 E2.45490
G1 X193.356 Y165.537 E2.60653
G1 X196.367 Y165.290 E2.75816
G1 X199.388 Y165.325 E2.90979
G1 X202.393 Y165.643 E3.06143
G1 X205.354 Y166.241 E3.21306
G1 X208.247 Y167.114 E3.36469
G1 X211.045 Y168.254 E3.51632
G1 X213.724 Y169.651 E3.66795
G1 X216.261 Y171.293 E3.81959
G1 X218.632 Y173.165 E3.97122
G1 X220.818 Y175.250 E4.12285
G1 X222.799 Y177.532 E4.27448
G1 X224.558 Y179.988 E4.42612
G1 X226.079 Y182.599 E4.57775
G1 X227.349 Y185.341 E4.72938
G1 X228.356 Y188.189 E4.88101
G1 X229.092 Y191.120 E5.03264
G1 X229.551 Y194.106 E5.18428
G1 X229.728 Y197.122 E5.33591
G1 X229.622 Y200.142 E5.48754
G1 X229.233 Y203.138 E5.63917
G1 X228.566 Y206.085 E5.79081
G1 X227.625 Y208.956 E5.94244
G1 X226.420 Y211.727 E6.09407
G1 X224.961 Y214.372 E6.24570
G1 X223.260 Y216.870 E6.39733
G1 X221.333 Y219.197 E6.54897
G1 X219.197 Y221.333 E6.70060
G1 X216.870 Y223.260 E6.85223
G1 X214.372 Y224.961 E7.00386
G1 X211.727 Y226.420 E7.15550
G1 X208.956 Y227.625 E7.30713
G1 X206.085 Y228.566 E7.45876
G1 X203.138 Y229.233 E7.61039
G1 X200.142 Y229.622 E7.76202
G1 X197.122 Y229.728 E7.91366
G1 X194.106 Y229.551 E8.06529
G1 X191.120 Y229.092 E8.21692
G1 X188.189 Y228.356 E8.36855
G1 X185.341 Y227.349 E8.52019
G1 X182.599 Y226.079 E8.67182
G1 X179.988 Y224.558 E8.82345
G1 X177.532 Y222.799 E8.97508
G1 X175.250 Y220.818 E9.12671
G1 X173.165 Y218.632 E9.27835
G1 X171.293 Y216.261 E9.42998
G1 X169.651 Y213.724 E9.58161
G1 X168.254 Y211.045 E9.73324
G1 X167.114 Y208.247 E9.88488
G1 X166.241 Y205.354 E10.03651
G1 X165.643 Y202.393 E10.18814
G1 X165.325 Y199.388 E10.33977
G1 X165.290 Y196.367 E10.49140
G1 X165.537 Y193.356 E10.64304
G1 X166.066 Y190.381 E10.79467
G1 X166.871 Y187.468 E10.94630
G1 X167.945 Y184.644 E11.09793
G1 X169.278 Y181.933 E11.24957
G1 X170.860 Y179.359 E11.40120
G1 X172.676 Y176.944 E11.55283
G1 X174.710 Y174.710 E11.70446
G1 X176.944 Y172.676 E11.85609
G1 X179.359 Y170.860 E12.00773
G1 X181.882 Y169.310 E12.15635
G1 X181.941 Y168.878 F7800.000
G1 E10.15635 F2400.000
G92 E0
G1 X165.367 Y203.099 F7800.000
G1 E2.00000 F2400.000
G1 F1200.000
G1 X166.046 Y206.103 E2.15458
G1 X166.939 Y208.875 E2.30070
G1 X168.075 Y211.555 E2.44682
G1 X169.446 Y214.124 E2.59295
G1 X171.041 Y216.560 E2.73907
G1 X172.847 Y218.844 E2.88520
G1 X174.849 Y220.958 E3.03132
G1 X177.032 Y222.885 E3.17745
G1 X179.378 Y224.610 E3.32357
G1 X181.868 Y226.118 E3.46970
G1 X184.483 Y227.399 E3.61582
G1 X186.875 Y228.315 E3.74437
G1 X187.202 Y228.441 E3.76194
G1 X190.003 Y229.236 E3.90807
G1 X192.864 Y229.778 E4.05419
G1 X195.761 Y230.063 E4.20032
G1 X198.673 Y230.088 E4.34644
G1 X201.575 Y229.854 E4.49257
G1 X204.445 Y229.361 E4.63869
G1 X207.259 Y228.615 E4.78482
G1 X209.996 Y227.620 E4.93094
G1 X212.564 Y226.418 E5.07326
G1 X212.988 Y227.136 E5.11513
G1 X209.272 Y229.840 E5.34580
G1 X205.310 Y232.375 E5.58182
G1 X201.204 Y234.667 E5.81783
G1 X196.968 Y236.710 E6.05384
G1 X192.617 Y238.495 E6.28986
G1 X188.167 Y240.017 E6.52587
G1 X183.634 Y241.269 E6.76188
G1 X179.035 Y242.248 E6.99790
G1 X174.384 Y242.950 E7.23391
G1 X169.701 Y243.372 E7.46992
G1 X165.000 Y243.513 E7.70594
G1 X160.299 Y243.372 E7.94195
G1 X155.616 Y242.950 E8.17796
G1 X150.965 Y242.248 E8.41398
G1 X146.366 Y241.269 E8.64999
G1 X141.833 Y240.017 E8.88601
G1 X137.383 Y238.495 E9.12202
G1 X133.032 Y236.710 E9.35803
G1 X128.796 Y234.667 E9.59405
