; generated by PrusaSlicer 2.3.0+win64 on 2021-06-08 at 20:52:09 UTC

; 

; external perimeters extrusion width = 0.45mm
; perimeters extrusion width = 0.45mm
; infill extrusion width = 0.45mm
; solid infill extrusion width = 0.45mm
; top infill extrusion width = 0.40mm
; first layer extrusion width = 0.42mm

; external perimeters extrusion width = 0.45mm
; perimeters extrusion width = 0.45mm
; infill extrusion width = 0.45mm
; solid infill extrusion width = 0.45mm
; top infill extrusion width = 0.40mm
; first layer extrusion width = 0.42mm

M107
M190 S60 ; set bed temperature and wait for it to be reached
G10 S215 P1 ; set temperature
G10 S215 P2 ; set temperature
;TYPE:Custom
G28 ; home all axes
G1 Z5 F5000 ; lift nozzle
M98 P"/sys/load_meshbed.g"	; load mesh bed corresponding to the temp

G10 S215 P1 ; set temperature
;M116 ; wait for temperature to be reached
G10 S215 P2 ; set temperature
;M116 ; wait for temperature to be reached
G21 ; set units to millimeters
G90 ; use absolute coordinates
M82 ; use absolute distances for extrusion
G92 E0
T1
M98 P"/macros/purge_and_wipe"; purge and wipe residu
; Filament gcode
M98 P"/macros/set_baby_step"	; set baby step
M98 P"/macros/prime_line"                  ; do the prime line
;LAYER_CHANGE
;Z:0.24
;HEIGHT:0.24
G1 Z0.240 F7800.000
G1 E-2.00000 F2400.000
G92 E0
G1 X75.062 Y143.169 F7800.000
G1 E2.00000 F2400.000
;TYPE:Skirt
;WIDTH:0.42
G1 F1800.000
G1 X234.256 Y143.132 E7.85336
G1 X235.089 Y143.187 E7.88405
G1 X235.908 Y143.351 E7.91475
G1 X236.704 Y143.623 E7.94568
G1 X237.451 Y143.995 E7.97637
G1 X238.144 Y144.461 E8.00707
G1 X238.774 Y145.018 E8.03799
G1 X239.325 Y145.653 E8.06892
G1 X239.785 Y146.350 E8.09961
G1 X240.230 Y147.310 E8.13854
G1 X240.509 Y148.325 E8.17723
G1 X241.603 Y156.052 E8.46417
G1 X241.589 Y161.110 E8.65015
G1 X241.353 Y162.320 E8.69547
G1 X240.888 Y163.461 E8.74079
G1 X240.003 Y164.739 E8.79795
G1 X238.834 Y165.764 E8.85512
G1 X237.451 Y166.476 E8.91229
G1 X235.938 Y166.831 E8.96945
G1 X74.538 Y166.865 E14.90390
G1 X73.407 Y166.725 E14.94579
G1 X72.325 Y166.389 E14.98746
G1 X71.320 Y165.866 E15.02913
G1 X70.419 Y165.169 E15.07102
G1 X69.656 Y164.322 E15.11292
G1 X69.059 Y163.359 E15.15458
G1 X68.643 Y162.305 E15.19625
G1 X68.419 Y161.188 E15.23814
G1 X68.411 Y155.884 E15.43316
G1 X69.460 Y148.501 E15.70735
G1 X69.775 Y147.296 E15.75313
G1 X70.138 Y146.490 E15.78565
G1 X70.609 Y145.741 E15.81818
G1 X71.180 Y145.065 E15.85070
G1 X71.833 Y144.478 E15.88300
G1 X72.562 Y143.987 E15.91530
G1 X73.356 Y143.598 E15.94782
G1 X74.197 Y143.324 E15.98035
G1 X75.003 Y143.179 E16.01044
G1 E14.01044 F2400.000
G92 E0
G1 X155.000 Y153.786 F7800.000
G1 E2.00000 F2400.000
;TYPE:External perimeter
;WIDTH:0.551504
G1 F1800.000
G1 X155.000 Y156.500 E2.13541
G1 E0.13541 F2400.000
G92 E0
G1 X158.953 Y153.782 F7800.000
G1 E2.00000 F2400.000
;WIDTH:0.545254
G1 F1800.000
G1 X158.953 Y156.500 E2.13390
G1 E0.13390 F2400.000
G92 E0
G1 X162.903 Y156.500 F7800.000
G1 E2.00000 F2400.000
G1 F1800.000
G1 X162.903 Y153.782 E2.13390
G1 E0.13390 F2400.000
G92 E0
G1 X166.853 Y153.782 F7800.000
G1 E2.00000 F2400.000
G1 F1800.000
G1 X166.853 Y156.500 E2.13390
G1 E0.13390 F2400.000
G92 E0
G1 X170.803 Y153.782 F7800.000
G1 E2.00000 F2400.000
G1 F1800.000
G1 X170.803 Y156.500 E2.13390
G1 E0.13390 F2400.000
G92 E0
G1 X174.753 Y156.500 F7800.000
G1 E2.00000 F2400.000
;WIDTH:0.545256
G1 F1800.000
G1 X174.753 Y153.782 E2.13390
G1 E0.13390 F2400.000
G92 E0
G1 X178.703 Y153.782 F7800.000
G1 E2.00000 F2400.000
;WIDTH:0.545254
G1 F1800.000
G1 X178.703 Y156.500 E2.13390
G1 E0.13390 F2400.000
G92 E0
G1 X182.653 Y156.500 F7800.000
G1 E2.00000 F2400.000
G1 F1800.000
G1 X182.653 Y153.782 E2.13390
G1 E0.13390 F2400.000
G92 E0
G1 X186.603 Y153.782 F7800.000
G1 E2.00000 F2400.000
G1 F1800.000
G1 X186.603 Y156.500 E2.13390
G1 E0.13390 F2400.000
G92 E0
G1 X190.553 Y153.782 F7800.000
G1 E2.00000 F2400.000
;WIDTH:0.545252
G1 F1800.000
G1 X190.553 Y156.500 E2.13390
G1 E0.13390 F2400.000
G92 E0
G1 X194.503 Y156.500 F7800.000
G1 E2.00000 F2400.000
;WIDTH:0.545256
G1 F1800.000
G1 X194.503 Y153.782 E2.13390
G1 X194.503 Y152.218 F7800.000
G1 F1800.000
G1 X194.503 Y151.030 E2.19242
;WIDTH:0.545257
G1 X194.503 Y150.623 E2.21248
G1 E0.21248 F2400.000
G92 E0
G1 X198.453 Y156.377 F7800.000
G1 E2.00000 F2400.000
;WIDTH:0.545256
G1 F1800.000
G1 X198.453 Y155.970 E2.02005
G1 X198.453 Y153.782 E2.12785
G1 E0.12785 F2400.000
G92 E0
G1 X202.403 Y153.782 F7800.000
G1 E2.00000 F2400.000
;WIDTH:0.545252
G1 F1800.000
G1 X202.403 Y155.970 E2.10779
G1 X202.403 Y156.377 E2.12784
G1 E0.12784 F2400.000
G92 E0
G1 X206.353 Y156.377 F7800.000
G1 E2.00000 F2400.000
G1 F1800.000
G1 X206.353 Y155.970 E2.02005
G1 X206.353 Y153.782 E2.12784
G1 E0.12784 F2400.000
G92 E0
G1 X210.303 Y153.782 F7800.000
G1 E2.00000 F2400.000
G1 F1800.000
G1 X210.303 Y155.970 E2.10779
G1 X210.303 Y156.377 E2.12784
G1 E0.12784 F2400.000
G92 E0
G1 X214.253 Y156.377 F7800.000
G1 E2.00000 F2400.000
;WIDTH:0.545256
G1 F1800.000
G1 X214.253 Y155.970 E2.02005
G1 X214.253 Y153.782 E2.12785
G1 E0.12785 F2400.000
G92 E0
G1 X218.203 Y153.782 F7800.000
G1 E2.00000 F2400.000
G1 F1800.000
G1 X218.203 Y155.970 E2.10779
G1 X218.203 Y156.377 E2.12785
G1 E0.12785 F2400.000
G92 E0
G1 X222.153 Y153.782 F7800.000
G1 E2.00000 F2400.000
;WIDTH:0.545252
G1 F1800.000
G1 X222.153 Y155.970 E2.10779
G1 X222.153 Y156.377 E2.12784
G1 E0.12784 F2400.000
G92 E0
G1 X226.103 Y156.377 F7800.000
G1 E2.00000 F2400.000
;WIDTH:0.545256
G1 F1800.000
G1 X226.103 Y155.970 E2.02005
G1 X226.103 Y153.782 E2.12785
G1 E0.12785 F2400.000
G92 E0
G1 X230.053 Y153.782 F7800.000
G1 E2.00000 F2400.000
G1 F1800.000
G1 X230.053 Y155.970 E2.10779
G1 X230.053 Y156.377 E2.12785
G1 E0.12785 F2400.000
G92 E0
G1 X234.003 Y156.377 F7800.000
G1 E2.00000 F2400.000
G1 F1800.000
G1 X234.003 Y155.970 E2.02005
G1 X234.003 Y153.535 E2.14001
G1 X234.040 Y153.328 F7800.000
;WIDTH:0.42
G1 F1800.000
G1 X233.281 Y153.220 E2.16820
G1 X232.278 Y153.185 E2.20510
G1 X231.281 Y153.190 E2.24177
G1 X230.773 Y153.220 E2.26049
G1 X230.053 Y153.323 E2.28721
G1 X229.331 Y153.220 E2.31403
G1 X228.328 Y153.185 E2.35093
G1 X227.331 Y153.190 E2.38760
G1 X226.823 Y153.220 E2.40632
G1 X226.103 Y153.323 E2.43304
G1 X225.384 Y153.220 E2.45977
G1 X224.875 Y153.190 E2.47850
G1 X223.381 Y153.190 E2.53342
G1 X222.873 Y153.220 E2.55216
G1 X222.153 Y153.323 E2.57888
G1 X221.434 Y153.220 E2.60561
G1 X220.925 Y153.190 E2.62434
G1 X219.431 Y153.190 E2.67927
G1 X218.923 Y153.220 E2.69800
G1 X218.203 Y153.323 E2.72473
G1 X217.484 Y153.220 E2.75145
G1 X216.975 Y153.190 E2.77018
G1 X215.481 Y153.190 E2.82511
G1 X214.973 Y153.220 E2.84384
G1 X214.253 Y153.323 E2.87057
G1 X213.534 Y153.220 E2.89729
G1 X213.025 Y153.190 E2.91603
G1 X211.531 Y153.190 E2.97095
G1 X211.023 Y153.220 E2.98968
G1 X210.303 Y153.323 E3.01641
G1 X209.584 Y153.220 E3.04313
G1 X209.075 Y153.190 E3.06187
G1 X207.581 Y153.190 E3.11679
G1 X207.073 Y153.220 E3.13553
G1 X206.353 Y153.323 E3.16225
G1 X205.634 Y153.220 E3.18897
G1 X205.125 Y153.190 E3.20771
G1 X203.631 Y153.190 E3.26263
G1 X203.123 Y153.220 E3.28137
G1 X202.403 Y153.323 E3.30809
G1 X201.684 Y153.220 E3.33481
G1 X201.176 Y153.190 E3.35353
G1 X200.178 Y153.185 E3.39020
G1 X199.175 Y153.220 E3.42711
G1 X198.453 Y153.323 E3.45392
G1 X197.734 Y153.220 E3.48065
G1 X197.225 Y153.190 E3.49938
G1 X195.731 Y153.190 E3.55430
G1 X195.223 Y153.220 E3.57304
G1 X194.503 Y153.323 E3.59976
G1 X193.784 Y153.220 E3.62649
G1 X193.275 Y153.190 E3.64522
G1 X191.781 Y153.190 E3.70015
G1 X191.273 Y153.220 E3.71888
G1 X190.553 Y153.323 E3.74561
G1 X189.834 Y153.220 E3.77233
G1 X189.326 Y153.190 E3.79104
G1 X188.328 Y153.185 E3.82772
G1 X187.325 Y153.220 E3.86462
G1 X186.603 Y153.323 E3.89144
G1 X185.884 Y153.220 E3.91816
G1 X185.376 Y153.190 E3.93688
G1 X184.378 Y153.185 E3.97355
G1 X183.375 Y153.220 E4.01045
G1 X182.653 Y153.323 E4.03727
G1 X181.934 Y153.220 E4.06399
G1 X181.426 Y153.190 E4.08271
G1 X180.428 Y153.185 E4.11938
G1 X179.425 Y153.220 E4.15628
G1 X178.703 Y153.323 E4.18310
G1 X177.984 Y153.220 E4.20983
G1 X177.476 Y153.190 E4.22854
G1 X176.478 Y153.185 E4.26522
G1 X175.475 Y153.220 E4.30212
G1 X174.753 Y153.323 E4.32894
G1 X174.034 Y153.220 E4.35566
G1 X173.526 Y153.190 E4.37437
G1 X172.528 Y153.185 E4.41105
G1 X171.525 Y153.220 E4.44795
G1 X170.803 Y153.323 E4.47477
G1 X170.084 Y153.220 E4.50149
G1 X169.576 Y153.190 E4.52021
G1 X168.578 Y153.185 E4.55688
G1 X167.575 Y153.220 E4.59378
G1 X166.853 Y153.323 E4.62060
G1 X166.134 Y153.220 E4.64732
G1 X165.626 Y153.190 E4.66604
G1 X164.628 Y153.185 E4.70271
G1 X163.625 Y153.220 E4.73961
G1 X162.903 Y153.323 E4.76643
G1 X162.184 Y153.220 E4.79316
G1 X161.676 Y153.190 E4.81187
G1 X160.678 Y153.185 E4.84855
G1 X159.675 Y153.220 E4.88545
G1 X158.953 Y153.323 E4.91226
G1 X158.234 Y153.220 E4.93899
G1 X157.726 Y153.190 E4.95770
G1 X156.728 Y153.185 E4.99438
G1 X155.725 Y153.220 E5.03128
G1 X155.000 Y153.324 E5.05821
G1 X154.277 Y153.220 E5.08505
G1 X153.769 Y153.190 E5.10377
G1 X152.772 Y153.185 E5.14044
G1 X151.769 Y153.220 E5.17734
G1 X151.047 Y153.323 E5.20416
G1 X150.327 Y153.220 E5.23089
G1 X149.819 Y153.190 E5.24960
G1 X148.822 Y153.185 E5.28628
G1 X147.819 Y153.220 E5.32318
G1 X147.097 Y153.323 E5.34999
G1 X146.377 Y153.220 E5.37672
G1 X145.869 Y153.190 E5.39543
G1 X144.872 Y153.185 E5.43211
G1 X143.869 Y153.220 E5.46901
G1 X143.147 Y153.323 E5.49583
G1 X142.427 Y153.220 E5.52255
G1 X141.919 Y153.190 E5.54127
G1 X140.922 Y153.185 E5.57794
G1 X139.919 Y153.220 E5.61484
G1 X139.197 Y153.323 E5.64166
G1 X138.477 Y153.220 E5.66838
G1 X137.969 Y153.190 E5.68710
G1 X136.972 Y153.185 E5.72377
G1 X135.969 Y153.220 E5.76067
G1 X135.247 Y153.323 E5.78749
G1 X134.527 Y153.220 E5.81422
G1 X134.019 Y153.190 E5.83293
G1 X133.022 Y153.185 E5.86960
G1 X132.019 Y153.220 E5.90651
G1 X131.297 Y153.323 E5.93332
G1 X130.577 Y153.220 E5.96005
G1 X130.069 Y153.190 E5.97876
G1 X129.072 Y153.185 E6.01544
G1 X128.069 Y153.220 E6.05234
G1 X127.347 Y153.323 E6.07916
G1 X126.627 Y153.220 E6.10588
G1 X126.119 Y153.190 E6.12459
G1 X125.122 Y153.185 E6.16127
G1 X124.119 Y153.220 E6.19817
G1 X123.397 Y153.323 E6.22499
G1 X122.677 Y153.220 E6.25171
G1 X122.169 Y153.190 E6.27043
G1 X121.172 Y153.185 E6.30710
G1 X120.169 Y153.220 E6.34400
G1 X119.447 Y153.323 E6.37082
G1 X118.727 Y153.220 E6.39754
G1 X118.219 Y153.190 E6.41626
G1 X117.222 Y153.185 E6.45293
G1 X116.219 Y153.220 E6.48984
G1 X115.497 Y153.323 E6.51665
G1 X114.775 Y153.220 E6.54347
G1 X113.772 Y153.185 E6.58037
G1 X112.774 Y153.190 E6.61705
G1 X112.266 Y153.220 E6.63576
G1 X111.547 Y153.323 E6.66249
G1 X110.827 Y153.220 E6.68921
G1 X110.319 Y153.190 E6.70792
G1 X109.322 Y153.185 E6.74460
G1 X108.319 Y153.220 E6.78150
G1 X107.597 Y153.323 E6.80832
G1 X106.877 Y153.220 E6.83504
G1 X106.369 Y153.190 E6.85376
G1 X105.372 Y153.185 E6.89043
G1 X104.369 Y153.220 E6.92733
G1 X103.647 Y153.323 E6.95415
G1 X102.927 Y153.220 E6.98087
G1 X102.419 Y153.190 E6.99959
G1 X101.422 Y153.185 E7.03626
G1 X100.419 Y153.220 E7.07317
G1 X99.697 Y153.323 E7.09998
G1 X98.977 Y153.220 E7.12671
G1 X98.469 Y153.190 E7.14542
G1 X97.472 Y153.185 E7.18210
G1 X96.469 Y153.220 E7.21900
G1 X95.747 Y153.323 E7.24582
G1 X95.027 Y153.220 E7.27254
G1 X94.519 Y153.190 E7.29125
G1 X93.522 Y153.185 E7.32793
G1 X92.519 Y153.220 E7.36483
G1 X91.797 Y153.323 E7.39165
G1 X91.077 Y153.220 E7.41837
G1 X90.569 Y153.190 E7.43709
G1 X89.572 Y153.185 E7.47376
G1 X88.569 Y153.220 E7.51066
G1 X87.847 Y153.323 E7.53748
G1 X87.127 Y153.220 E7.56420
G1 X86.619 Y153.190 E7.58292
G1 X85.622 Y153.185 E7.61959
G1 X84.619 Y153.220 E7.65650
G1 X83.897 Y153.323 E7.68331
G1 X83.177 Y153.220 E7.71004
G1 X82.669 Y153.190 E7.72875
G1 X81.672 Y153.185 E7.76543
G1 X80.669 Y153.220 E7.80233
G1 X79.947 Y153.323 E7.82915
G1 X79.227 Y153.220 E7.85587
G1 X78.719 Y153.190 E7.87458
G1 X77.722 Y153.185 E7.91126
G1 X76.719 Y153.220 E7.94816
G1 X75.960 Y153.328 E7.97635
G1 X75.960 Y152.672 E8.00050
G1 X76.716 Y152.780 E8.02860
G1 X77.225 Y152.810 E8.04733
G1 X82.669 Y152.810 E8.24749
G1 X83.177 Y152.780 E8.26623
G1 X83.897 Y152.677 E8.29295
G1 X84.616 Y152.780 E8.31967
G1 X85.125 Y152.810 E8.33841
G1 X90.569 Y152.810 E8.53857
G1 X91.077 Y152.780 E8.55730
G1 X91.797 Y152.677 E8.58403
G1 X92.516 Y152.780 E8.61075
G1 X93.025 Y152.810 E8.62949
G1 X98.469 Y152.810 E8.82964
G1 X98.977 Y152.780 E8.84838
G1 X99.697 Y152.677 E8.87510
G1 X100.416 Y152.780 E8.90183
G1 X100.924 Y152.810 E8.92054
G1 X101.918 Y152.816 E8.95708
G1 X105.872 Y152.815 E9.10247
G1 X106.875 Y152.780 E9.13936
G1 X107.597 Y152.677 E9.16617
G1 X108.316 Y152.780 E9.19290
G1 X108.825 Y152.810 E9.21163
G1 X114.269 Y152.810 E9.41179
G1 X114.777 Y152.780 E9.43053
G1 X115.497 Y152.677 E9.45725
G1 X116.216 Y152.780 E9.48397
G1 X116.725 Y152.810 E9.50271
G1 X122.169 Y152.810 E9.70287
G1 X122.677 Y152.780 E9.72160
G1 X123.397 Y152.677 E9.74833
G1 X124.116 Y152.780 E9.77505
G1 X124.625 Y152.810 E9.79379
G1 X130.069 Y152.810 E9.99395
G1 X130.577 Y152.780 E10.01268
G1 X131.297 Y152.677 E10.03940
G1 X132.016 Y152.780 E10.06613
G1 X132.525 Y152.810 E10.08486
G1 X137.969 Y152.810 E10.28502
G1 X138.477 Y152.780 E10.30376
G1 X139.197 Y152.677 E10.33048
G1 X139.916 Y152.780 E10.35721
G1 X140.424 Y152.810 E10.37592
G1 X145.372 Y152.815 E10.55785
G1 X146.375 Y152.780 E10.59473
G1 X147.097 Y152.677 E10.62155
G1 X147.816 Y152.780 E10.64827
G1 X148.325 Y152.810 E10.66701
G1 X153.769 Y152.810 E10.86717
G1 X154.277 Y152.780 E10.88590
G1 X155.000 Y152.676 E10.91274
G1 X155.723 Y152.780 E10.93958
G1 X156.231 Y152.810 E10.95832
G1 X161.675 Y152.810 E11.15848
G1 X162.184 Y152.780 E11.17721
G1 X162.903 Y152.677 E11.20394
G1 X163.623 Y152.780 E11.23066
G1 X164.131 Y152.810 E11.24940
G1 X169.575 Y152.810 E11.44956
G1 X170.084 Y152.780 E11.46829
G1 X170.803 Y152.677 E11.49501
G1 X171.523 Y152.780 E11.52174
G1 X172.031 Y152.810 E11.54047
G1 X177.475 Y152.810 E11.74063
G1 X177.984 Y152.780 E11.75937
G1 X178.703 Y152.677 E11.78609
G1 X179.423 Y152.780 E11.81282
G1 X179.931 Y152.810 E11.83153
G1 X180.924 Y152.816 E11.86807
G1 X184.879 Y152.815 E12.01346
G1 X185.881 Y152.780 E12.05034
G1 X186.603 Y152.677 E12.07716
G1 X187.323 Y152.780 E12.10388
G1 X187.831 Y152.810 E12.12262
G1 X193.275 Y152.810 E12.32278
G1 X193.784 Y152.780 E12.34151
G1 X194.503 Y152.677 E12.36824
G1 X195.223 Y152.780 E12.39496
G1 X195.731 Y152.810 E12.41370
G1 X201.175 Y152.810 E12.61386
G1 X201.684 Y152.780 E12.63259
G1 X202.403 Y152.677 E12.65932
G1 X203.123 Y152.780 E12.68604
G1 X203.631 Y152.810 E12.70477
G1 X209.075 Y152.810 E12.90493
G1 X209.584 Y152.780 E12.92367
G1 X210.303 Y152.677 E12.95039
G1 X211.023 Y152.780 E12.97712
G1 X211.531 Y152.810 E12.99583
G1 X216.479 Y152.815 E13.17776
G1 X217.481 Y152.780 E13.21464
G1 X218.203 Y152.677 E13.24146
G1 X218.923 Y152.780 E13.26818
G1 X219.431 Y152.810 E13.28692
G1 X224.875 Y152.810 E13.48708
G1 X225.384 Y152.780 E13.50581
G1 X226.103 Y152.677 E13.53254
G1 X226.823 Y152.780 E13.55926
G1 X227.331 Y152.810 E13.57799
G1 X232.279 Y152.815 E13.75990
G1 X233.281 Y152.780 E13.79679
G1 X234.040 Y152.672 E13.82498
G1 X234.040 Y153.268 E13.84692
G1 X233.658 Y153.209 F7800.000
G1 X234.003 Y152.465
;WIDTH:0.545256
G1 F1800.000
G1 X234.003 Y150.030 E13.96688
;WIDTH:0.545257
G1 X234.003 Y149.623 E13.98693
G1 E11.98693 F2400.000
G92 E0
G1 X155.000 Y149.623 F7800.000
G1 E2.00000 F2400.000
;WIDTH:0.551505
G1 F1800.000
G1 X155.000 Y150.030 E2.02033
;WIDTH:0.551504
G1 X155.000 Y152.214 E2.12928
G1 E0.12928 F2400.000
G92 E0
G1 X151.047 Y153.782 F7800.000
G1 E2.00000 F2400.000
;WIDTH:0.545254
G1 F1800.000
G1 X151.047 Y156.500 E2.13390
G1 E0.13390 F2400.000
G92 E0
G1 X147.097 Y156.500 F7800.000
G1 E2.00000 F2400.000
G1 F1800.000
G1 X147.097 Y153.782 E2.13390
G1 E0.13390 F2400.000
G92 E0
G1 X143.147 Y153.782 F7800.000
G1 E2.00000 F2400.000
G1 F1800.000
G1 X143.147 Y156.500 E2.13390
G1 E0.13390 F2400.000
G92 E0
G1 X139.197 Y156.500 F7800.000
G1 E2.00000 F2400.000
G1 F1800.000
G1 X139.197 Y153.782 E2.13390
G1 E0.13390 F2400.000
G92 E0
G1 X135.247 Y153.782 F7800.000
G1 E2.00000 F2400.000
G1 F1800.000
