; generated by PrusaSlicer 2.3.0+win64 on 2021-06-11 at 21:42:54 UTC

; 

; external perimeters extrusion width = 0.45mm
; perimeters extrusion width = 0.45mm
; infill extrusion width = 0.45mm
; solid infill extrusion width = 0.45mm
; top infill extrusion width = 0.40mm
; first layer extrusion width = 0.42mm

M107
M190 S60 ; set bed temperature and wait for it to be reached
G10 S215 P1 ; set temperature
;TYPE:Custom
G28 ; home all axes
G1 Z5 F5000 ; lift nozzle
M98 P"/sys/load_meshbed.g"	; load mesh bed corresponding to the temp

G10 S215 P1 ; set temperature
M116 ; wait for temperature to be reached
G21 ; set units to millimeters
G90 ; use absolute coordinates
M82 ; use absolute distances for extrusion
G92 E0
T1
M98 P"/macros/purge_and_wipe"; purge and wipe residu
; Filament gcode
M98 P"/macros/set_baby_step"	; set baby step
M98 P"/macros/prime_line"                  ; do the prime line
;LAYER_CHANGE
;Z:0.24
;HEIGHT:0.24
G1 Z0.240 F7800.000
G1 E-2.00000 F2400.000
G92 E0
G1 X140.819 Y140.196 F7800.000
G1 E2.00000 F2400.000
;TYPE:Skirt
;WIDTH:0.42
G1 F1800.000
G1 X141.888 Y139.444 E2.04806
G1 X143.082 Y138.927 E2.09588
G1 X144.362 Y138.664 E2.14394
G1 X165.006 Y138.632 E2.90300
G1 X166.116 Y138.730 E2.94399
G1 X167.198 Y139.023 E2.98520
G1 X168.207 Y139.498 E3.02618
G1 X169.117 Y140.141 E3.06716
G1 X169.901 Y140.933 E3.10814
G1 X170.535 Y141.850 E3.14912
G1 X170.999 Y142.863 E3.19010
G1 X171.281 Y143.948 E3.23131
G1 X171.368 Y144.978 E3.26932
G1 X171.361 Y165.305 E4.01673
G1 X171.244 Y166.251 E4.05177
G1 X170.986 Y167.175 E4.08704
G1 X170.591 Y168.049 E4.12231
G1 X170.073 Y168.849 E4.15735
G1 X169.115 Y169.861 E4.20860
G1 X167.953 Y170.642 E4.26007
G1 X166.655 Y171.150 E4.31132
G1 X165.271 Y171.363 E4.36279
G1 X144.663 Y171.360 E5.12052
G1 X143.718 Y171.238 E5.15556
G1 X142.808 Y170.979 E5.19037
G1 X141.945 Y170.588 E5.22518
G1 X141.151 Y170.073 E5.25999
G1 X140.139 Y169.115 E5.31124
G1 X139.358 Y167.953 E5.36271
G1 X138.850 Y166.655 E5.41396
G1 X138.637 Y165.271 E5.46543
G1 X138.640 Y144.663 E6.22315
G1 X138.762 Y143.718 E6.25820
G1 X139.021 Y142.808 E6.29301
G1 X139.412 Y141.945 E6.32782
G1 X139.927 Y141.151 E6.36263
G1 X140.778 Y140.240 E6.40848
G1 E4.40848 F2400.000
G92 E0
G1 X146.147 Y146.147 F7800.000
G1 E2.00000 F2400.000
;TYPE:Perimeter
G1 F1800.000
G1 X163.853 Y146.147 E2.65103
G1 X163.853 Y163.853 E3.30205
G1 X146.147 Y163.853 E3.95308
G1 X146.147 Y146.207 E4.60190
G1 X145.778 Y145.778 F7800.000
G1 F1800.000
G1 X164.222 Y145.778 E5.28002
G1 X164.222 Y164.222 E5.95815
G1 X145.778 Y164.222 E6.63627
G1 X145.778 Y145.838 E7.31219
G1 X145.410 Y145.410 F7800.000
;TYPE:External perimeter
G1 F1800.000
G1 X164.590 Y145.410 E8.01741
G1 X164.590 Y164.590 E8.72263
G1 X145.410 Y164.590 E9.42786
G1 X145.410 Y145.470 E10.13087
G1 X145.796 Y145.514 F7800.000
G1 E8.13087 F2400.000
G92 E0
G1 X162.995 Y146.258 F7800.000
G1 E2.00000 F2400.000
;TYPE:Solid infill
;WIDTH:0.421348
G1 F1800.000
G1 X163.577 Y146.839 E2.03037
G1 X163.577 Y147.363 E2.04967
G1 X162.637 Y146.423 E2.09869
G1 X162.114 Y146.423 E2.11799
G1 X163.577 Y147.886 E2.19430
G1 X163.577 Y148.409 E2.21360
G1 X161.591 Y146.423 E2.31721
G1 X161.068 Y146.423 E2.33651
G1 X163.577 Y148.932 E2.46742
G1 X163.577 Y149.455 E2.48672
G1 X160.545 Y146.423 E2.64492
G1 X160.022 Y146.423 E2.66422
G1 X163.577 Y149.978 E2.84972
G1 X163.577 Y150.501 E2.86902
G1 X159.499 Y146.423 E3.08182
G1 X158.976 Y146.423 E3.10112
G1 X163.577 Y151.024 E3.34121
G1 X163.577 Y151.547 E3.36052
G1 X158.453 Y146.423 E3.62790
G1 X157.930 Y146.423 E3.64721
G1 X163.577 Y152.070 E3.94189
G1 X163.577 Y152.593 E3.96119
G1 X157.407 Y146.423 E4.28318
G1 X156.884 Y146.423 E4.30248
G1 X163.577 Y153.116 E4.65176
G1 X163.577 Y153.639 E4.67106
G1 X156.361 Y146.423 E5.04764
G1 X155.838 Y146.423 E5.06694
G1 X163.577 Y154.162 E5.47081
G1 X163.577 Y154.685 E5.49011
G1 X155.315 Y146.423 E5.92128
G1 X154.792 Y146.423 E5.94059
G1 X163.577 Y155.208 E6.39905
G1 X163.577 Y155.731 E6.41836
G1 X154.269 Y146.423 E6.90412
G1 X153.746 Y146.423 E6.92342
G1 X163.577 Y156.254 E7.43648
G1 X163.577 Y156.777 E7.45578
G1 X153.223 Y146.423 E7.99614
G1 X152.700 Y146.423 E8.01544
G1 X163.577 Y157.300 E8.58310
G1 X163.577 Y157.823 E8.60240
G1 X152.177 Y146.423 E9.19735
G1 X151.654 Y146.423 E9.21665
G1 X163.577 Y158.346 E9.83890
G1 X163.577 Y158.869 E9.85820
G1 X151.131 Y146.423 E10.50775
G1 X150.608 Y146.423 E10.52705
G1 X163.577 Y159.392 E11.20389
G1 X163.577 Y159.915 E11.22319
G1 X150.085 Y146.423 E11.92733
G1 X149.562 Y146.423 E11.94663
G1 X163.577 Y160.438 E12.67807
G1 X163.577 Y160.962 E12.69737
G1 X149.038 Y146.423 E13.45610
G1 X148.515 Y146.423 E13.47540
G1 X163.577 Y161.485 E14.26143
G1 X163.577 Y162.008 E14.28074
G1 X147.992 Y146.423 E15.09406
G1 X147.469 Y146.423 E15.11336
G1 X163.577 Y162.531 E15.95399
G1 X163.577 Y163.054 E15.97329
G1 X146.946 Y146.423 E16.84121
G1 X146.423 Y146.423 E16.86051
G1 X163.577 Y163.577 E17.75572
G1 X163.054 Y163.577 E17.77502
G1 X146.423 Y146.946 E18.64293
G1 X146.423 Y147.469 E18.66223
G1 X162.531 Y163.577 E19.50285
G1 X162.007 Y163.577 E19.52215
G1 X146.423 Y147.993 E20.33547
G1 X146.423 Y148.516 E20.35477
G1 X161.484 Y163.577 E21.14080
G1 X160.961 Y163.577 E21.16010
G1 X146.423 Y149.039 E21.91882
G1 X146.423 Y149.562 E21.93812
G1 X160.438 Y163.577 E22.66955
G1 X159.915 Y163.577 E22.68886
G1 X146.423 Y150.085 E23.39299
G1 X146.423 Y150.608 E23.41229
G1 X159.392 Y163.577 E24.08912
G1 X158.869 Y163.577 E24.10843
G1 X146.423 Y151.131 E24.75796
G1 X146.423 Y151.654 E24.77727
G1 X158.346 Y163.577 E25.39951
G1 X157.823 Y163.577 E25.41881
G1 X146.423 Y152.177 E26.01375
G1 X146.423 Y152.700 E26.03306
G1 X157.300 Y163.577 E26.60070
G1 X156.777 Y163.577 E26.62001
G1 X146.423 Y153.223 E27.16036
G1 X146.423 Y153.746 E27.17966
G1 X156.254 Y163.577 E27.69271
G1 X155.731 Y163.577 E27.71201
G1 X146.423 Y154.269 E28.19777
G1 X146.423 Y154.792 E28.21707
G1 X155.208 Y163.577 E28.67553
G1 X154.685 Y163.577 E28.69484
G1 X146.423 Y155.315 E29.12600
G1 X146.423 Y155.838 E29.14530
G1 X154.162 Y163.577 E29.54917
G1 X153.639 Y163.577 E29.56847
G1 X146.423 Y156.361 E29.94504
G1 X146.423 Y156.884 E29.96434
G1 X153.116 Y163.577 E30.31361
G1 X152.593 Y163.577 E30.33292
G1 X146.423 Y157.407 E30.65489
G1 X146.423 Y157.930 E30.67419
G1 X152.070 Y163.577 E30.96887
G1 X151.547 Y163.577 E30.98818
G1 X146.423 Y158.453 E31.25556
G1 X146.423 Y158.976 E31.27486
G1 X151.024 Y163.577 E31.51495
G1 X150.501 Y163.577 E31.53425
G1 X146.423 Y159.499 E31.74704
G1 X146.423 Y160.022 E31.76634
G1 X149.978 Y163.577 E31.95183
G1 X149.455 Y163.577 E31.97113
G1 X146.423 Y160.545 E32.12933
G1 X146.423 Y161.068 E32.14863
G1 X148.932 Y163.577 E32.27953
G1 X148.408 Y163.577 E32.29883
G1 X146.423 Y161.592 E32.40243
G1 X146.423 Y162.115 E32.42173
G1 X147.885 Y163.577 E32.49804
G1 X147.362 Y163.577 E32.51734
G1 X146.423 Y162.638 E32.56635
G1 X146.423 Y163.161 E32.58565
G1 X147.005 Y163.742 E32.61601
;LAYER_CHANGE
;Z:0.44
;HEIGHT:0.2
G1 Z0.440 F7800.000
G1 X146.039 Y146.039
;TYPE:Perimeter
;WIDTH:0.45
G1 F3600.000
G1 X163.961 Y146.039 E33.22264
G1 X163.961 Y163.961 E33.82927
G1 X146.039 Y163.961 E34.43590
G1 X146.039 Y146.099 E35.04049
G1 X145.632 Y145.632 F7800.000
G1 F3600.000
G1 X164.368 Y145.632 E35.67468
G1 X164.368 Y164.368 E36.30887
G1 X145.632 Y164.368 E36.94305
G1 X145.632 Y145.692 E37.57521
G1 X145.225 Y145.410 F7800.000
;TYPE:External perimeter
G1 F1800.000
G1 X145.225 Y145.225 E37.58147
G1 X164.775 Y145.225 E38.24321
G1 X164.775 Y164.775 E38.90496
G1 X145.225 Y164.775 E39.56670
G1 X145.225 Y145.470 E40.22015
G1 X145.356 Y145.279 F7800.000
G1 X163.008 Y163.839
;TYPE:Solid infill
;WIDTH:0.453694
G1 F1200.000
G1 X163.656 Y163.191 E40.25143
G1 X163.656 Y162.610 E40.27128
G1 X162.610 Y163.656 E40.32177
G1 X162.029 Y163.656 E40.34161
G1 X163.656 Y162.029 E40.42016
G1 X163.656 Y161.448 E40.44000
G1 X161.448 Y163.656 E40.54662
G1 X160.867 Y163.656 E40.56646
G1 X163.656 Y160.867 E40.70113
G1 X163.656 Y160.287 E40.72098
G1 X160.287 Y163.656 E40.88371
G1 X159.706 Y163.656 E40.90355
G1 X163.656 Y159.706 E41.09435
G1 X163.656 Y159.125 E41.11419
G1 X159.125 Y163.656 E41.33305
G1 X158.544 Y163.656 E41.35289
G1 X163.656 Y158.544 E41.59981
G1 X163.656 Y157.963 E41.61965
G1 X157.963 Y163.656 E41.89463
G1 X157.382 Y163.656 E41.91447
G1 X163.656 Y157.382 E42.21751
G1 X163.656 Y156.801 E42.23735
G1 X156.801 Y163.656 E42.56845
G1 X156.220 Y163.656 E42.58829
G1 X163.656 Y156.220 E42.94745
G1 X163.656 Y155.639 E42.96730
G1 X155.639 Y163.656 E43.35452
G1 X155.058 Y163.656 E43.37436
G1 X163.656 Y155.058 E43.78964
G1 X163.656 Y154.477 E43.80948
G1 X154.477 Y163.656 E44.25283
G1 X153.896 Y163.656 E44.27267
G1 X163.656 Y153.896 E44.74407
G1 X163.656 Y153.315 E44.76391
G1 X153.315 Y163.656 E45.26338
G1 X152.735 Y163.656 E45.28322
G1 X163.656 Y152.735 E45.81075
G1 X163.656 Y152.154 E45.83059
G1 X152.154 Y163.656 E46.38617
G1 X151.573 Y163.656 E46.40602
G1 X163.656 Y151.573 E46.98966
G1 X163.656 Y150.992 E47.00951
G1 X150.992 Y163.656 E47.62121
G1 X150.411 Y163.656 E47.64105
G1 X163.656 Y150.411 E48.28082
G1 X163.656 Y149.830 E48.30067
G1 X149.830 Y163.656 E48.96850
G1 X149.249 Y163.656 E48.98834
G1 X163.656 Y149.249 E49.68423
G1 X163.656 Y148.668 E49.70407
G1 X148.668 Y163.656 E50.42802
G1 X148.087 Y163.656 E50.44786
G1 X163.656 Y148.087 E51.19987
G1 X163.656 Y147.506 E51.21972
G1 X147.506 Y163.656 E51.99979
G1 X146.925 Y163.656 E52.01963
G1 X163.656 Y146.925 E52.82776
G1 X163.656 Y146.344 E52.84760
G1 X146.344 Y163.656 E53.68380
G1 X146.344 Y163.075 E53.70364
G1 X163.075 Y146.344 E54.51177
G1 X162.494 Y146.344 E54.53161
G1 X146.344 Y162.494 E55.31168
G1 X146.344 Y161.913 E55.33152
G1 X161.913 Y146.344 E56.08353
G1 X161.332 Y146.344 E56.10337
G1 X146.344 Y161.332 E56.82732
G1 X146.344 Y160.751 E56.84716
G1 X160.751 Y146.344 E57.54305
G1 X160.170 Y146.344 E57.56289
G1 X146.344 Y160.170 E58.23072
G1 X146.344 Y159.589 E58.25056
G1 X159.589 Y146.344 E58.89033
G1 X159.008 Y146.344 E58.91017
G1 X146.344 Y159.008 E59.52187
G1 X146.344 Y158.427 E59.54172
G1 X158.427 Y146.344 E60.12536
G1 X157.846 Y146.344 E60.14520
G1 X146.344 Y157.846 E60.70078
G1 X146.344 Y157.265 E60.72063
G1 X157.265 Y146.344 E61.24815
G1 X156.684 Y146.344 E61.26799
G1 X146.344 Y156.684 E61.76745
G1 X146.344 Y156.104 E61.78729
G1 X156.104 Y146.344 E62.25870
G1 X155.523 Y146.344 E62.27854
G1 X146.344 Y155.523 E62.72188
G1 X146.344 Y154.942 E62.74172
G1 X154.942 Y146.344 E63.15700
G1 X154.361 Y146.344 E63.17684
G1 X146.344 Y154.361 E63.56406
G1 X146.344 Y153.780 E63.58390
G1 X153.780 Y146.344 E63.94306
G1 X153.199 Y146.344 E63.96290
G1 X146.344 Y153.199 E64.29400
G1 X146.344 Y152.618 E64.31384
G1 X152.618 Y146.344 E64.61688
G1 X152.037 Y146.344 E64.63672
G1 X146.344 Y152.037 E64.91169
G1 X146.344 Y151.456 E64.93154
G1 X151.456 Y146.344 E65.17845
G1 X150.875 Y146.344 E65.19829
G1 X146.344 Y150.875 E65.41715
G1 X146.344 Y150.294 E65.43699
G1 X150.294 Y146.344 E65.62778
G1 X149.713 Y146.344 E65.64762
G1 X146.344 Y149.713 E65.81035
G1 X146.344 Y149.132 E65.83020
G1 X149.132 Y146.344 E65.96487
G1 X148.552 Y146.344 E65.98471
G1 X146.344 Y148.552 E66.09132
G1 X146.344 Y147.971 E66.11116
G1 X147.971 Y146.344 E66.18971
G1 X147.390 Y146.344 E66.20955
G1 X146.344 Y147.390 E66.26004
G1 X146.344 Y146.809 E66.27989
G1 X146.992 Y146.161 E66.31116
;LAYER_CHANGE
;Z:0.64
;HEIGHT:0.2
G1 Z0.640 F7800.000
G1 X146.039 Y146.039
;TYPE:Perimeter
;WIDTH:0.45
G1 F3600.000
G1 X163.961 Y146.039 E66.91779
G1 X163.961 Y163.961 E67.52442
G1 X146.039 Y163.961 E68.13105
G1 X146.039 Y146.099 E68.73564
G1 X145.632 Y145.632 F7800.000
G1 F3600.000
G1 X164.368 Y145.632 E69.36983
G1 X164.368 Y164.368 E70.00401
G1 X145.632 Y164.368 E70.63820
G1 X145.632 Y145.692 E71.27035
G1 X145.225 Y145.410 F7800.000
;TYPE:External perimeter
G1 F1800.000
G1 X145.225 Y145.225 E71.27662
G1 X164.775 Y145.225 E71.93836
G1 X164.775 Y164.775 E72.60011
G1 X145.225 Y164.775 E73.26185
G1 X145.225 Y145.470 E73.91530
G1 X145.356 Y145.279 F7800.000
G1 X163.839 Y146.992
;TYPE:Solid infill
;WIDTH:0.453694
G1 F1200.000
G1 X163.191 Y146.344 E73.94658
G1 X162.610 Y146.344 E73.96642
G1 X163.656 Y147.390 E74.01691
G1 X163.656 Y147.971 E74.03676
G1 X162.029 Y146.344 E74.11531
G1 X161.448 Y146.344 E74.13515
G1 X163.656 Y148.552 E74.24177
G1 X163.656 Y149.133 E74.26161
G1 X160.867 Y146.344 E74.39628
G1 X160.287 Y146.344 E74.41612
G1 X163.656 Y149.713 E74.57886
G1 X163.656 Y150.294 E74.59870
G1 X159.706 Y146.344 E74.78950
G1 X159.125 Y146.344 E74.80934
G1 X163.656 Y150.875 E75.02820
G1 X163.656 Y151.456 E75.04804
G1 X158.544 Y146.344 E75.29495
G1 X157.963 Y146.344 E75.31480
G1 X163.656 Y152.037 E75.58978
G1 X163.656 Y152.618 E75.60962
G1 X157.382 Y146.344 E75.91266
G1 X156.801 Y146.344 E75.93250
G1 X163.656 Y153.199 E76.26360
G1 X163.656 Y153.780 E76.28344
G1 X156.220 Y146.344 E76.64260
G1 X155.639 Y146.344 E76.66244
G1 X163.656 Y154.361 E77.04966
G1 X163.656 Y154.942 E77.06951
G1 X155.058 Y146.344 E77.48479
G1 X154.477 Y146.344 E77.50463
G1 X163.656 Y155.523 E77.94797
G1 X163.656 Y156.104 E77.96782
G1 X153.896 Y146.344 E78.43922
G1 X153.315 Y146.344 E78.45906
G1 X163.656 Y156.685 E78.95853
G1 X163.656 Y157.265 E78.97837
G1 X152.735 Y146.344 E79.50589
G1 X152.154 Y146.344 E79.52574
G1 X163.656 Y157.846 E80.08132
G1 X163.656 Y158.427 E80.10116
G1 X151.573 Y146.344 E80.68481
G1 X150.992 Y146.344 E80.70465
G1 X163.656 Y159.008 E81.31636
G1 X163.656 Y159.589 E81.33620
G1 X150.411 Y146.344 E81.97597
G1 X149.830 Y146.344 E81.99581
G1 X163.656 Y160.170 E82.66364
G1 X163.656 Y160.751 E82.68348
G1 X149.249 Y146.344 E83.37938
G1 X148.668 Y146.344 E83.39922
G1 X163.656 Y161.332 E84.12317
G1 X163.656 Y161.913 E84.14301
G1 X148.087 Y146.344 E84.89502
G1 X147.506 Y146.344 E84.91486
G1 X163.656 Y162.494 E85.69494
G1 X163.656 Y163.075 E85.71478
G1 X146.925 Y146.344 E86.52291
G1 X146.344 Y146.344 E86.54275
G1 X163.656 Y163.656 E87.37894
G1 X163.075 Y163.656 E87.39879
G1 X146.344 Y146.925 E88.20692
G1 X146.344 Y147.506 E88.22676
G1 X162.494 Y163.656 E89.00683
G1 X161.913 Y163.656 E89.02667
G1 X146.344 Y148.087 E89.77868
G1 X146.344 Y148.668 E89.79852
G1 X161.332 Y163.656 E90.52247
G1 X160.751 Y163.656 E90.54231
G1 X146.344 Y149.249 E91.23820
G1 X146.344 Y149.830 E91.25804
G1 X160.170 Y163.656 E91.92587
G1 X159.589 Y163.656 E91.94571
G1 X146.344 Y150.411 E92.58547
G1 X146.344 Y150.992 E92.60532
G1 X159.008 Y163.656 E93.21702
G1 X158.427 Y163.656 E93.23686
G1 X146.344 Y151.573 E93.82051
G1 X146.344 Y152.154 E93.84035
G1 X157.846 Y163.656 E94.39593
G1 X157.265 Y163.656 E94.41577
G1 X146.344 Y152.735 E94.94330
G1 X146.344 Y153.316 E94.96314
G1 X156.684 Y163.656 E95.46260
G1 X156.104 Y163.656 E95.48244
G1 X146.344 Y153.896 E95.95384
G1 X146.344 Y154.477 E95.97369
G1 X155.523 Y163.656 E96.41703
G1 X154.942 Y163.656 E96.43687
G1 X146.344 Y155.058 E96.85215
G1 X146.344 Y155.639 E96.87199
G1 X154.361 Y163.656 E97.25921
G1 X153.780 Y163.656 E97.27905
G1 X146.344 Y156.220 E97.63821
G1 X146.344 Y156.801 E97.65805
G1 X153.199 Y163.656 E97.98915
G1 X152.618 Y163.656 E98.00899
G1 X146.344 Y157.382 E98.31202
G1 X146.344 Y157.963 E98.33187
G1 X152.037 Y163.656 E98.60684
G1 X151.456 Y163.656 E98.62668
G1 X146.344 Y158.544 E98.87360
G1 X146.344 Y159.125 E98.89344
G1 X150.875 Y163.656 E99.11229
G1 X150.294 Y163.656 E99.13214
G1 X146.344 Y159.706 E99.32293
G1 X146.344 Y160.287 E99.34277
G1 X149.713 Y163.656 E99.50550
G1 X149.132 Y163.656 E99.52534
G1 X146.344 Y160.868 E99.66002
G1 X146.344 Y161.448 E99.67986
G1 X148.552 Y163.656 E99.78647
G1 X147.971 Y163.656 E99.80631
G1 X146.344 Y162.029 E99.88486
G1 X146.344 Y162.610 E99.90470
G1 X147.390 Y163.656 E99.95519
G1 X146.809 Y163.656 E99.97503
G1 X146.161 Y163.008 E100.00631
M106 S247.35
;LAYER_CHANGE
;Z:0.84
;HEIGHT:0.2
G1 Z0.840 F7800.000
G1 X146.039 Y146.039
;TYPE:Perimeter
;WIDTH:0.45
G1 F3600.000
G1 X163.961 Y146.039 E100.61294
G1 X163.961 Y163.961 E101.21957
G1 X146.039 Y163.961 E101.82619
G1 X146.039 Y146.099 E102.43079
G1 X145.632 Y145.632 F7800.000
G1 F3600.000
G1 X164.368 Y145.632 E103.06498
G1 X164.368 Y164.368 E103.69916
