; G-Code generated by Simplify3D(R) Version 4.1.2
; Mar 10, 2021 at 12:23:31 AM
; Settings Summary
;   processName,Process1
;   applyToModels,guide bowden etagere
;   profileName,BLV mgn Cube-  Simplify3D Profile (modified)
;   profileVersion,2021-03-08 23:49:49
;   baseProfile,Anet A8
;   printMaterial,PLA
;   printQuality,Medium
;   printExtruders,
;   extruderName,Primary Extruder
;   extruderToolheadNumber,0
;   extruderDiameter,0.4
;   extruderAutoWidth,1
;   extruderWidth,0.48
;   extrusionMultiplier,1
;   extruderUseRetract,1
;   extruderRetractionDistance,1.5
;   extruderExtraRestartDistance,0
;   extruderRetractionZLift,0
;   extruderRetractionSpeed,5100
;   extruderUseCoasting,1
;   extruderCoastingDistance,0.2
;   extruderUseWipe,1
;   extruderWipeDistance,4
;   primaryExtruder,0
;   layerHeight,0.2
;   topSolidLayers,4
;   bottomSolidLayers,4
;   perimeterOutlines,4
;   printPerimetersInsideOut,0
;   startPointOption,3
;   startPointOriginX,0
;   startPointOriginY,500
;   sequentialIslands,0
;   spiralVaseMode,0
;   firstLayerHeightPercentage,150
;   firstLayerWidthPercentage,100
;   firstLayerUnderspeed,0.4
;   useRaft,0
;   raftExtruder,0
;   raftTopLayers,3
;   raftBaseLayers,2
;   raftOffset,3
;   raftSeparationDistance,0.14
;   raftTopInfill,100
;   aboveRaftSpeedMultiplier,0.3
;   useSkirt,1
;   skirtExtruder,0
;   skirtLayers,1
;   skirtOutlines,2
;   skirtOffset,6
;   usePrimePillar,0
;   primePillarExtruder,999
;   primePillarWidth,12
;   primePillarLocation,7
;   primePillarSpeedMultiplier,1
;   useOozeShield,0
;   oozeShieldExtruder,999
;   oozeShieldOffset,2
;   oozeShieldOutlines,1
;   oozeShieldSidewallShape,1
;   oozeShieldSidewallAngle,30
;   oozeShieldSpeedMultiplier,1
;   infillExtruder,0
;   internalInfillPattern,Rectilinear
;   externalInfillPattern,Rectilinear
;   infillPercentage,15
;   outlineOverlapPercentage,15
;   infillExtrusionWidthPercentage,100
;   minInfillLength,5
;   infillLayerInterval,1
;   internalInfillAngles,45,-45
;   overlapInternalInfillAngles,0
;   externalInfillAngles,45,-45
;   generateSupport,0
;   supportExtruder,0
;   supportInfillPercentage,30
;   supportExtraInflation,0
;   supportBaseLayers,0
;   denseSupportExtruder,0
;   denseSupportLayers,0
;   denseSupportInfillPercentage,70
;   supportLayerInterval,1
;   supportHorizontalPartOffset,0.4
;   supportUpperSeparationLayers,1
;   supportLowerSeparationLayers,1
;   supportType,0
;   supportGridSpacing,4.5
;   maxOverhangAngle,45
;   supportAngles,45,-45
;   temperatureName,Primary Extruder,Heated Bed
;   temperatureNumber,0,0
;   temperatureSetpointCount,2,1
;   temperatureSetpointLayers,1,2,1
;   temperatureSetpointTemperatures,215,210,60
;   temperatureStabilizeAtStartup,1,1
;   temperatureHeatedBed,0,1
;   fanLayers,1,2
;   fanSpeeds,0,100
;   blipFanToFullPower,1
;   adjustSpeedForCooling,1
;   minSpeedLayerTime,15
;   minCoolingSpeedSlowdown,20
;   increaseFanForCooling,0
;   minFanLayerTime,45
;   maxCoolingFanSpeed,100
;   increaseFanForBridging,1
;   bridgingFanSpeed,100
;   use5D,1
;   relativeEdistances,0
;   allowEaxisZeroing,1
;   independentExtruderAxes,0
;   includeM10123,0
;   stickySupport,1
;   applyToolheadOffsets,0
;   gcodeXoffset,24
;   gcodeYoffset,22
;   gcodeZoffset,0
;   overrideMachineDefinition,1
;   machineTypeOverride,0
;   strokeXoverride,310
;   strokeYoverride,310
;   strokeZoverride,334
;   originOffsetXoverride,0
;   originOffsetYoverride,0
;   originOffsetZoverride,0
;   homeXdirOverride,-1
;   homeYdirOverride,-1
;   homeZdirOverride,-1
;   flipXoverride,1
;   flipYoverride,-1
;   flipZoverride,1
;   toolheadOffsets,0,0|0,0|0,0|0,0|0,0|0,0
;   overrideFirmwareConfiguration,1
;   firmwareTypeOverride,RepRap (Marlin/Repetier/Sprinter)
;   GPXconfigOverride,r2
;   baudRateOverride,115200
;   overridePrinterModels,1
;   printerModelsOverride,Blvfull.stl
;   startingGcode,M291 P"Homing all axis" R"Printing.." S1 T2,G21		; metric values,G28		; home all,M98 P"/macros/load_meshbed"	; load mesh bed corresponding to the temp,M98 P"/macros/set_baby_step"	; set baby step,M98 P"/macros/purge_and_prime"; purge and do the prime line,,G92 E0 F100		; reset extruder,G1 Z10 F3000 		; move z up little to prevent scratching of surface,G92 E0 		; reset extruder,M291 P"Printing started !" R"Printing.." S1 T3
;   layerChangeGcode,
;   retractionGcode,
;   toolChangeGcode,
;   endingGcode,M104 S0 ; turn off extruder,M140 S0 ; turn off bed,M98 P"/macros/remove_baby_step"	; unset baby step,M98 P"/macros/rise30mm",G1 X0 Y300 F1000 ; prepare for part removal,M84 ; disable motors,M106 S0 ;turn off part cooling fan,;M81 ; shutdown,; play song,M300 S294 P200 ;D4: 294,M300 S588 P200 ;D5: 588,M300 S440 P200 ;A4: 440,M300 S392 P200 ;G4: 392,M300 S784 P200 ;G5: 784,M300 S440 P200 ;A4: 440,M300 S740 P200 ;F#5: 740,M300 S440 P200 ;A4: 440,M291 P"Printing finished !" R"Printing.." S1 T0,
;   exportFileFormat,gcode
;   celebration,0
;   celebrationSong,Star Wars
;   postProcessing,
;   defaultSpeed,6000
;   outlineUnderspeed,0.66
;   solidInfillUnderspeed,0.8
;   supportUnderspeed,0.8
;   rapidXYspeed,7200
;   rapidZspeed,1002
;   minBridgingArea,50
;   bridgingExtraInflation,0
;   bridgingExtrusionMultiplier,1
;   bridgingSpeedMultiplier,1
;   useFixedBridgingAngle,0
;   fixedBridgingAngle,0
;   applyBridgingToPerimeters,1
;   filamentDiameters,1.75|1.75|1.75|1.75|1.75|1.75
;   filamentPricesPerKg,30|110|110|110|110|110
;   filamentDensities,1.25|1.25|1.25|1.25|1.25|1.25
;   useMinPrintHeight,0
;   minPrintHeight,0
;   useMaxPrintHeight,0
;   maxPrintHeight,0
;   useDiaphragm,0
;   diaphragmLayerInterval,20
;   robustSlicing,1
;   mergeAllIntoSolid,0
;   onlyRetractWhenCrossingOutline,0
;   retractBetweenLayers,1
;   useRetractionMinTravel,1
;   retractionMinTravel,3
;   retractWhileWiping,1
;   onlyWipeOutlines,1
;   avoidCrossingOutline,1
;   maxMovementDetourFactor,3
;   toolChangeRetractionDistance,12
;   toolChangeExtraRestartDistance,-0.5
;   toolChangeRetractionSpeed,600
;   externalThinWallType,1
;   internalThinWallType,2
;   thinWallAllowedOverlapPercentage,15
;   singleExtrusionMinLength,1
;   singleExtrusionMinPrintingWidthPercentage,50
;   singleExtrusionMaxPrintingWidthPercentage,200
;   singleExtrusionEndpointExtension,0.2
;   horizontalSizeCompensation,0
G90
M82
M106 S0
M140 S60
M190 S60
M104 S215 T0
M109 S215 T0
M291 P"Homing all axis" R"Printing.." S1 T2
G21		; metric values
G28		; home all
M98 P"/macros/load_meshbed"	; load mesh bed corresponding to the temp
M98 P"/macros/set_baby_step"	; set baby step
M98 P"/macros/purge_and_prime"; purge and do the prime line
G92 E0 F100		; reset extruder
G1 Z10 F3000 		; move z up little to prevent scratching of surface
G92 E0 		; reset extruder
M291 P"Printing started !" R"Printing.." S1 T3
; process Process1
; layer 1, Z = 0.300
T0
G92 E0.0000
G1 E-1.5000 F5100
; feature skirt
; tool H0.300 W0.480
G1 Z0.300 F1002
G1 X163.716 Y196.970 F7200
G1 E0.0000 F5100
G92 E0.0000
G1 X159.780 Y193.033 E0.3333 F2400
G1 X159.780 Y175.833 E1.3631
G1 X159.883 Y175.005 E1.4130
G1 X161.287 Y169.461 E1.7554
G1 X161.449 Y168.977 E1.7859
G1 X161.782 Y168.190 E1.8371
G1 X161.917 Y167.907 E1.8559
G1 X162.275 Y167.240 E1.9012
G1 X162.436 Y166.971 E1.9200
G1 X162.855 Y166.341 E1.9652
G1 X163.040 Y166.088 E1.9840
G1 X163.516 Y165.500 E2.0293
G1 X163.724 Y165.266 E2.0481
G1 X164.252 Y164.724 E2.0934
G1 X164.482 Y164.510 E2.1122
G1 X165.060 Y164.018 E2.1576
G1 X165.313 Y163.823 E2.1767
G1 X165.881 Y163.426 E2.2182
G1 X166.017 Y163.336 E2.2280
G1 X173.635 Y158.551 E2.7665
G1 X173.792 Y158.458 E2.7775
G1 X174.386 Y158.129 E2.8181
G1 X174.729 Y157.963 E2.8410
G1 X175.448 Y157.666 E2.8875
G1 X175.807 Y157.540 E2.9103
G1 X176.555 Y157.325 E2.9569
G1 X176.926 Y157.241 E2.9797
G1 X177.693 Y157.112 E3.0262
G1 X178.072 Y157.071 E3.0490
G1 X178.848 Y157.029 E3.0956
G1 X179.229 Y157.031 E3.1184
G1 X180.006 Y157.078 E3.1650
G1 X180.384 Y157.123 E3.1878
G1 X181.150 Y157.257 E3.2343
G1 X181.521 Y157.344 E3.2571
G1 X182.267 Y157.564 E3.3037
G1 X182.626 Y157.693 E3.3265
G1 X183.342 Y157.996 E3.3731
G1 X183.683 Y158.164 E3.3959
G1 X184.277 Y158.500 E3.4367
G1 X184.441 Y158.598 E3.4481
G1 X191.321 Y163.015 E3.9376
G1 X191.740 Y163.253 E3.9665
G1 X192.123 Y163.507 E3.9940
G1 X193.175 Y164.312 E4.0733
G1 X193.520 Y164.616 E4.1008
G1 X194.147 Y165.250 E4.1542
G1 X194.448 Y165.598 E4.1817
G1 X195.243 Y166.657 E4.2610
G1 X195.493 Y167.043 E4.2885
G1 X195.926 Y167.823 E4.3420
G1 X196.121 Y168.239 E4.3695
G1 X196.580 Y169.421 E4.4454
G1 X196.688 Y169.750 E4.4661
G1 X198.100 Y174.910 E4.7864
G1 X198.220 Y175.800 E4.8402
G1 X198.220 Y193.033 E5.8719
G1 X194.284 Y196.970 E6.2052
G1 X186.716 Y196.970 E6.6582
G1 X182.780 Y193.033 E6.9915
G1 X182.780 Y184.970 E7.4742
G1 X175.220 Y184.970 E7.9268
G1 X175.220 Y193.033 E8.4096
G1 X171.284 Y196.970 E8.7429
G1 X163.716 Y196.970 E9.1959
G1 X163.915 Y196.490 F7200
G92 E0.0000
G1 X160.260 Y192.834 E0.3095 F2400
G1 X160.260 Y175.863 E1.3256
G1 X160.356 Y175.094 E1.3719
G1 X161.748 Y169.596 E1.7115
G1 X161.898 Y169.147 E1.7398
G1 X162.220 Y168.387 E1.7892
G1 X162.345 Y168.124 E1.8067
G1 X162.693 Y167.477 E1.8506
G1 X162.842 Y167.228 E1.8681
G1 X163.249 Y166.616 E1.9120
G1 X163.421 Y166.381 E1.9294
G1 X163.882 Y165.810 E1.9734
G1 X164.075 Y165.593 E1.9908
G1 X164.588 Y165.067 E2.0348
G1 X164.801 Y164.868 E2.0522
G1 X165.362 Y164.391 E2.0963
G1 X165.597 Y164.210 E2.1141
G1 X166.151 Y163.823 E2.1545
G1 X166.278 Y163.739 E2.1636
G1 X173.885 Y158.961 E2.7014
G1 X174.031 Y158.875 E2.7116
G1 X174.607 Y158.555 E2.7510
G1 X174.926 Y158.402 E2.7722
G1 X175.619 Y158.114 E2.8171
G1 X175.953 Y157.997 E2.8383
G1 X176.674 Y157.790 E2.8832
G1 X177.019 Y157.712 E2.9044
G1 X177.759 Y157.588 E2.9493
G1 X178.111 Y157.549 E2.9705
G1 X178.860 Y157.510 E3.0154
G1 X179.214 Y157.511 E3.0366
G1 X179.963 Y157.556 E3.0816
G1 X180.315 Y157.598 E3.1027
G1 X181.054 Y157.727 E3.1477
G1 X181.398 Y157.808 E3.1688
G1 X182.118 Y158.021 E3.2138
G1 X182.451 Y158.140 E3.2350
G1 X183.142 Y158.433 E3.2799
G1 X183.459 Y158.589 E3.3010
G1 X184.035 Y158.914 E3.3407
G1 X184.187 Y159.006 E3.3513
G1 X191.073 Y163.426 E3.8411
G1 X191.488 Y163.662 E3.8698
G1 X191.844 Y163.898 E3.8953
G1 X192.870 Y164.683 E3.9726
G1 X193.190 Y164.965 E3.9982
G1 X193.795 Y165.576 E4.0497
G1 X194.074 Y165.899 E4.0752
G1 X194.849 Y166.932 E4.1525
G1 X195.081 Y167.290 E4.1781
G1 X195.498 Y168.042 E4.2295
G1 X195.680 Y168.428 E4.2551
G1 X196.128 Y169.583 E4.3293
G1 X196.229 Y169.889 E4.3485
G1 X197.629 Y175.005 E4.6661
G1 X197.740 Y175.833 E4.7161
G1 X197.740 Y192.834 E5.7340
G1 X194.085 Y196.490 E6.0434
G1 X186.915 Y196.490 E6.4727
G1 X183.260 Y192.834 E6.7821
G1 X183.260 Y184.490 E7.2817
G1 X174.740 Y184.490 E7.7918
G1 X174.740 Y192.834 E8.2914
G1 X171.085 Y196.490 E8.6009
G1 X163.915 Y196.490 E9.0301
G92 E0.0000
G1 E-1.5000 F5100
; feature outer perimeter
G1 X166.740 Y190.010 F7200
G1 E0.0000 F5100
G92 E0.0000
G1 X166.740 Y176.280 E0.8220 F1584
G1 X167.967 Y171.434 E1.1213
G1 X168.128 Y171.053 E1.1460
G1 X168.327 Y170.682 E1.1712
G1 X168.559 Y170.332 E1.1964
G1 X168.824 Y170.005 E1.2216
G1 X169.118 Y169.704 E1.2467
G1 X169.438 Y169.432 E1.2719
G1 X169.790 Y169.186 E1.2976
G1 X170.162 Y168.974 E1.3233
G1 X177.254 Y164.497 E1.8254
G1 X177.583 Y164.315 E1.8479
G1 X177.924 Y164.173 E1.8700
G1 X178.279 Y164.071 E1.8921
G1 X178.644 Y164.010 E1.9142
G1 X179.012 Y163.991 E1.9363
G1 X179.381 Y164.013 E1.9584
G1 X179.745 Y164.077 E1.9806
G1 X180.099 Y164.181 E2.0027
G1 X180.439 Y164.325 E2.0248
G1 X180.767 Y164.510 E2.0473
G1 X187.719 Y168.973 E2.5419
G1 X188.091 Y169.185 E2.5675
G1 X188.429 Y169.420 E2.5921
G1 X188.743 Y169.684 E2.6167
G1 X189.032 Y169.976 E2.6413
G1 X189.294 Y170.293 E2.6659
G1 X189.525 Y170.633 E2.6905
G1 X189.724 Y170.992 E2.7151
G1 X189.890 Y171.368 E2.7398
G1 X190.023 Y171.761 E2.7646
G1 X191.260 Y176.282 E3.0452
G1 X191.260 Y190.010 E3.8671
G1 X189.740 Y190.010 E3.9581
G1 X189.740 Y178.010 E4.6765
G1 X168.260 Y178.010 E5.9624
G1 X168.260 Y190.010 E6.6809
G1 X166.940 Y190.010 E6.7599
G1 X166.740 Y190.010 F1584
G92 E0.0000
G1 X166.740 Y189.544 E-1.5000 F1584
G1 X166.740 Y186.010 F1584
; feature inner perimeter
G1 X167.220 Y189.530 F7200
G1 E0.0000 F5100
G92 E0.0000
G1 X167.220 Y176.340 E0.7897 F1992
G1 X167.934 Y173.519 E0.9639
G1 X168.263 Y173.530 E0.9836
G1 X168.335 Y173.933 E1.0080
G1 X168.473 Y174.383 E1.0362
G1 X168.663 Y174.813 E1.0644
G1 X168.902 Y175.218 E1.0926
G1 X169.187 Y175.592 E1.1207
G1 X169.515 Y175.930 E1.1489
G1 X169.880 Y176.226 E1.1771
G1 X170.278 Y176.478 E1.2052
G1 X170.703 Y176.680 E1.2334
G1 X171.149 Y176.831 E1.2616
G1 X171.609 Y176.928 E1.2897
G1 X172.078 Y176.969 E1.3179
G1 X172.548 Y176.955 E1.3461
G1 X173.014 Y176.886 E1.3743
G1 X173.468 Y176.762 E1.4024
G1 X173.903 Y176.585 E1.4306
G1 X174.316 Y176.358 E1.4588
G1 X174.698 Y176.084 E1.4869
G1 X175.045 Y175.766 E1.5151
G1 X175.352 Y175.410 E1.5433
G1 X175.615 Y175.019 E1.5714
G1 X175.830 Y174.601 E1.5996
G1 X175.994 Y174.160 E1.6278
G1 X176.100 Y173.720 E1.6549
G1 X176.397 Y173.698 E1.6727
G1 X176.501 Y173.958 E1.6894
G1 X176.714 Y174.316 E1.7144
G1 X176.980 Y174.637 E1.7393
G1 X177.291 Y174.915 E1.7643
G1 X177.640 Y175.141 E1.7892
G1 X178.021 Y175.312 E1.8142
G1 X178.423 Y175.422 E1.8391
G1 X178.837 Y175.470 E1.8641
G1 X179.253 Y175.454 E1.8890
G1 X179.662 Y175.375 E1.9140
G1 X180.054 Y175.234 E1.9389
G1 X180.421 Y175.035 E1.9639
G1 X180.752 Y174.782 E1.9888
G1 X181.041 Y174.482 E2.0138
G1 X181.281 Y174.141 E2.0387
G1 X181.688 Y173.318 E2.0937
G1 X181.882 Y174.139 E2.1442
G1 X182.044 Y174.582 E2.1725
G1 X182.257 Y175.002 E2.2007
G1 X182.518 Y175.395 E2.2289
G1 X182.824 Y175.753 E2.2571
G1 X183.171 Y176.073 E2.2854
G1 X183.553 Y176.349 E2.3136
G1 X183.965 Y176.578 E2.3418
G1 X184.401 Y176.757 E2.3700
G1 X184.855 Y176.883 E2.3983
G1 X185.321 Y176.954 E2.4265
G1 X185.792 Y176.970 E2.4547
G1 X186.262 Y176.929 E2.4829
G1 X186.724 Y176.833 E2.5111
G1 X187.170 Y176.683 E2.5394
G1 X187.597 Y176.482 E2.5676
G1 X187.996 Y176.231 E2.5958
G1 X188.362 Y175.934 E2.6240
G1 X188.691 Y175.596 E2.6523
G1 X188.978 Y175.222 E2.6805
G1 X189.218 Y174.816 E2.7087
G1 X189.408 Y174.385 E2.7369
G1 X189.546 Y173.934 E2.7651
G1 X189.643 Y173.396 E2.7979
G1 X189.969 Y173.382 E2.8174
G1 X190.780 Y176.347 E3.0014
G1 X190.780 Y189.530 E3.7907
G1 X190.220 Y189.530 E3.8242
G1 X190.220 Y177.530 E4.5426
G1 X167.780 Y177.530 E5.8861
G1 X167.780 Y189.530 E6.6045
G1 X167.420 Y189.530 E6.6261
G1 X167.220 Y189.530 F1992
G92 E0.0000
G1 E-1.5000 F5100
G1 X168.260 Y187.535 F7200
G1 X168.260 Y178.010
G1 X173.225 Y178.010
G1 X174.449 Y175.661
G1 X174.700 Y175.431
G1 X174.970 Y175.118
G1 X175.201 Y174.775
G1 X175.390 Y174.407
G1 X175.534 Y174.019
G1 X175.631 Y173.617
G1 X175.666 Y173.327
G1 X176.180 Y172.340
G1 E0.0000 F5100
G92 E0.0000
G1 X175.830 Y171.399 E0.0601 F1992
G1 X175.615 Y170.980 E0.0883
G1 X175.352 Y170.590 E0.1165
G1 X175.045 Y170.234 E0.1446
G1 X174.698 Y169.916 E0.1728
G1 X174.316 Y169.642 E0.2010
G1 X173.904 Y169.415 E0.2291
G1 X173.467 Y169.238 E0.2573
G1 X173.014 Y169.114 E0.2855
G1 X172.548 Y169.044 E0.3137
G1 X172.078 Y169.030 E0.3418
G1 X171.471 Y169.084 E0.3783
G1 X171.368 Y168.780 E0.3975
G1 X176.492 Y165.546 E0.7603
G1 X176.722 Y165.770 E0.7796
G1 X176.561 Y166.042 E0.7985
G1 X176.405 Y166.429 E0.8235
G1 X176.310 Y166.835 E0.8484
G1 X176.278 Y167.252 E0.8735
G1 X176.313 Y167.679 E0.8991
G1 X176.405 Y168.071 E0.9233
G1 X176.561 Y168.458 E0.9482
G1 X176.773 Y168.816 E0.9732
G1 X177.039 Y169.138 E0.9981
G1 X177.350 Y169.415 E1.0231
