; G-Code generated by Simplify3D(R) Version 4.1.2
; Apr 2, 2021 at 1:53:04 AM
; Settings Summary
;   processName,Process1
;   applyToModels,pinplate_seb,pin plate metal carriage attach v1
;   profileName,BLV mgn Cube-  Simplify3D Profile
;   profileVersion,2021-03-16 20:26:39
;   baseProfile,Anet A8
;   printMaterial,PLA
;   printQuality,Medium
;   printExtruders,
;   extruderName,Primary Extruder
;   extruderToolheadNumber,0
;   extruderDiameter,0.4
;   extruderAutoWidth,1
;   extruderWidth,0.48
;   extrusionMultiplier,1
;   extruderUseRetract,1
;   extruderRetractionDistance,1.5
;   extruderExtraRestartDistance,0
;   extruderRetractionZLift,0
;   extruderRetractionSpeed,5100
;   extruderUseCoasting,1
;   extruderCoastingDistance,0.2
;   extruderUseWipe,1
;   extruderWipeDistance,4
;   primaryExtruder,0
;   layerHeight,0.2
;   topSolidLayers,3
;   bottomSolidLayers,3
;   perimeterOutlines,3
;   printPerimetersInsideOut,0
;   startPointOption,3
;   startPointOriginX,0
;   startPointOriginY,500
;   sequentialIslands,0
;   spiralVaseMode,0
;   firstLayerHeightPercentage,150
;   firstLayerWidthPercentage,100
;   firstLayerUnderspeed,0.4
;   useRaft,0
;   raftExtruder,0
;   raftTopLayers,3
;   raftBaseLayers,2
;   raftOffset,3
;   raftSeparationDistance,0.14
;   raftTopInfill,100
;   aboveRaftSpeedMultiplier,0.3
;   useSkirt,1
;   skirtExtruder,0
;   skirtLayers,1
;   skirtOutlines,2
;   skirtOffset,6
;   usePrimePillar,0
;   primePillarExtruder,999
;   primePillarWidth,12
;   primePillarLocation,7
;   primePillarSpeedMultiplier,1
;   useOozeShield,0
;   oozeShieldExtruder,999
;   oozeShieldOffset,2
;   oozeShieldOutlines,1
;   oozeShieldSidewallShape,1
;   oozeShieldSidewallAngle,30
;   oozeShieldSpeedMultiplier,1
;   infillExtruder,0
;   internalInfillPattern,Rectilinear
;   externalInfillPattern,Rectilinear
;   infillPercentage,15
;   outlineOverlapPercentage,15
;   infillExtrusionWidthPercentage,100
;   minInfillLength,5
;   infillLayerInterval,1
;   internalInfillAngles,45,-45
;   overlapInternalInfillAngles,0
;   externalInfillAngles,45,-45
;   generateSupport,1
;   supportExtruder,0
;   supportInfillPercentage,30
;   supportExtraInflation,0
;   supportBaseLayers,0
;   denseSupportExtruder,0
;   denseSupportLayers,0
;   denseSupportInfillPercentage,70
;   supportLayerInterval,1
;   supportHorizontalPartOffset,0.4
;   supportUpperSeparationLayers,1
;   supportLowerSeparationLayers,1
;   supportType,0
;   supportGridSpacing,1
;   maxOverhangAngle,45
;   supportAngles,45,-45
;   temperatureName,Primary Extruder,Heated Bed
;   temperatureNumber,0,0
;   temperatureSetpointCount,2,1
;   temperatureSetpointLayers,1,2,1
;   temperatureSetpointTemperatures,215,210,60
;   temperatureStabilizeAtStartup,1,1
;   temperatureHeatedBed,0,1
;   fanLayers,1,2
;   fanSpeeds,0,100
;   blipFanToFullPower,1
;   adjustSpeedForCooling,1
;   minSpeedLayerTime,15
;   minCoolingSpeedSlowdown,20
;   increaseFanForCooling,0
;   minFanLayerTime,45
;   maxCoolingFanSpeed,100
;   increaseFanForBridging,1
;   bridgingFanSpeed,100
;   use5D,1
;   relativeEdistances,0
;   allowEaxisZeroing,1
;   independentExtruderAxes,0
;   includeM10123,0
;   stickySupport,1
;   applyToolheadOffsets,0
;   gcodeXoffset,24
;   gcodeYoffset,22
;   gcodeZoffset,0
;   overrideMachineDefinition,1
;   machineTypeOverride,0
;   strokeXoverride,310
;   strokeYoverride,310
;   strokeZoverride,334
;   originOffsetXoverride,0
;   originOffsetYoverride,0
;   originOffsetZoverride,0
;   homeXdirOverride,-1
;   homeYdirOverride,-1
;   homeZdirOverride,-1
;   flipXoverride,1
;   flipYoverride,-1
;   flipZoverride,1
;   toolheadOffsets,0,0|0,0|0,0|0,0|0,0|0,0
;   overrideFirmwareConfiguration,1
;   firmwareTypeOverride,RepRap (Marlin/Repetier/Sprinter)
;   GPXconfigOverride,r2
;   baudRateOverride,115200
;   overridePrinterModels,1
;   printerModelsOverride,Blvfull.stl
;   startingGcode,M291 P"Homing all axis" R"Printing.." S1 T2,G21		; metric values,G28		; home all,M98 P"/macros/load_meshbed"	; load mesh bed corresponding to the temp,M98 P"/macros/set_baby_step"	; set baby step,M98 P"/macros/purge_and_prime"; purge and do the prime line,,G92 E0 F100		; reset extruder,G1 Z10 F3000 		; move z up little to prevent scratching of surface,G92 E0 		; reset extruder,M291 P"Printing started !" R"Printing.." S1 T3
;   layerChangeGcode,
;   retractionGcode,
;   toolChangeGcode,
;   endingGcode,M104 S0 ; turn off extruder,M140 S0 ; turn off bed,M98 P"/macros/remove_baby_step"	; unset baby step,M98 P"/macros/rise30mm",G1 X0 Y300 F1000 ; prepare for part removal,M84 ; disable motors,M106 S0 ;turn off part cooling fan,;M81 ; shutdown,; play song,M300 S294 P200 ;D4: 294,M300 S588 P200 ;D5: 588,M300 S440 P200 ;A4: 440,M300 S392 P200 ;G4: 392,M300 S784 P200 ;G5: 784,M300 S440 P200 ;A4: 440,M300 S740 P200 ;F#5: 740,M300 S440 P200 ;A4: 440,M291 P"Printing finished !" R"Printing.." S1 T0,
;   exportFileFormat,gcode
;   celebration,0
;   celebrationSong,Star Wars
;   postProcessing,
;   defaultSpeed,6000
;   outlineUnderspeed,0.66
;   solidInfillUnderspeed,0.8
;   supportUnderspeed,0.8
;   rapidXYspeed,7200
;   rapidZspeed,1002
;   minBridgingArea,50
;   bridgingExtraInflation,0
;   bridgingExtrusionMultiplier,1
;   bridgingSpeedMultiplier,1
;   useFixedBridgingAngle,0
;   fixedBridgingAngle,0
;   applyBridgingToPerimeters,1
;   filamentDiameters,1.75|1.75|1.75|1.75|1.75|1.75
;   filamentPricesPerKg,30|110|110|110|110|110
;   filamentDensities,1.25|1.25|1.25|1.25|1.25|1.25
;   useMinPrintHeight,0
;   minPrintHeight,0
;   useMaxPrintHeight,0
;   maxPrintHeight,0
;   useDiaphragm,0
;   diaphragmLayerInterval,20
;   robustSlicing,1
;   mergeAllIntoSolid,0
;   onlyRetractWhenCrossingOutline,0
;   retractBetweenLayers,1
;   useRetractionMinTravel,1
;   retractionMinTravel,3
;   retractWhileWiping,1
;   onlyWipeOutlines,1
;   avoidCrossingOutline,1
;   maxMovementDetourFactor,3
;   toolChangeRetractionDistance,12
;   toolChangeExtraRestartDistance,-0.5
;   toolChangeRetractionSpeed,600
;   externalThinWallType,1
;   internalThinWallType,2
;   thinWallAllowedOverlapPercentage,15
;   singleExtrusionMinLength,1
;   singleExtrusionMinPrintingWidthPercentage,50
;   singleExtrusionMaxPrintingWidthPercentage,200
;   singleExtrusionEndpointExtension,0.2
;   horizontalSizeCompensation,0
G90
M82
M106 S0
M140 S60
M190 S60
M104 S215 T0
M109 S215 T0
M291 P"Homing all axis" R"Printing.." S1 T2
G21		; metric values
G28		; home all
M98 P"/macros/load_meshbed"	; load mesh bed corresponding to the temp
M98 P"/macros/set_baby_step"	; set baby step
M98 P"/macros/purge_and_prime"; purge and do the prime line
G92 E0 F100		; reset extruder
G1 Z10 F3000 		; move z up little to prevent scratching of surface
G92 E0 		; reset extruder
M291 P"Printing started !" R"Printing.." S1 T3
; process Process1
; layer 1, Z = 0.300
T0
G92 E0.0000
G1 E-1.5000 F5100
; feature skirt
; tool H0.300 W0.480
G1 Z0.300 F1002
G1 X147.399 Y230.696 F7200
G1 E0.0000 F5100
G92 E0.0000
G1 X143.463 Y226.760 E0.3333 F2400
G1 X143.463 Y202.530 E1.7839
G1 X143.923 Y200.818 E1.8900
G1 X155.342 Y181.089 E3.2548
G1 X156.582 Y180.374 E3.3404
G1 X156.479 Y179.988 E3.3643
G1 X156.377 Y179.411 E3.3995
G1 X156.293 Y178.451 E3.4571
G1 X156.280 Y178.158 E3.4747
G1 X156.280 Y154.368 E4.8989
G1 X156.258 Y153.897 E4.9272
G1 X156.213 Y153.589 E4.9458
G1 X156.140 Y153.286 E4.9645
G1 X156.038 Y152.992 E4.9831
G1 X155.909 Y152.709 E5.0018
G1 X155.753 Y152.439 E5.0204
G1 X155.572 Y152.185 E5.0390
G1 X155.368 Y151.950 E5.0577
G1 X155.143 Y151.735 E5.0763
G1 X154.898 Y151.542 E5.0950
G1 X154.502 Y151.288 E5.1232
G1 X148.714 Y147.946 E5.5233
G1 X148.511 Y147.819 E5.5376
G1 X147.740 Y147.297 E5.5934
G1 X147.363 Y147.001 E5.6221
G1 X146.585 Y146.294 E5.6850
G1 X146.254 Y145.946 E5.7137
G1 X145.585 Y145.136 E5.7766
G1 X145.307 Y144.745 E5.8054
G1 X144.760 Y143.848 E5.8683
G1 X144.540 Y143.421 E5.8970
G1 X144.126 Y142.455 E5.9599
G1 X143.969 Y142.002 E5.9887
G1 X143.697 Y140.987 E6.0516
G1 X143.606 Y140.516 E6.0803
G1 X143.482 Y139.472 E6.1432
G1 X143.459 Y138.993 E6.1719
G1 X143.484 Y137.942 E6.2349
G1 X143.529 Y137.464 E6.2636
G1 X143.704 Y136.428 E6.3265
G1 X143.817 Y135.962 E6.3552
G1 X144.137 Y134.961 E6.4181
G1 X144.315 Y134.515 E6.4469
G1 X144.722 Y133.678 E6.5026
G1 X144.834 Y133.466 E6.5170
G1 X147.670 Y128.555 E6.8565
G1 X147.797 Y128.352 E6.8708
G1 X148.319 Y127.581 E6.9265
G1 X148.616 Y127.204 E6.9553
G1 X149.322 Y126.426 E7.0182
G1 X149.670 Y126.095 E7.0469
G1 X150.480 Y125.426 E7.1098
G1 X150.871 Y125.148 E7.1386
G1 X151.768 Y124.601 E7.2015
G1 X152.195 Y124.381 E7.2302
G1 X153.161 Y123.967 E7.2931
G1 X153.614 Y123.810 E7.3219
G1 X154.629 Y123.538 E7.3848
G1 X155.101 Y123.447 E7.4135
G1 X156.144 Y123.323 E7.4764
G1 X156.623 Y123.300 E7.5051
G1 X157.674 Y123.325 E7.5680
G1 X158.151 Y123.370 E7.5968
G1 X159.188 Y123.545 E7.6597
G1 X159.654 Y123.658 E7.6884
G1 X160.655 Y123.978 E7.7513
G1 X161.101 Y124.156 E7.7801
G1 X161.938 Y124.563 E7.8358
G1 X162.150 Y124.675 E7.8501
G1 X168.339 Y128.249 E8.2780
G1 X169.202 Y128.710 E8.3366
G1 X169.994 Y129.069 E8.3887
G1 X170.807 Y129.375 E8.4407
G1 X171.638 Y129.627 E8.4927
G1 X172.484 Y129.824 E8.5447
G1 X173.342 Y129.966 E8.5967
G1 X174.206 Y130.051 E8.6487
G1 X175.184 Y130.083 E8.7073
G1 X182.816 Y130.083 E9.1642
G1 X183.794 Y130.051 E9.2228
G1 X184.658 Y129.966 E9.2748
G1 X185.516 Y129.824 E9.3268
G1 X186.362 Y129.627 E9.3788
G1 X187.193 Y129.375 E9.4308
G1 X188.006 Y129.069 E9.4828
G1 X188.797 Y128.710 E9.5348
G1 X189.661 Y128.249 E9.5934
G1 X195.850 Y124.675 E10.0213
G1 X196.062 Y124.563 E10.0357
G1 X196.899 Y124.156 E10.0914
G1 X197.345 Y123.978 E10.1201
G1 X198.346 Y123.658 E10.1830
G1 X198.812 Y123.545 E10.2118
G1 X199.849 Y123.370 E10.2747
G1 X200.326 Y123.325 E10.3034
G1 X201.377 Y123.300 E10.3663
G1 X201.856 Y123.323 E10.3951
G1 X202.899 Y123.447 E10.4580
G1 X203.371 Y123.538 E10.4867
G1 X204.386 Y123.810 E10.5496
G1 X204.839 Y123.967 E10.5784
G1 X205.805 Y124.381 E10.6413
G1 X206.232 Y124.601 E10.6700
G1 X207.129 Y125.148 E10.7329
G1 X207.520 Y125.426 E10.7616
G1 X208.330 Y126.095 E10.8245
G1 X208.678 Y126.426 E10.8533
G1 X209.384 Y127.204 E10.9162
G1 X209.681 Y127.581 E10.9449
G1 X210.203 Y128.352 E11.0006
G1 X210.330 Y128.555 E11.0150
G1 X213.166 Y133.466 E11.3545
G1 X213.278 Y133.678 E11.3689
G1 X213.685 Y134.515 E11.4246
G1 X213.863 Y134.961 E11.4533
G1 X214.183 Y135.962 E11.5162
G1 X214.296 Y136.428 E11.5450
G1 X214.470 Y137.465 E11.6079
G1 X214.516 Y137.942 E11.6366
G1 X214.541 Y138.993 E11.6995
G1 X214.518 Y139.472 E11.7283
G1 X214.394 Y140.516 E11.7912
G1 X214.303 Y140.987 E11.8199
G1 X214.031 Y142.002 E11.8828
G1 X213.874 Y142.455 E11.9115
G1 X213.460 Y143.421 E11.9744
G1 X213.240 Y143.848 E12.0032
G1 X212.693 Y144.745 E12.0661
G1 X212.415 Y145.136 E12.0948
G1 X211.746 Y145.946 E12.1577
G1 X211.415 Y146.294 E12.1865
G1 X210.637 Y147.001 E12.2494
G1 X210.260 Y147.297 E12.2781
G1 X209.489 Y147.819 E12.3338
G1 X209.286 Y147.946 E12.3482
G1 X203.499 Y151.287 E12.7482
G1 X203.102 Y151.543 E12.7765
G1 X202.857 Y151.735 E12.7951
G1 X202.632 Y151.950 E12.8138
G1 X202.428 Y152.185 E12.8324
G1 X202.247 Y152.439 E12.8511
G1 X202.091 Y152.709 E12.8697
G1 X201.962 Y152.992 E12.8884
G1 X201.860 Y153.286 E12.9070
G1 X201.787 Y153.589 E12.9256
G1 X201.742 Y153.897 E12.9443
G1 X201.720 Y154.368 E12.9725
G1 X201.720 Y178.158 E14.3968
G1 X201.707 Y178.451 E14.4144
G1 X201.623 Y179.411 E14.4720
G1 X201.521 Y179.989 E14.5071
G1 X201.234 Y181.061 E14.5736
G1 X201.033 Y181.612 E14.6087
G1 X200.564 Y182.618 E14.6752
G1 X200.271 Y183.126 E14.7103
G1 X199.634 Y184.035 E14.7767
G1 X199.257 Y184.484 E14.8119
G1 X198.473 Y185.269 E14.8783
G1 X198.023 Y185.646 E14.9134
G1 X197.114 Y186.283 E14.9799
G1 X196.606 Y186.576 E15.0150
G1 X195.600 Y187.045 E15.0814
G1 X195.049 Y187.246 E15.1166
G1 X193.977 Y187.533 E15.1830
G1 X193.399 Y187.635 E15.2181
G1 X192.440 Y187.719 E15.2758
G1 X192.147 Y187.732 E15.2933
G1 X176.868 Y187.732 E16.2080
G1 X180.381 Y193.800 E16.6278
G1 X180.153 Y196.174 E16.7706
G1 X182.325 Y197.159 E16.9134
G1 X184.443 Y200.818 E17.1665
G1 X184.903 Y202.530 E17.2726
G1 X184.903 Y226.760 E18.7232
G1 X180.966 Y230.696 E19.0565
G1 X147.399 Y230.696 E21.0661
G1 X147.598 Y230.216 F7200
G92 E0.0000
G1 X143.943 Y226.561 E0.3095 F2400
G1 X143.943 Y202.594 E1.7444
G1 X144.370 Y201.003 E1.8429
G1 X155.693 Y181.440 E3.1962
G1 X157.141 Y180.606 E3.2962
G1 X156.948 Y179.884 E3.3409
G1 X156.853 Y179.348 E3.3736
G1 X156.772 Y178.420 E3.4293
G1 X156.760 Y178.148 E3.4456
G1 X156.760 Y154.357 E4.8700
G1 X156.736 Y153.851 E4.9003
G1 X156.685 Y153.498 E4.9216
G1 X156.601 Y153.151 E4.9430
G1 X156.484 Y152.813 E4.9644
G1 X156.336 Y152.488 E4.9858
G1 X156.157 Y152.179 E5.0072
G1 X155.950 Y151.888 E5.0285
G1 X155.716 Y151.618 E5.0499
G1 X155.458 Y151.372 E5.0713
G1 X155.177 Y151.151 E5.0927
G1 X154.751 Y150.878 E5.1230
G1 X148.962 Y147.535 E5.5232
G1 X148.773 Y147.417 E5.5366
G1 X148.023 Y146.909 E5.5907
G1 X147.673 Y146.634 E5.6174
G1 X146.921 Y145.950 E5.6783
G1 X146.613 Y145.628 E5.7050
G1 X145.966 Y144.844 E5.7658
G1 X145.708 Y144.481 E5.7925
G1 X145.179 Y143.613 E5.8533
G1 X144.974 Y143.217 E5.8800
G1 X144.574 Y142.282 E5.9409
G1 X144.428 Y141.861 E5.9676
G1 X144.165 Y140.879 E6.0284
G1 X144.081 Y140.442 E6.0551
G1 X143.960 Y139.432 E6.1160
G1 X143.939 Y138.987 E6.1426
G1 X143.963 Y137.971 E6.2035
G1 X144.006 Y137.527 E6.2302
G1 X144.174 Y136.525 E6.2910
G1 X144.279 Y136.092 E6.3177
G1 X144.589 Y135.124 E6.3786
G1 X144.755 Y134.710 E6.4053
G1 X145.150 Y133.896 E6.4594
G1 X145.254 Y133.699 E6.4728
G1 X148.081 Y128.803 E6.8112
G1 X148.199 Y128.614 E6.8246
G1 X148.707 Y127.864 E6.8788
G1 X148.982 Y127.514 E6.9055
G1 X149.666 Y126.762 E6.9663
G1 X149.989 Y126.454 E6.9930
G1 X150.772 Y125.807 E7.0538
G1 X151.135 Y125.549 E7.0805
G1 X152.003 Y125.020 E7.1414
G1 X152.399 Y124.815 E7.1681
G1 X153.334 Y124.415 E7.2289
G1 X153.755 Y124.269 E7.2556
G1 X154.737 Y124.006 E7.3165
G1 X155.175 Y123.922 E7.3431
G1 X156.184 Y123.801 E7.4040
G1 X156.629 Y123.780 E7.4307
G1 X157.645 Y123.804 E7.4915
G1 X158.089 Y123.847 E7.5182
G1 X159.091 Y124.015 E7.5791
G1 X159.524 Y124.120 E7.6058
G1 X160.493 Y124.430 E7.6666
G1 X160.906 Y124.595 E7.6933
G1 X161.720 Y124.991 E7.7475
G1 X161.917 Y125.095 E7.7608
G1 X168.106 Y128.668 E8.1886
G1 X168.990 Y129.141 E8.2486
G1 X169.810 Y129.513 E8.3026
G1 X170.653 Y129.830 E8.3564
G1 X171.514 Y130.091 E8.4103
G1 X172.391 Y130.295 E8.4642
G1 X173.279 Y130.442 E8.5181
G1 X174.175 Y130.530 E8.5720
G1 X175.177 Y130.563 E8.6320
G1 X182.823 Y130.563 E9.0898
G1 X183.825 Y130.530 E9.1498
G1 X184.721 Y130.442 E9.2037
G1 X185.609 Y130.295 E9.2576
G1 X186.486 Y130.091 E9.3115
G1 X187.347 Y129.830 E9.3654
G1 X188.190 Y129.513 E9.4193
G1 X189.010 Y129.141 E9.4732
G1 X189.894 Y128.668 E9.5332
G1 X196.083 Y125.095 E9.9610
G1 X196.280 Y124.991 E9.9744
G1 X197.094 Y124.595 E10.0286
G1 X197.507 Y124.430 E10.0552
G1 X198.476 Y124.120 E10.1161
G1 X198.909 Y124.015 E10.1428
G1 X199.911 Y123.847 E10.2036
G1 X200.355 Y123.804 E10.2303
G1 X201.371 Y123.780 E10.2912
G1 X201.816 Y123.801 E10.3179
G1 X202.825 Y123.922 E10.3787
G1 X203.263 Y124.006 E10.4054
G1 X204.245 Y124.269 E10.4663
G1 X204.666 Y124.415 E10.4929
G1 X205.601 Y124.815 E10.5538
G1 X205.997 Y125.020 E10.5805
G1 X206.865 Y125.549 E10.6413
G1 X207.228 Y125.807 E10.6680
G1 X208.011 Y126.454 E10.7289
G1 X208.334 Y126.762 E10.7555
G1 X209.018 Y127.514 E10.8164
G1 X209.293 Y127.864 E10.8431
G1 X209.801 Y128.614 E10.8973
G1 X209.919 Y128.803 E10.9106
