; G-Code generated by Simplify3D(R) Version 4.1.2
; Apr 2, 2021 at 9:48:39 PM
; Settings Summary
;   processName,Process1
;   applyToModels,ball plate v2
;   profileName,BLV mgn Cube-  Simplify3D Profile
;   profileVersion,2021-03-16 20:26:39
;   baseProfile,Anet A8
;   printMaterial,PLA
;   printQuality,Medium
;   printExtruders,
;   extruderName,Primary Extruder
;   extruderToolheadNumber,0
;   extruderDiameter,0.4
;   extruderAutoWidth,1
;   extruderWidth,0.48
;   extrusionMultiplier,1
;   extruderUseRetract,1
;   extruderRetractionDistance,1.5
;   extruderExtraRestartDistance,0
;   extruderRetractionZLift,0
;   extruderRetractionSpeed,5100
;   extruderUseCoasting,1
;   extruderCoastingDistance,0.2
;   extruderUseWipe,1
;   extruderWipeDistance,4
;   primaryExtruder,0
;   layerHeight,0.2
;   topSolidLayers,3
;   bottomSolidLayers,3
;   perimeterOutlines,3
;   printPerimetersInsideOut,0
;   startPointOption,3
;   startPointOriginX,0
;   startPointOriginY,500
;   sequentialIslands,0
;   spiralVaseMode,0
;   firstLayerHeightPercentage,150
;   firstLayerWidthPercentage,100
;   firstLayerUnderspeed,0.4
;   useRaft,0
;   raftExtruder,0
;   raftTopLayers,3
;   raftBaseLayers,2
;   raftOffset,3
;   raftSeparationDistance,0.14
;   raftTopInfill,100
;   aboveRaftSpeedMultiplier,0.3
;   useSkirt,1
;   skirtExtruder,0
;   skirtLayers,1
;   skirtOutlines,2
;   skirtOffset,6
;   usePrimePillar,0
;   primePillarExtruder,999
;   primePillarWidth,12
;   primePillarLocation,7
;   primePillarSpeedMultiplier,1
;   useOozeShield,0
;   oozeShieldExtruder,999
;   oozeShieldOffset,2
;   oozeShieldOutlines,1
;   oozeShieldSidewallShape,1
;   oozeShieldSidewallAngle,30
;   oozeShieldSpeedMultiplier,1
;   infillExtruder,0
;   internalInfillPattern,Rectilinear
;   externalInfillPattern,Rectilinear
;   infillPercentage,15
;   outlineOverlapPercentage,15
;   infillExtrusionWidthPercentage,100
;   minInfillLength,5
;   infillLayerInterval,1
;   internalInfillAngles,45,-45
;   overlapInternalInfillAngles,0
;   externalInfillAngles,45,-45
;   generateSupport,1
;   supportExtruder,0
;   supportInfillPercentage,30
;   supportExtraInflation,0
;   supportBaseLayers,0
;   denseSupportExtruder,0
;   denseSupportLayers,0
;   denseSupportInfillPercentage,70
;   supportLayerInterval,1
;   supportHorizontalPartOffset,0.4
;   supportUpperSeparationLayers,1
;   supportLowerSeparationLayers,1
;   supportType,0
;   supportGridSpacing,1
;   maxOverhangAngle,45
;   supportAngles,45,-45
;   temperatureName,Primary Extruder,Heated Bed
;   temperatureNumber,0,0
;   temperatureSetpointCount,2,1
;   temperatureSetpointLayers,1,2,1
;   temperatureSetpointTemperatures,215,210,60
;   temperatureStabilizeAtStartup,1,1
;   temperatureHeatedBed,0,1
;   fanLayers,1,2
;   fanSpeeds,0,100
;   blipFanToFullPower,1
;   adjustSpeedForCooling,1
;   minSpeedLayerTime,15
;   minCoolingSpeedSlowdown,20
;   increaseFanForCooling,0
;   minFanLayerTime,45
;   maxCoolingFanSpeed,100
;   increaseFanForBridging,1
;   bridgingFanSpeed,100
;   use5D,1
;   relativeEdistances,0
;   allowEaxisZeroing,1
;   independentExtruderAxes,0
;   includeM10123,0
;   stickySupport,1
;   applyToolheadOffsets,0
;   gcodeXoffset,24
;   gcodeYoffset,22
;   gcodeZoffset,0
;   overrideMachineDefinition,1
;   machineTypeOverride,0
;   strokeXoverride,310
;   strokeYoverride,310
;   strokeZoverride,334
;   originOffsetXoverride,0
;   originOffsetYoverride,0
;   originOffsetZoverride,0
;   homeXdirOverride,-1
;   homeYdirOverride,-1
;   homeZdirOverride,-1
;   flipXoverride,1
;   flipYoverride,-1
;   flipZoverride,1
;   toolheadOffsets,0,0|0,0|0,0|0,0|0,0|0,0
;   overrideFirmwareConfiguration,1
;   firmwareTypeOverride,RepRap (Marlin/Repetier/Sprinter)
;   GPXconfigOverride,r2
;   baudRateOverride,115200
;   overridePrinterModels,1
;   printerModelsOverride,Blvfull.stl
;   startingGcode,M291 P"Homing all axis" R"Printing.." S1 T2,G21		; metric values,G28		; home all,M98 P"/macros/load_meshbed"	; load mesh bed corresponding to the temp,M98 P"/macros/set_baby_step"	; set baby step,M98 P"/macros/purge_and_prime"; purge and do the prime line,,G92 E0 F100		; reset extruder,G1 Z10 F3000 		; move z up little to prevent scratching of surface,G92 E0 		; reset extruder,M291 P"Printing started !" R"Printing.." S1 T3
;   layerChangeGcode,
;   retractionGcode,
;   toolChangeGcode,
;   endingGcode,M104 S0 ; turn off extruder,M140 S0 ; turn off bed,M98 P"/macros/remove_baby_step"	; unset baby step,M98 P"/macros/rise30mm",G1 X0 Y300 F1000 ; prepare for part removal,M84 ; disable motors,M106 S0 ;turn off part cooling fan,;M81 ; shutdown,; play song,M300 S294 P200 ;D4: 294,M300 S588 P200 ;D5: 588,M300 S440 P200 ;A4: 440,M300 S392 P200 ;G4: 392,M300 S784 P200 ;G5: 784,M300 S440 P200 ;A4: 440,M300 S740 P200 ;F#5: 740,M300 S440 P200 ;A4: 440,M291 P"Printing finished !" R"Printing.." S1 T0,
;   exportFileFormat,gcode
;   celebration,0
;   celebrationSong,Star Wars
;   postProcessing,
;   defaultSpeed,6000
;   outlineUnderspeed,0.66
;   solidInfillUnderspeed,0.8
;   supportUnderspeed,0.8
;   rapidXYspeed,7200
;   rapidZspeed,1002
;   minBridgingArea,50
;   bridgingExtraInflation,0
;   bridgingExtrusionMultiplier,1
;   bridgingSpeedMultiplier,1
;   useFixedBridgingAngle,0
;   fixedBridgingAngle,0
;   applyBridgingToPerimeters,1
;   filamentDiameters,1.75|1.75|1.75|1.75|1.75|1.75
;   filamentPricesPerKg,30|110|110|110|110|110
;   filamentDensities,1.25|1.25|1.25|1.25|1.25|1.25
;   useMinPrintHeight,0
;   minPrintHeight,0
;   useMaxPrintHeight,0
;   maxPrintHeight,0
;   useDiaphragm,0
;   diaphragmLayerInterval,20
;   robustSlicing,1
;   mergeAllIntoSolid,0
;   onlyRetractWhenCrossingOutline,0
;   retractBetweenLayers,1
;   useRetractionMinTravel,1
;   retractionMinTravel,3
;   retractWhileWiping,1
;   onlyWipeOutlines,1
;   avoidCrossingOutline,1
;   maxMovementDetourFactor,3
;   toolChangeRetractionDistance,12
;   toolChangeExtraRestartDistance,-0.5
;   toolChangeRetractionSpeed,600
;   externalThinWallType,1
;   internalThinWallType,2
;   thinWallAllowedOverlapPercentage,15
;   singleExtrusionMinLength,1
;   singleExtrusionMinPrintingWidthPercentage,50
;   singleExtrusionMaxPrintingWidthPercentage,200
;   singleExtrusionEndpointExtension,0.2
;   horizontalSizeCompensation,0
G90
M82
M106 S0
M140 S60
M190 S60
M104 S215 T0
M109 S215 T0
M291 P"Homing all axis" R"Printing.." S1 T2
G21		; metric values
G28		; home all
M98 P"/macros/load_meshbed"	; load mesh bed corresponding to the temp
M98 P"/macros/set_baby_step"	; set baby step
M98 P"/macros/purge_and_prime"; purge and do the prime line
G92 E0 F100		; reset extruder
G1 Z10 F3000 		; move z up little to prevent scratching of surface
G92 E0 		; reset extruder
M291 P"Printing started !" R"Printing.." S1 T3
; process Process1
; layer 1, Z = 0.300
T0
G92 E0.0000
G1 E-1.5000 F5100
; feature skirt
; tool H0.300 W0.480
G1 Z0.300 F1002
G1 X170.213 Y123.249 F7200
G1 E0.0000 F5100
G92 E0.0000
G1 X169.207 Y122.780 E0.0664 F2400
G1 X168.699 Y122.487 E0.1016
G1 X167.790 Y121.850 E0.1680
G1 X167.341 Y121.473 E0.2031
G1 X166.556 Y120.688 E0.2696
G1 X166.179 Y120.239 E0.3047
G1 X165.542 Y119.330 E0.3711
G1 X165.249 Y118.822 E0.4063
G1 X164.780 Y117.816 E0.4727
G1 X164.579 Y117.265 E0.5079
G1 X164.292 Y116.193 E0.5743
G1 X164.190 Y115.615 E0.6094
G1 X164.106 Y114.655 E0.6671
G1 X164.093 Y114.362 E0.6846
G1 X164.093 Y90.572 E2.1089
G1 X164.071 Y90.101 E2.1371
G1 X164.026 Y89.793 E2.1558
G1 X163.953 Y89.490 E2.1744
G1 X163.851 Y89.196 E2.1931
G1 X163.722 Y88.913 E2.2117
G1 X163.566 Y88.643 E2.2304
G1 X163.386 Y88.389 E2.2490
G1 X163.181 Y88.154 E2.2677
G1 X162.956 Y87.939 E2.2863
G1 X162.711 Y87.747 E2.3049
G1 X162.315 Y87.492 E2.3332
G1 X156.527 Y84.150 E2.7332
G1 X156.324 Y84.023 E2.7476
G1 X155.553 Y83.501 E2.8033
G1 X155.176 Y83.205 E2.8321
G1 X154.399 Y82.498 E2.8950
G1 X154.067 Y82.150 E2.9237
G1 X153.398 Y81.340 E2.9866
G1 X153.120 Y80.949 E3.0153
G1 X152.573 Y80.052 E3.0782
G1 X152.353 Y79.625 E3.1070
G1 X151.939 Y78.660 E3.1699
G1 X151.782 Y78.206 E3.1986
G1 X151.510 Y77.191 E3.2615
G1 X151.420 Y76.719 E3.2903
G1 X151.295 Y75.676 E3.3532
G1 X151.272 Y75.197 E3.3819
G1 X151.297 Y74.147 E3.4448
G1 X151.343 Y73.669 E3.4736
G1 X151.517 Y72.633 E3.5365
G1 X151.630 Y72.166 E3.5652
G1 X151.950 Y71.165 E3.6281
G1 X152.128 Y70.720 E3.6568
G1 X152.535 Y69.882 E3.7126
G1 X152.648 Y69.670 E3.7269
G1 X155.483 Y64.759 E4.0664
G1 X155.610 Y64.556 E4.0808
G1 X156.132 Y63.785 E4.1365
G1 X156.429 Y63.408 E4.1653
G1 X157.136 Y62.630 E4.2282
G1 X157.483 Y62.299 E4.2569
G1 X158.293 Y61.630 E4.3198
G1 X158.684 Y61.352 E4.3485
G1 X159.581 Y60.805 E4.4114
G1 X160.008 Y60.585 E4.4402
G1 X160.974 Y60.171 E4.5031
G1 X161.427 Y60.014 E4.5318
G1 X162.442 Y59.742 E4.5947
G1 X162.914 Y59.651 E4.6235
G1 X163.957 Y59.527 E4.6864
G1 X164.437 Y59.504 E4.7151
G1 X165.487 Y59.529 E4.7780
G1 X165.965 Y59.575 E4.8068
G1 X167.001 Y59.749 E4.8697
G1 X167.467 Y59.862 E4.8984
G1 X168.468 Y60.182 E4.9613
G1 X168.914 Y60.360 E4.9900
G1 X169.751 Y60.767 E5.0458
G1 X169.963 Y60.879 E5.0601
G1 X176.152 Y64.453 E5.4880
G1 X177.016 Y64.914 E5.5466
G1 X177.807 Y65.273 E5.5986
G1 X178.620 Y65.579 E5.6506
G1 X179.451 Y65.831 E5.7026
G1 X180.298 Y66.028 E5.7546
G1 X181.155 Y66.170 E5.8067
G1 X182.019 Y66.255 E5.8587
G1 X182.998 Y66.287 E5.9173
G1 X190.629 Y66.287 E6.3741
G1 X191.607 Y66.255 E6.4327
G1 X192.471 Y66.170 E6.4847
G1 X193.329 Y66.028 E6.5368
G1 X194.175 Y65.831 E6.5888
G1 X195.006 Y65.579 E6.6408
G1 X195.819 Y65.273 E6.6928
G1 X196.611 Y64.914 E6.7448
G1 X197.474 Y64.453 E6.8034
G1 X203.663 Y60.879 E7.2313
G1 X203.875 Y60.767 E7.2456
G1 X204.713 Y60.360 E7.3014
G1 X205.158 Y60.182 E7.3301
G1 X206.159 Y59.862 E7.3930
G1 X206.625 Y59.749 E7.4217
G1 X207.662 Y59.575 E7.4847
G1 X208.139 Y59.529 E7.5134
G1 X209.190 Y59.504 E7.5763
G1 X209.669 Y59.527 E7.6050
G1 X210.713 Y59.651 E7.6679
G1 X211.184 Y59.742 E7.6967
G1 X212.199 Y60.014 E7.7596
G1 X212.652 Y60.171 E7.7883
G1 X213.618 Y60.585 E7.8512
G1 X214.045 Y60.805 E7.8800
G1 X214.942 Y61.352 E7.9429
G1 X215.333 Y61.630 E7.9716
G1 X216.144 Y62.299 E8.0345
G1 X216.491 Y62.630 E8.0632
G1 X217.198 Y63.408 E8.1262
G1 X217.494 Y63.785 E8.1549
G1 X218.016 Y64.556 E8.2106
G1 X218.143 Y64.759 E8.2250
G1 X220.979 Y69.670 E8.5645
G1 X221.091 Y69.882 E8.5788
G1 X221.498 Y70.720 E8.6346
G1 X221.676 Y71.165 E8.6633
G1 X221.996 Y72.166 E8.7262
G1 X222.109 Y72.632 E8.7549
G1 X222.284 Y73.669 E8.8178
G1 X222.329 Y74.146 E8.8466
G1 X222.354 Y75.197 E8.9095
G1 X222.332 Y75.676 E8.9382
G1 X222.207 Y76.720 E9.0011
G1 X222.116 Y77.191 E9.0299
G1 X221.844 Y78.206 E9.0928
G1 X221.687 Y78.659 E9.1215
G1 X221.273 Y79.625 E9.1844
G1 X221.053 Y80.052 E9.2132
G1 X220.506 Y80.949 E9.2761
G1 X220.228 Y81.340 E9.3048
G1 X219.559 Y82.150 E9.3677
G1 X219.228 Y82.498 E9.3964
G1 X218.451 Y83.205 E9.4593
G1 X218.073 Y83.501 E9.4881
G1 X217.302 Y84.023 E9.5438
G1 X217.099 Y84.150 E9.5582
G1 X211.312 Y87.492 E9.9582
G1 X210.915 Y87.747 E9.9865
G1 X210.670 Y87.939 E10.0051
G1 X210.445 Y88.154 E10.0238
G1 X210.241 Y88.389 E10.0424
G1 X210.060 Y88.643 E10.0610
G1 X209.905 Y88.913 E10.0797
G1 X209.775 Y89.196 E10.0983
G1 X209.673 Y89.490 E10.1170
G1 X209.600 Y89.793 E10.1356
G1 X209.556 Y90.101 E10.1543
G1 X209.533 Y90.572 E10.1825
G1 X209.533 Y114.363 E11.6068
G1 X209.520 Y114.656 E11.6243
G1 X209.436 Y115.615 E11.6820
G1 X209.335 Y116.193 E11.7171
G1 X209.047 Y117.264 E11.7835
G1 X208.847 Y117.816 E11.8187
G1 X208.378 Y118.822 E11.8851
G1 X208.084 Y119.330 E11.9203
G1 X207.448 Y120.239 E11.9867
G1 X207.071 Y120.689 E12.0218
G1 X206.286 Y121.473 E12.0883
G1 X205.836 Y121.850 E12.1234
G1 X204.927 Y122.487 E12.1898
G1 X204.419 Y122.780 E12.2250
G1 X203.413 Y123.249 E12.2914
G1 X202.862 Y123.450 E12.3265
G1 X201.790 Y123.737 E12.3930
G1 X201.212 Y123.839 E12.4281
G1 X200.253 Y123.923 E12.4858
G1 X199.960 Y123.936 E12.5033
G1 X173.667 Y123.936 E14.0774
G1 X173.374 Y123.923 E14.0950
G1 X172.414 Y123.839 E14.1526
G1 X171.836 Y123.737 E14.1878
G1 X170.764 Y123.450 E14.2542
G1 X170.213 Y123.249 E14.2893
G1 X170.397 Y122.805 F7200
G92 E0.0000
G1 X169.429 Y122.354 E0.0639 F2400
G1 X168.957 Y122.082 E0.0965
G1 X168.083 Y121.469 E0.1605
G1 X167.665 Y121.119 E0.1931
G1 X166.910 Y120.364 E0.2570
G1 X166.560 Y119.946 E0.2897
G1 X165.947 Y119.072 E0.3536
G1 X165.675 Y118.600 E0.3862
G1 X165.224 Y117.632 E0.4501
G1 X165.037 Y117.120 E0.4828
G1 X164.761 Y116.089 E0.5467
G1 X164.666 Y115.552 E0.5793
G1 X164.585 Y114.624 E0.6351
G1 X164.573 Y114.352 E0.6514
G1 X164.573 Y90.561 E2.0757
G1 X164.549 Y90.055 E2.1060
G1 X164.498 Y89.702 E2.1274
G1 X164.414 Y89.355 E2.1488
G1 X164.297 Y89.017 E2.1702
G1 X164.149 Y88.692 E2.1915
G1 X163.970 Y88.383 E2.2129
G1 X163.763 Y88.092 E2.2343
G1 X163.529 Y87.822 E2.2557
G1 X163.271 Y87.576 E2.2771
G1 X162.990 Y87.355 E2.2984
G1 X162.564 Y87.082 E2.3287
G1 X156.775 Y83.739 E2.7290
G1 X156.586 Y83.621 E2.7423
G1 X155.837 Y83.113 E2.7965
G1 X155.486 Y82.838 E2.8232
G1 X154.734 Y82.154 E2.8840
G1 X154.427 Y81.832 E2.9107
G1 X153.779 Y81.048 E2.9716
G1 X153.521 Y80.685 E2.9982
G1 X152.992 Y79.817 E3.0591
G1 X152.788 Y79.421 E3.0858
G1 X152.387 Y78.486 E3.1466
G1 X152.242 Y78.065 E3.1733
G1 X151.979 Y77.083 E3.2342
G1 X151.894 Y76.645 E3.2609
G1 X151.774 Y75.636 E3.3217
G1 X151.752 Y75.191 E3.3484
G1 X151.777 Y74.175 E3.4092
G1 X151.819 Y73.731 E3.4359
G1 X151.987 Y72.729 E3.4968
G1 X152.093 Y72.296 E3.5235
G1 X152.402 Y71.328 E3.5843
G1 X152.568 Y70.914 E3.6110
G1 X152.963 Y70.100 E3.6652
G1 X153.068 Y69.903 E3.6785
G1 X155.894 Y65.007 E4.0170
G1 X156.013 Y64.818 E4.0303
G1 X156.520 Y64.068 E4.0845
G1 X156.796 Y63.718 E4.1112
G1 X157.479 Y62.966 E4.1721
G1 X157.802 Y62.658 E4.1987
G1 X158.586 Y62.011 E4.2596
G1 X158.949 Y61.753 E4.2863
G1 X159.816 Y61.224 E4.3471
G1 X160.213 Y61.019 E4.3738
G1 X161.147 Y60.619 E4.4347
G1 X161.568 Y60.473 E4.4613
G1 X162.550 Y60.210 E4.5222
G1 X162.988 Y60.126 E4.5489
G1 X163.997 Y60.005 E4.6097
G1 X164.442 Y59.984 E4.6364
G1 X165.458 Y60.008 E4.6973
G1 X165.902 Y60.051 E4.7240
G1 X166.904 Y60.219 E4.7848
G1 X167.338 Y60.324 E4.8115
G1 X168.306 Y60.634 E4.8723
G1 X168.720 Y60.799 E4.8990
G1 X169.534 Y61.195 E4.9532
G1 X169.730 Y61.299 E4.9666
G1 X175.919 Y64.872 E5.3944
G1 X176.803 Y65.345 E5.4544
G1 X177.623 Y65.717 E5.5083
G1 X178.466 Y66.034 E5.5622
G1 X179.327 Y66.295 E5.6161
G1 X180.204 Y66.499 E5.6700
G1 X181.092 Y66.646 E5.7239
G1 X181.988 Y66.734 E5.7778
G1 X182.990 Y66.767 E5.8378
G1 X190.637 Y66.767 E6.2956
G1 X191.639 Y66.734 E6.3556
G1 X192.534 Y66.646 E6.4095
G1 X193.423 Y66.499 E6.4634
G1 X194.299 Y66.295 E6.5173
G1 X195.161 Y66.034 E6.5712
G1 X196.003 Y65.717 E6.6251
G1 X196.823 Y65.345 E6.6789
G1 X197.707 Y64.872 E6.7390
G1 X203.896 Y61.299 E7.1668
G1 X204.093 Y61.195 E7.1801
G1 X204.907 Y60.800 E7.2343
G1 X205.321 Y60.634 E7.2610
G1 X206.289 Y60.324 E7.3219
G1 X206.722 Y60.219 E7.3485
G1 X207.724 Y60.051 E7.4094
G1 X208.168 Y60.008 E7.4361
G1 X209.184 Y59.984 E7.4969
G1 X209.629 Y60.005 E7.5236
G1 X210.639 Y60.126 E7.5845
G1 X211.076 Y60.210 E7.6112
G1 X212.058 Y60.473 E7.6720
G1 X212.479 Y60.619 E7.6987
G1 X213.414 Y61.019 E7.7595
G1 X213.810 Y61.224 E7.7862
G1 X214.678 Y61.753 E7.8471
G1 X215.041 Y62.011 E7.8738
G1 X215.825 Y62.658 E7.9346
G1 X216.147 Y62.966 E7.9613
G1 X216.831 Y63.718 E8.0222
G1 X217.107 Y64.068 E8.0488
G1 X217.614 Y64.818 E8.1030
G1 X217.732 Y65.007 E8.1164
G1 X220.559 Y69.903 E8.4548
G1 X220.663 Y70.100 E8.4682
G1 X221.059 Y70.914 E8.5224
G1 X221.224 Y71.328 E8.5490
G1 X221.534 Y72.296 E8.6099
